;FLAVOR:Marlin
;TIME:962
;Filament used: 0.583888m
;Layer height: 0.2
;Generated with Cura_SteamEngine master
M190 S90
M104 S220
M109 S220
M82 ;absolute extrusion mode

G92 E0
G1 F3000 E-8
;LAYER_COUNT:24
;LAYER:0
M107
G0 F3600 X78.503 Y89.98 Z0.3
;TYPE:SKIRT
G1 F3000 E0
G1 F900 X78.914 Y89.635 E0.02677
G1 X79.372 Y89.356 E0.05353
G1 X79.866 Y89.148 E0.08027
G1 X80.385 Y89.015 E0.107
G1 X81.013 Y88.96 E0.13845
G1 X120.432 Y88.96 E2.10507
G1 X120.967 Y89 E2.13184
G1 X121.49 Y89.119 E2.1586
G1 X121.989 Y89.314 E2.18532
G1 X122.454 Y89.582 E2.2121
G1 X122.961 Y89.998 E2.24482
G1 X123.194 Y90.228 E2.26115
G1 X123.547 Y90.632 E2.28792
G1 X123.835 Y91.084 E2.31466
G1 X124.053 Y91.574 E2.34141
G1 X124.196 Y92.091 E2.36818
G1 X124.265 Y92.79 E2.40322
G1 X124.265 Y107.207 E3.12249
G1 X124.225 Y107.742 E3.14925
G1 X124.106 Y108.265 E3.17601
G1 X123.911 Y108.764 E3.20274
G1 X123.643 Y109.229 E3.22952
G1 X123.251 Y109.711 E3.26051
G1 X123.036 Y109.933 E3.27593
G1 X122.635 Y110.29 E3.30272
G1 X122.186 Y110.583 E3.32946
G1 X121.698 Y110.806 E3.35623
G1 X121.183 Y110.954 E3.38297
G1 X120.45 Y111.029 E3.41973
G1 X80.996 Y111.027 E5.38809
G1 X80.461 Y110.987 E5.41486
G1 X79.938 Y110.868 E5.44162
G1 X79.439 Y110.673 E5.46835
G1 X78.869 Y110.332 E5.50149
G1 X77.208 Y109.116 E5.60419
G1 X76.801 Y108.768 E5.6309
G1 X76.449 Y108.363 E5.65767
G1 X76.161 Y107.91 E5.68445
G1 X75.944 Y107.42 E5.71119
G1 X75.802 Y106.903 E5.73794
G1 X75.735 Y106.211 E5.77262
G1 X75.735 Y94.293 E6.36722
G1 X75.775 Y93.758 E6.39398
G1 X75.894 Y93.235 E6.42074
G1 X76.089 Y92.736 E6.44747
G1 X76.357 Y92.271 E6.47425
G1 X76.738 Y91.8 E6.50447
G1 X78.195 Y90.282 E6.60944
G1 X78.282 Y90.195 E6.61558
G1 X78.503 Y89.98 E6.63096
G0 F3600 X78.782 Y90.266
G1 F900 X79.171 Y89.944 E6.65616
G1 X79.606 Y89.686 E6.68139
G1 X80.076 Y89.5 E6.70661
G1 X80.57 Y89.391 E6.73185
G1 X81.013 Y89.36 E6.754
G1 X120.432 Y89.36 E8.72062
G1 X120.936 Y89.4 E8.74585
G1 X121.427 Y89.519 E8.77105
G1 X121.894 Y89.713 E8.79628
G1 X122.324 Y89.979 E8.82151
G1 X122.68 Y90.283 E8.84486
G1 X122.913 Y90.513 E8.8612
G1 X123.244 Y90.895 E8.88641
G1 X123.51 Y91.325 E8.91164
G1 X123.705 Y91.791 E8.93684
G1 X123.825 Y92.283 E8.96211
G1 X123.865 Y92.79 E8.98748
G1 X123.865 Y107.207 E9.70675
G1 X123.825 Y107.711 E9.73197
G1 X123.706 Y108.202 E9.75718
G1 X123.512 Y108.669 E9.78241
G1 X123.246 Y109.099 E9.80763
G1 X122.964 Y109.433 E9.82944
G1 X122.749 Y109.655 E9.84486
G1 X122.369 Y109.989 E9.8701
G1 X121.942 Y110.26 E9.89533
G1 X121.478 Y110.459 E9.92052
G1 X120.988 Y110.584 E9.94575
G1 X120.45 Y110.629 E9.97268
G1 X80.996 Y110.627 E11.94105
G1 X80.492 Y110.587 E11.96627
G1 X80 Y110.468 E11.99153
G1 X79.534 Y110.273 E12.01673
G1 X79.106 Y110.009 E12.04182
G1 X77.445 Y108.793 E12.14452
G1 X77.062 Y108.463 E12.16974
G1 X76.735 Y108.077 E12.19498
G1 X76.474 Y107.644 E12.2202
G1 X76.284 Y107.176 E12.2454
G1 X76.17 Y106.683 E12.27065
G1 X76.135 Y106.211 E12.29426
G1 X76.135 Y94.293 E12.88885
G1 X76.175 Y93.789 E12.91408
G1 X76.294 Y93.298 E12.93928
G1 X76.488 Y92.831 E12.96451
G1 X76.754 Y92.401 E12.98974
G1 X77.026 Y92.077 E13.01084
G1 X78.483 Y90.559 E13.11581
G1 X78.561 Y90.481 E13.12132
G1 X78.782 Y90.266 E13.1367
G0 F3600 X81.091 Y92.75
;TYPE:SUPPORT
G1 F900 X120.359 Y92.75 E15.09579
G1 X120.475 Y92.866 E15.10397
G1 X120.475 Y107.134 E15.81581
G1 X120.359 Y107.25 E15.82399
G1 X81.091 Y107.25 E17.78308
G1 X80.092 Y106.25 E17.8536
G1 X79.641 Y106.25 E17.8761
G1 X79.525 Y106.134 E17.88428
G1 X79.525 Y101.866 E18.09722
G1 X80.86 Y100.532 E18.19137
G1 X80.86 Y99.968 E18.21951
G1 X79.525 Y98.634 E18.31367
G1 X79.525 Y94.366 E18.5266
G1 X79.641 Y94.25 E18.53478
G1 X80.576 Y94.25 E18.58143
G1 X80.975 Y93.851 E18.60958
G1 X80.975 Y92.866 E18.65872
G1 X81.091 Y92.75 E18.66691
G0 F3600 X110.697 Y99.272
G1 F900 X110.605 Y99.743 E18.69085
G1 X110.574 Y100.246 E18.71599
G1 X110.601 Y100.727 E18.74003
G1 X110.691 Y101.207 E18.76439
G1 X110.985 Y102.126 E18.81253
G1 X111.622 Y102.912 E18.863
G1 X111.987 Y103.255 E18.88799
G1 X112.36 Y103.531 E18.91114
G1 X112.819 Y103.788 E18.93739
G1 X113.27 Y103.962 E18.9615
G1 X113.742 Y104.082 E18.9858
G1 X114.033 Y104.143 E19.00064
G1 X114.726 Y104.144 E19.03521
G1 X114.954 Y104.117 E19.04666
G1 X115.129 Y104.104 E19.05542
G1 X116.396 Y103.778 E19.12069
G1 X117.311 Y102.932 E19.18286
G1 X117.626 Y102.55 E19.20756
G1 X117.904 Y102.111 E19.23349
G1 X118.097 Y101.699 E19.25618
G1 X118.251 Y101.232 E19.28072
G1 X118.312 Y100.912 E19.29697
G1 X118.346 Y100.755 E19.30498
G1 X118.376 Y100.242 E19.33062
G1 X118.35 Y99.779 E19.35376
G1 X118.259 Y99.278 E19.37916
G1 X118.103 Y98.813 E19.40363
G1 X117.899 Y98.38 E19.42751
G1 X117.633 Y97.961 E19.45227
G1 X117.309 Y97.565 E19.4778
G1 X116.981 Y97.258 E19.50021
G1 X116.552 Y96.946 E19.52668
G1 X116.157 Y96.731 E19.54911
G1 X115.718 Y96.547 E19.57286
G1 X115.18 Y96.41 E19.60056
G1 X114.731 Y96.357 E19.62311
G1 X114.231 Y96.356 E19.64806
G1 X114.032 Y96.381 E19.65807
G1 X113.878 Y96.381 E19.66575
G1 X113.302 Y96.532 E19.69546
G1 X113.161 Y96.532 E19.70249
G1 X112.391 Y96.95 E19.7462
G1 X111.989 Y97.242 E19.77099
G1 X111.605 Y97.599 E19.79715
G1 X111.485 Y97.754 E19.80693
G1 X111.325 Y97.949 E19.81951
G1 X111.026 Y98.416 E19.84718
G1 X110.977 Y98.535 E19.8536
G1 X110.855 Y98.789 E19.86766
G1 X110.697 Y99.272 E19.89301
G0 F3600 X112 Y97.036
G1 F900 X112 Y92.91 E20.09886
G0 F3600 X104 Y92.91
G1 F900 X104 Y107.09 E20.8063
G0 F3600 X96 Y107.09
G1 F900 X96 Y92.91 E21.51374
G0 F3600 X88 Y92.91
G1 F900 X88 Y107.09 E22.22119
G0 F3600 X80 Y106.09
G1 F900 X80 Y101.616 E22.44439
G0 F3600 X79.685 Y104
G1 F900 X112.925 Y104 E24.10274
G0 F3600 X112 Y103.464
G1 F900 X112 Y107.09 E24.28365
G0 F3600 X116.173 Y104
G1 F900 X120.315 Y104 E24.49029
G0 F3600 X120 Y107.09
G1 F900 X120 Y92.91 E25.19773
G0 F3600 X120.315 Y96
G1 F900 X79.685 Y96 E27.22477
G0 F3600 X80 Y94.41
G1 F900 X80 Y98.883 E27.44793
G1 F3000 E19.44793
G0 F3600 X111.05 Y98.953
G0 X111.89 Y99.228
G0 X113.264 Y98.786
G0 X113.327 Y98.863
;TYPE:WALL-OUTER
G1 F3000 E27.44793
G1 F900 X113.163 Y99.018 E27.45919
G1 X113.019 Y99.192 E27.47046
G1 X112.898 Y99.382 E27.4817
G1 X112.801 Y99.587 E27.49301
G1 X112.731 Y99.802 E27.50429
G1 X112.689 Y100.024 E27.51556
G1 X112.675 Y100.25 E27.52686
G1 X112.689 Y100.476 E27.53816
G1 X112.731 Y100.698 E27.54943
G1 X112.801 Y100.913 E27.56071
G1 X112.898 Y101.118 E27.57202
G1 X113.019 Y101.308 E27.58326
G1 X113.163 Y101.482 E27.59453
G1 X113.327 Y101.637 E27.60579
G1 X113.511 Y101.77 E27.61712
G1 X113.709 Y101.879 E27.62839
G1 X113.919 Y101.963 E27.63968
G1 X114.137 Y102.019 E27.65091
G1 X114.363 Y102.047 E27.66227
G1 X114.589 Y102.047 E27.67354
G1 X114.813 Y102.019 E27.6848
G1 X115.031 Y101.963 E27.69603
G1 X115.241 Y101.879 E27.70732
G1 X115.439 Y101.77 E27.71859
G1 X115.623 Y101.637 E27.72992
G1 X115.787 Y101.482 E27.74118
G1 X115.931 Y101.308 E27.75245
G1 X116.052 Y101.118 E27.76368
G1 X116.149 Y100.913 E27.775
G1 X116.219 Y100.698 E27.78628
G1 X116.261 Y100.476 E27.79755
G1 X116.275 Y100.25 E27.80885
G1 X116.261 Y100.024 E27.82015
G1 X116.219 Y99.802 E27.83142
G1 X116.149 Y99.587 E27.8427
G1 X116.052 Y99.382 E27.85401
G1 X115.931 Y99.192 E27.86525
G1 X115.787 Y99.018 E27.87652
G1 X115.623 Y98.863 E27.88778
G1 X115.439 Y98.73 E27.8991
G1 X115.241 Y98.621 E27.91038
G1 X115.031 Y98.537 E27.92166
G1 X114.813 Y98.481 E27.93289
G1 X114.589 Y98.453 E27.94416
G1 X114.363 Y98.453 E27.95543
G1 X114.137 Y98.481 E27.96679
G1 X113.919 Y98.537 E27.97802
G1 X113.709 Y98.621 E27.98931
G1 X113.511 Y98.73 E28.00058
G1 X113.327 Y98.863 E28.01191
G0 F3600 X113.182 Y99
G0 X113.114 Y98.928
G0 X114.976 Y97.597
G0 X114.994 Y97.499
G1 F900 X115.341 Y97.588 E28.02978
G1 X115.671 Y97.719 E28.04749
G1 X115.97 Y97.883 E28.06451
G1 X116.26 Y98.094 E28.0824
G1 X116.519 Y98.336 E28.10008
G1 X116.738 Y98.602 E28.11727
G1 X116.929 Y98.902 E28.13502
G1 X117.078 Y99.221 E28.15258
G1 X117.186 Y99.55 E28.16986
G1 X117.252 Y99.899 E28.18758
G1 X117.274 Y100.25 E28.20513
G1 X117.252 Y100.601 E28.22267
G1 X117.186 Y100.95 E28.24039
G1 X117.078 Y101.279 E28.25767
G1 X116.929 Y101.598 E28.27523
G1 X116.738 Y101.898 E28.29298
G1 X116.519 Y102.164 E28.31017
G1 X116.26 Y102.406 E28.32785
G1 X115.97 Y102.617 E28.34574
G1 X115.671 Y102.781 E28.36276
G1 X115.341 Y102.912 E28.38047
G1 X114.994 Y103.001 E28.39834
G1 X114.654 Y103.044 E28.41544
G1 X114.296 Y103.044 E28.4333
G1 X113.956 Y103.001 E28.4504
G1 X113.609 Y102.912 E28.46827
G1 X113.279 Y102.781 E28.48598
G1 X112.977 Y102.615 E28.50318
G1 X112.693 Y102.409 E28.52068
G1 X112.431 Y102.164 E28.53858
G1 X112.212 Y101.898 E28.55577
G1 X112.041 Y101.629 E28.57167
G1 X111.872 Y101.279 E28.59106
G1 X111.764 Y100.95 E28.60833
G1 X111.698 Y100.601 E28.62605
G1 X111.676 Y100.25 E28.6436
G1 X111.698 Y99.899 E28.66115
G1 X111.764 Y99.55 E28.67887
G1 X111.872 Y99.221 E28.69614
G1 X112.021 Y98.902 E28.71371
G1 X112.212 Y98.602 E28.73145
G1 X112.431 Y98.336 E28.74864
G1 X112.693 Y98.091 E28.76654
G1 X112.977 Y97.885 E28.78404
G1 X113.279 Y97.719 E28.80123
G1 X113.609 Y97.588 E28.81895
G1 X113.956 Y97.499 E28.83682
G1 X114.296 Y97.456 E28.85392
G1 X114.654 Y97.456 E28.87178
G1 X114.994 Y97.499 E28.88888
G0 F3600 X115.187 Y97.548
G0 X115.218 Y97.959
;TYPE:SKIN
G1 F900 X115.513 Y98.076 E28.90471
G1 X115.751 Y98.207 E28.91826
G1 X116.013 Y98.398 E28.93444
G1 X116.236 Y98.607 E28.94969
G1 X116.423 Y98.833 E28.96432
G1 X116.587 Y99.091 E28.97957
G1 X116.715 Y99.366 E28.99471
G1 X116.806 Y99.64 E29.00911
G1 X116.864 Y99.947 E29.0247
G1 X116.882 Y100.25 E29.03984
G1 X116.864 Y100.553 E29.05498
G1 X116.806 Y100.86 E29.07057
G1 X116.715 Y101.134 E29.08498
G1 X116.587 Y101.409 E29.10011
G1 X116.423 Y101.667 E29.11536
G1 X116.236 Y101.893 E29.12999
G1 X116.016 Y102.1 E29.14507
G1 X115.751 Y102.293 E29.16142
G1 X115.513 Y102.424 E29.17497
G1 X115.218 Y102.541 E29.19081
G1 X114.911 Y102.619 E29.20661
G1 X114.637 Y102.654 E29.22039
G1 X114.313 Y102.654 E29.23656
G1 X114.039 Y102.619 E29.25034
G1 X113.732 Y102.541 E29.26614
G1 X113.437 Y102.424 E29.28197
G1 X113.192 Y102.289 E29.29593
G1 X112.944 Y102.108 E29.31125
G1 X112.713 Y101.894 E29.32696
G1 X112.527 Y101.667 E29.3416
G1 X112.384 Y101.441 E29.35494
G1 X112.233 Y101.13 E29.37219
G1 X112.144 Y100.86 E29.38637
G1 X112.086 Y100.553 E29.40196
G1 X112.068 Y100.25 E29.4171
G1 X112.086 Y99.947 E29.43225
G1 X112.144 Y99.64 E29.44783
G1 X112.235 Y99.366 E29.46224
G1 X112.363 Y99.091 E29.47737
G1 X112.527 Y98.833 E29.49262
G1 X112.713 Y98.606 E29.50726
G1 X112.947 Y98.389 E29.52318
G1 X113.192 Y98.211 E29.53829
G1 X113.437 Y98.076 E29.55225
G1 X113.732 Y97.959 E29.56808
G1 X114.039 Y97.881 E29.58389
G1 X114.313 Y97.846 E29.59767
G1 X114.637 Y97.846 E29.61383
G1 X114.911 Y97.881 E29.62761
G1 X115.218 Y97.959 E29.64341
G0 F3600 X115.152 Y98.166
G1 F900 X114.886 Y98.097 E29.65712
G1 X114.613 Y98.063 E29.67085
G1 X114.339 Y98.063 E29.68452
G1 X114.064 Y98.097 E29.69834
G1 X113.798 Y98.166 E29.71205
G1 X113.542 Y98.268 E29.7258
G1 X113.302 Y98.4 E29.73947
G1 X113.078 Y98.562 E29.75326
G1 X112.878 Y98.751 E29.76699
G1 X112.703 Y98.962 E29.78066
G1 X112.556 Y99.193 E29.79432
G1 X112.438 Y99.443 E29.80812
G1 X112.353 Y99.705 E29.82186
G1 X112.301 Y99.975 E29.83558
G1 X112.285 Y100.25 E29.84932
G1 X112.301 Y100.525 E29.86306
G1 X112.353 Y100.795 E29.87678
G1 X112.438 Y101.057 E29.89052
G1 X112.556 Y101.307 E29.90431
G1 X112.703 Y101.538 E29.91797
G1 X112.878 Y101.749 E29.93165
G1 X113.078 Y101.938 E29.94538
G1 X113.302 Y102.1 E29.95917
G1 X113.542 Y102.232 E29.97284
G1 X113.798 Y102.334 E29.98658
G1 X114.064 Y102.403 E30.00029
G1 X114.339 Y102.437 E30.01412
G1 X114.613 Y102.437 E30.02779
G1 X114.886 Y102.403 E30.04151
G1 X115.152 Y102.334 E30.05522
G1 X115.408 Y102.232 E30.06897
G1 X115.648 Y102.1 E30.08264
G1 X115.872 Y101.938 E30.09643
G1 X116.072 Y101.749 E30.11016
G1 X116.247 Y101.538 E30.12383
G1 X116.394 Y101.307 E30.13749
G1 X116.512 Y101.057 E30.15129
G1 X116.597 Y100.795 E30.16503
G1 X116.649 Y100.525 E30.17875
G1 X116.665 Y100.25 E30.19249
G1 X116.649 Y99.975 E30.20623
G1 X116.597 Y99.705 E30.21995
G1 X116.512 Y99.443 E30.23369
G1 X116.394 Y99.193 E30.24748
G1 X116.247 Y98.962 E30.26114
G1 X116.072 Y98.751 E30.27482
G1 X115.872 Y98.562 E30.28855
G1 X115.648 Y98.4 E30.30234
G1 X115.408 Y98.268 E30.31601
G1 X115.152 Y98.166 E30.32975
G0 F3600 X115.155 Y98.157
G1 F3000 E22.32975
G0 F3600 X112.228 Y98.613
G0 X111.484 Y98.138
G0 X81.091 Y92.75
;TIME_ELAPSED:52.143011
;LAYER:1
M140 S90
G0 F5400 X81.091 Y92.75 Z0.5
;TYPE:SUPPORT
G1 F3000 E30.32975
G1 F1350 X120.359 Y92.75 E31.63581
G1 X120.475 Y92.866 E31.64127
G1 X120.475 Y107.134 E32.11583
G1 X120.359 Y107.25 E32.12128
G1 X81.091 Y107.25 E33.42734
G1 X80.092 Y106.25 E33.47435
G1 X79.641 Y106.25 E33.48935
G1 X79.525 Y106.134 E33.49481
G1 X79.525 Y101.866 E33.63676
G1 X80.86 Y100.532 E33.69954
G1 X80.86 Y99.968 E33.71829
G1 X79.525 Y98.634 E33.78107
G1 X79.525 Y94.366 E33.92302
G1 X79.641 Y94.25 E33.92848
G1 X80.576 Y94.25 E33.95957
G1 X80.975 Y93.851 E33.97834
G1 X80.975 Y92.866 E34.0111
G1 X81.091 Y92.75 E34.01656
G0 F5400 X111.604 Y97.598
G1 F1350 X111.325 Y97.949 E34.03147
G1 X111.059 Y98.364 E34.04787
G1 X110.853 Y98.794 E34.06373
G1 X110.697 Y99.274 E34.08051
G1 X110.605 Y99.744 E34.09644
G1 X110.575 Y100.243 E34.11307
G1 X110.601 Y100.729 E34.12926
G1 X110.691 Y101.207 E34.14543
G1 X110.985 Y102.126 E34.17753
G1 X111.623 Y102.912 E34.2112
G1 X111.987 Y103.255 E34.22783
G1 X112.382 Y103.543 E34.24409
G1 X112.8 Y103.776 E34.26001
G1 X113.255 Y103.957 E34.27629
G1 X113.738 Y104.081 E34.29288
G1 X114.041 Y104.142 E34.30316
G1 X114.726 Y104.144 E34.32594
G1 X114.974 Y104.114 E34.33425
G1 X115.143 Y104.1 E34.33989
G1 X116.396 Y103.78 E34.3829
G1 X117.303 Y102.938 E34.42407
G1 X117.625 Y102.551 E34.44081
G1 X117.898 Y102.125 E34.45764
G1 X118.098 Y101.698 E34.47332
G1 X118.25 Y101.236 E34.4895
G1 X118.346 Y100.746 E34.50611
G1 X118.377 Y100.244 E34.52283
G1 X118.349 Y99.773 E34.53853
G1 X118.255 Y99.269 E34.55558
G1 X118.102 Y98.813 E34.57158
G1 X117.923 Y98.431 E34.58561
G1 X117.923 Y98.417 E34.58607
G1 X117.632 Y97.957 E34.60418
G1 X117.331 Y97.592 E34.61991
G1 X116.965 Y97.248 E34.63662
G1 X116.771 Y97.106 E34.64462
G1 X116.687 Y97.021 E34.64859
G1 X116.15 Y96.727 E34.66895
G1 X115.707 Y96.546 E34.68487
G1 X115.186 Y96.411 E34.70277
G1 X114.732 Y96.357 E34.71798
G1 X114.231 Y96.356 E34.73464
G1 X113.769 Y96.41 E34.75011
G1 X113.298 Y96.532 E34.76629
G1 X113.135 Y96.532 E34.77171
G1 X112.394 Y96.949 E34.8
G1 X111.986 Y97.244 E34.81674
G1 X111.604 Y97.598 E34.83406
G0 F5400 X112 Y97.036
G1 F1350 X112 Y92.91 E34.97129
G0 F5400 X104 Y92.91
G1 F1350 X104 Y107.09 E35.44292
G0 F5400 X96 Y107.09
G1 F1350 X96 Y92.91 E35.91455
G0 F5400 X88 Y92.91
G1 F1350 X88 Y107.09 E36.38618
G0 F5400 X80 Y106.09
G1 F1350 X80 Y101.616 E36.53499
G0 F5400 X79.685 Y104
G1 F1350 X112.93 Y104 E37.64072
G0 F5400 X112 Y103.463
G1 F1350 X112 Y107.09 E37.76135
G0 F5400 X116.179 Y104
G1 F1350 X120.315 Y104 E37.89892
G0 F5400 X120 Y107.09
G1 F1350 X120 Y92.91 E38.37055
G0 F5400 X120.315 Y96
G1 F1350 X79.685 Y96 E39.72191
G0 F5400 X80 Y94.41
G1 F1350 X80 Y98.883 E39.87068
G1 F3000 E31.87068
G0 F5400 X111.05 Y98.953
G0 X111.89 Y99.228
G0 X113.264 Y98.786
G0 X113.327 Y98.863
;TYPE:WALL-OUTER
G1 F3000 E39.87068
G1 F900 X113.163 Y99.018 E39.87818
G1 X113.019 Y99.192 E39.8857
G1 X112.898 Y99.382 E39.89319
G1 X112.801 Y99.587 E39.90073
G1 X112.731 Y99.802 E39.90825
G1 X112.689 Y100.024 E39.91577
G1 X112.675 Y100.25 E39.9233
G1 X112.689 Y100.476 E39.93083
G1 X112.731 Y100.698 E39.93834
G1 X112.801 Y100.913 E39.94586
G1 X112.898 Y101.118 E39.95341
G1 X113.019 Y101.308 E39.9609
G1 X113.163 Y101.482 E39.96841
G1 X113.327 Y101.637 E39.97592
G1 X113.511 Y101.77 E39.98347
G1 X113.709 Y101.879 E39.99098
G1 X113.919 Y101.963 E39.99851
G1 X114.137 Y102.019 E40.00599
G1 X114.363 Y102.047 E40.01357
G1 X114.589 Y102.047 E40.02108
G1 X114.813 Y102.019 E40.02859
G1 X115.031 Y101.963 E40.03608
G1 X115.241 Y101.879 E40.0436
G1 X115.439 Y101.77 E40.05112
G1 X115.623 Y101.637 E40.05867
G1 X115.787 Y101.482 E40.06618
