;FLAVOR:Marlin
;TIME:1053
;Filament used: 0.879m
;Layer height: 0.2
;Generated with Cura_SteamEngine master
M190 S90
M104 S220
M109 S220
M82 ;absolute extrusion mode

G92 E0
G1 F3000 E-8
;LAYER_COUNT:9
;LAYER:0
M107
G0 F3600 X63.85 Y79.7 Z0.3
;TYPE:WALL-OUTER
G1 F3000 E0
G1 F1200 X62.75 Y79.7 E0.05488
G1 X62.75 Y75.3 E0.2744
G1 X63.85 Y75.3 E0.32928
G1 X63.85 Y64.7 E0.85811
G1 X62.75 Y64.7 E0.91299
G1 X62.75 Y60.3 E1.13251
G1 X63.85 Y60.3 E1.18739
G1 X63.85 Y55.3 E1.43684
G1 X113.25 Y55.3 E3.90141
G1 X113.25 Y84.7 E5.36819
G1 X63.85 Y84.7 E7.83276
G1 X63.85 Y79.7 E8.08221
G0 F3600 X63.65 Y79.7
G0 X63.65 Y79.6
G0 X107.439 Y68.214
G0 X108.103 Y68.298
G0 X108.436 Y68.48
G0 X109.049 Y68.916
G0 X108.968 Y68.973
G1 F1200 X108.826 Y68.802 E8.0933
G1 X108.666 Y68.652 E8.10424
G1 X108.488 Y68.522 E8.11524
G1 X108.295 Y68.417 E8.1262
G1 X108.091 Y68.336 E8.13715
G1 X107.878 Y68.28 E8.14814
G1 X107.659 Y68.253 E8.15915
G1 X107.441 Y68.253 E8.17003
G1 X107.222 Y68.28 E8.18103
G1 X107.009 Y68.336 E8.19202
G1 X106.805 Y68.417 E8.20297
G1 X106.613 Y68.522 E8.21389
G1 X106.434 Y68.652 E8.22493
G1 X106.274 Y68.802 E8.23587
G1 X106.134 Y68.971 E8.24682
G1 X106.016 Y69.156 E8.25776
G1 X105.923 Y69.355 E8.26872
G1 X105.855 Y69.565 E8.27974
G1 X105.813 Y69.781 E8.29071
G1 X105.8 Y70 E8.30166
G1 X105.813 Y70.219 E8.3126
G1 X105.855 Y70.435 E8.32358
G1 X105.923 Y70.645 E8.3346
G1 X106.016 Y70.844 E8.34555
G1 X106.134 Y71.029 E8.3565
G1 X106.274 Y71.198 E8.36745
G1 X106.434 Y71.348 E8.37839
G1 X106.613 Y71.478 E8.38943
G1 X106.805 Y71.583 E8.40035
G1 X107.009 Y71.664 E8.4113
G1 X107.222 Y71.72 E8.42228
G1 X107.441 Y71.747 E8.43329
G1 X107.659 Y71.747 E8.44417
G1 X107.878 Y71.72 E8.45518
G1 X108.091 Y71.664 E8.46617
G1 X108.295 Y71.583 E8.47712
G1 X108.488 Y71.478 E8.48808
G1 X108.666 Y71.348 E8.49907
G1 X108.826 Y71.198 E8.51002
G1 X108.966 Y71.029 E8.52097
G1 X109.084 Y70.844 E8.53191
G1 X109.177 Y70.645 E8.54287
G1 X109.245 Y70.435 E8.55388
G1 X109.287 Y70.219 E8.56486
G1 X109.3 Y70 E8.57581
G1 X109.287 Y69.781 E8.58675
G1 X109.245 Y69.565 E8.59773
G1 X109.177 Y69.355 E8.60874
G1 X109.106 Y69.203 E8.61711
G1 X108.968 Y68.973 E8.63049
G0 F3600 X108.841 Y68.819
G0 X109.111 Y68.534
;TYPE:SKIN
G1 F1200 X108.915 Y68.351 E8.64387
G1 X108.697 Y68.192 E8.65733
G1 X108.461 Y68.064 E8.67073
G1 X108.214 Y67.965 E8.684
G1 X107.952 Y67.896 E8.69752
G1 X107.683 Y67.863 E8.71104
G1 X107.417 Y67.863 E8.72431
G1 X107.148 Y67.896 E8.73783
G1 X106.886 Y67.965 E8.75135
G1 X106.639 Y68.064 E8.76463
G1 X106.404 Y68.192 E8.77798
G1 X106.185 Y68.351 E8.79148
G1 X105.989 Y68.535 E8.80489
G1 X105.818 Y68.741 E8.81825
G1 X105.673 Y68.967 E8.83165
G1 X105.56 Y69.212 E8.84511
G1 X105.477 Y69.467 E8.85848
G1 X105.425 Y69.732 E8.87196
G1 X105.41 Y70 E8.88535
G1 X105.425 Y70.268 E8.89874
G1 X105.477 Y70.533 E8.91221
G1 X105.56 Y70.788 E8.92559
G1 X105.673 Y71.033 E8.93905
G1 X105.818 Y71.259 E8.95245
G1 X105.989 Y71.465 E8.96581
G1 X106.185 Y71.649 E8.97922
G1 X106.404 Y71.808 E8.99272
G1 X106.639 Y71.936 E9.00607
G1 X106.886 Y72.035 E9.01935
G1 X107.148 Y72.104 E9.03286
G1 X107.417 Y72.137 E9.04638
G1 X107.683 Y72.137 E9.05966
G1 X107.952 Y72.104 E9.07318
G1 X108.214 Y72.035 E9.08669
G1 X108.461 Y71.936 E9.09997
G1 X108.697 Y71.808 E9.11336
G1 X108.915 Y71.649 E9.12683
G1 X109.111 Y71.465 E9.14024
G1 X109.282 Y71.259 E9.15359
G1 X109.427 Y71.033 E9.16699
G1 X109.54 Y70.788 E9.18045
G1 X109.623 Y70.533 E9.19383
G1 X109.675 Y70.268 E9.2073
G1 X109.69 Y70 E9.22069
G1 X109.675 Y69.732 E9.23409
G1 X109.623 Y69.467 E9.24756
G1 X109.54 Y69.212 E9.26094
G1 X109.451 Y69.02 E9.2715
G1 X109.287 Y68.747 E9.28739
G1 X109.111 Y68.534 E9.30117
G0 F3600 X112.86 Y55.69
G1 F1200 X112.86 Y84.31 E10.72903
G1 X64.24 Y84.31 E13.15469
G1 X64.24 Y79.31 E13.40414
G1 X63.14 Y79.31 E13.45902
G1 X63.14 Y75.69 E13.63962
G1 X64.24 Y75.69 E13.6945
G1 X64.24 Y64.31 E14.26225
G1 X63.14 Y64.31 E14.31713
G1 X63.14 Y60.69 E14.49773
G1 X64.24 Y60.69 E14.55261
G1 X64.24 Y55.69 E14.80206
G1 X112.86 Y55.69 E17.22773
G0 F3600 X112.678 Y56.11
G1 F1200 X112.438 Y55.869 E17.24469
G0 F3600 X111.872 Y55.869
G1 F1200 X112.678 Y56.676 E17.3016
G1 X112.748 Y56.746
G0 F3600 X112.678 Y57.241
G1 F1200 X111.307 Y55.869 E17.39836
G1 X111.237 Y55.799
G0 F3600 X110.741 Y55.869
G1 F1200 X112.678 Y57.807 E17.53506
G1 X112.748 Y57.877
G0 F3600 X112.678 Y58.373
G1 F1200 X110.175 Y55.869 E17.7117
G1 X110.105 Y55.799
G0 F3600 X109.61 Y55.869
G1 F1200 X112.678 Y58.938 E17.9282
G1 X112.748 Y59.008
G0 F3600 X112.678 Y59.504
G1 F1200 X109.044 Y55.869 E18.18463
G1 X108.974 Y55.799
G0 F3600 X108.478 Y55.869
G1 F1200 X112.678 Y60.07 E18.481
G1 X112.748 Y60.14
G0 F3600 X112.678 Y60.635
G1 F1200 X107.912 Y55.869 E18.81727
G1 X107.842 Y55.799
G0 F3600 X107.347 Y55.869
G1 F1200 X112.678 Y61.201 E19.19343
G1 X112.748 Y61.271
G0 F3600 X112.678 Y61.767
G1 F1200 X106.781 Y55.869 E19.60953
G1 X106.711 Y55.799
G0 F3600 X106.215 Y55.869
G1 F1200 X112.678 Y62.332 E20.06553
G1 X112.748 Y62.402
G0 F3600 X112.678 Y62.898
G1 F1200 X105.65 Y55.869 E20.56143
G1 X105.58 Y55.799
G0 F3600 X105.084 Y55.869
G1 F1200 X112.678 Y63.464 E21.09727
G1 X112.748 Y63.534
G0 F3600 X112.678 Y64.029
G1 F1200 X104.518 Y55.869 E21.673
G1 X104.448 Y55.799
G0 F3600 X103.953 Y55.869
G1 F1200 X112.678 Y64.595 E22.28863
G1 X112.748 Y64.665
G0 F3600 X112.678 Y65.161
G1 F1200 X103.387 Y55.869 E22.94419
G1 X103.317 Y55.799
G0 F3600 X102.821 Y55.869
G1 F1200 X112.678 Y65.726 E23.63966
G1 X112.748 Y65.796
G0 F3600 X112.678 Y66.292
G1 F1200 X102.256 Y55.869 E24.37502
G1 X102.186 Y55.799
G0 F3600 X101.69 Y55.869
G1 F1200 X112.678 Y66.858 E25.15032
G1 X112.748 Y66.928
G0 F3600 X112.678 Y67.424
G1 F1200 X101.124 Y55.869 E25.96555
G1 X101.054 Y55.799
G0 F3600 X100.559 Y55.869
G1 F1200 X112.678 Y67.989 E26.82065
G1 X112.748 Y68.059
G0 F3600 X112.678 Y68.555
G1 F1200 X99.993 Y55.869 E27.71568
G1 X99.923 Y55.799
G0 F3600 X99.427 Y55.869
G1 F1200 X112.678 Y69.121 E28.65064
G1 X112.748 Y69.191
G0 F3600 X112.678 Y69.686
G1 F1200 X98.862 Y55.869 E29.62547
G1 X98.792 Y55.799
G0 F3600 X98.296 Y55.869
G1 F1200 X112.678 Y70.252 E30.64024
G1 X112.748 Y70.322
G0 F3600 X112.678 Y70.818
G1 F1200 X97.73 Y55.869 E31.69493
G1 X97.66 Y55.799
G0 F3600 X97.164 Y55.869
G1 F1200 X112.678 Y71.383 E32.78953
G1 X112.748 Y71.453
G0 F3600 X112.678 Y71.949
G1 F1200 X109.528 Y68.799 E33.01178
G1 X109.458 Y68.729
G0 F3600 X109.847 Y69.683
G1 F1200 X112.678 Y72.515 E33.21156
G1 X112.748 Y72.585
G0 F3600 X112.678 Y73.08
G1 F1200 X109.854 Y70.256 E33.41081
G1 X109.784 Y70.186
G0 F3600 X109.751 Y70.719
G1 F1200 X112.678 Y73.646 E33.61732
G1 X112.748 Y73.716
G0 F3600 X112.678 Y74.212
G1 F1200 X109.585 Y71.118 E33.83559
G1 X109.515 Y71.048
G0 F3600 X109.353 Y71.452
G1 F1200 X112.678 Y74.777 E34.07018
G1 X112.748 Y74.847
G0 F3600 X112.678 Y75.343
G1 F1200 X109.077 Y71.742 E34.32425
G1 X109.007 Y71.672
G0 F3600 X108.751 Y71.982
G1 F1200 X112.678 Y75.909 E34.60132
G1 X112.748 Y75.979
G0 F3600 X112.678 Y76.475
G1 F1200 X108.369 Y72.165 E34.90538
G1 X108.299 Y72.095
G0 F3600 X107.927 Y72.288
G1 F1200 X112.678 Y77.04 E35.24063
G1 X112.748 Y77.11
G0 F3600 X112.678 Y77.606
G1 F1200 X107.387 Y72.315 E35.61393
G1 X107.317 Y72.245
G0 F3600 X106.634 Y72.127
G1 F1200 X112.678 Y78.172 E36.04041
G1 X112.748 Y78.242
G0 F3600 X112.678 Y78.737
G1 F1200 X89.811 Y55.869 E37.65383
G1 X89.741 Y55.799
G0 F3600 X90.376 Y55.869
G1 F1200 X105.417 Y70.91 E38.71506
G1 X105.487 Y70.98
G0 F3600 X105.238 Y70.166
G1 F1200 X90.942 Y55.869 E39.72375
G1 X90.872 Y55.799
G0 F3600 X91.508 Y55.869
G1 F1200 X105.262 Y69.624 E40.6942
G1 X105.332 Y69.694
G0 F3600 X105.381 Y69.177
G1 F1200 X92.073 Y55.869 E41.63316
G1 X92.003 Y55.799
G0 F3600 X92.639 Y55.869
G1 F1200 X105.567 Y68.797 E42.5453
G1 X105.637 Y68.867
G0 F3600 X105.807 Y68.471
G1 F1200 X93.205 Y55.869 E43.43444
G1 X93.135 Y55.799
G0 F3600 X93.77 Y55.869
G1 F1200 X106.094 Y68.193 E44.30396
G1 X106.164 Y68.263
G0 F3600 X106.436 Y67.969
G1 F1200 X94.336 Y55.869 E45.15768
G1 X94.266 Y55.799
G0 F3600 X94.902 Y55.869
G1 F1200 X106.826 Y67.794 E45.99902
G1 X106.896 Y67.864
G0 F3600 X107.294 Y67.696
G1 F1200 X95.467 Y55.869 E46.83348
G1 X95.397 Y55.799
G0 F3600 X96.033 Y55.869
G1 F1200 X107.867 Y67.704 E47.66847
G1 X107.937 Y67.774
G0 F3600 X108.743 Y68.013
G1 F1200 X96.599 Y55.869 E48.52529
G1 X96.529 Y55.799
G0 F3600 X89.245 Y55.869
G1 F1200 X112.678 Y79.303 E50.17865
G1 X112.748 Y79.373
G0 F3600 X112.678 Y79.869
G1 F1200 X88.679 Y55.869 E51.87194
G1 X88.609 Y55.799
G0 F3600 X88.113 Y55.869
G1 F1200 X112.678 Y80.434 E53.60514
G1 X112.748 Y80.504
G0 F3600 X112.678 Y81
G1 F1200 X87.548 Y55.869 E55.37823
G1 X87.478 Y55.799
G0 F3600 X86.982 Y55.869
G1 F1200 X112.678 Y81.566 E57.19126
G1 X112.748 Y81.636
G0 F3600 X112.678 Y82.131
G1 F1200 X86.416 Y55.869 E59.04418
G1 X86.346 Y55.799
G0 F3600 X85.851 Y55.869
G1 F1200 X112.678 Y82.697 E60.93701
G1 X112.748 Y82.767
G0 F3600 X112.678 Y83.263
G1 F1200 X85.285 Y55.869 E62.86977
G1 X85.215 Y55.799
G0 F3600 X84.719 Y55.869
G1 F1200 X112.678 Y83.828 E64.84243
G1 X112.748 Y83.898
G0 F3600 X112.413 Y84.129
G1 F1200 X84.154 Y55.869 E66.83629
G1 X84.084 Y55.799
G0 F3600 X83.588 Y55.869
G1 F1200 X111.848 Y84.129 E68.83018
G1 X111.918 Y84.199
G0 F3600 X111.282 Y84.129
G1 F1200 X83.022 Y55.869 E70.82408
G1 X82.952 Y55.799
G0 F3600 X82.457 Y55.869
G1 F1200 X110.716 Y84.129 E72.81794
G1 X110.786 Y84.199
G0 F3600 X110.15 Y84.129
G1 F1200 X81.891 Y55.869 E74.8118
G1 X81.821 Y55.799
G0 F3600 X81.325 Y55.869
G1 F1200 X109.585 Y84.129 E76.80569
G1 X109.655 Y84.199
G0 F3600 X109.019 Y84.129
G1 F1200 X80.76 Y55.869 E78.79955
G1 X80.69 Y55.799
G0 F3600 X80.194 Y55.869
G1 F1200 X108.453 Y84.129 E80.79341
G1 X108.523 Y84.199
G0 F3600 X107.888 Y84.129
G1 F1200 X79.628 Y55.869 E82.78731
G1 X79.558 Y55.799
G0 F3600 X79.063 Y55.869
G1 F1200 X107.322 Y84.129 E84.78117
G1 X107.392 Y84.199
G0 F3600 X106.756 Y84.129
G1 F1200 X78.497 Y55.869 E86.77503
G1 X78.427 Y55.799
G0 F3600 X77.931 Y55.869
G1 F1200 X106.191 Y84.129 E88.76893
G1 X106.261 Y84.199
G0 F3600 X105.625 Y84.129
G1 F1200 X77.365 Y55.869 E90.76282
G1 X77.295 Y55.799
G0 F3600 X76.8 Y55.869
G1 F1200 X105.059 Y84.129 E92.75668
G1 X105.129 Y84.199
G0 F3600 X104.494 Y84.129
G1 F1200 X76.234 Y55.869 E94.75058
G1 X76.164 Y55.799
G0 F3600 X75.668 Y55.869
G1 F1200 X103.928 Y84.129 E96.74447
G1 X103.998 Y84.199
G0 F3600 X103.362 Y84.129
G1 F1200 X75.103 Y55.869 E98.73833
G1 X75.033 Y55.799
G0 F3600 X74.537 Y55.869
G1 F1200 X102.797 Y84.129 E100.73223
G1 X102.867 Y84.199
G0 F3600 X102.231 Y84.129
G1 F1200 X73.971 Y55.869 E102.72613
G1 X73.901 Y55.799
G0 F3600 X73.406 Y55.869
G1 F1200 X101.665 Y84.129 E104.71999
G1 X101.735 Y84.199
G0 F3600 X101.1 Y84.129
G1 F1200 X72.84 Y55.869 E106.71388
G1 X72.77 Y55.799
G0 F3600 X72.274 Y55.869
G1 F1200 X100.534 Y84.129 E108.70778
G1 X100.604 Y84.199
G0 F3600 X99.968 Y84.129
G1 F1200 X71.709 Y55.869 E110.70164
G1 X71.639 Y55.799
G0 F3600 X71.143 Y55.869
G1 F1200 X99.402 Y84.129 E112.6955
G1 X99.472 Y84.199
G0 F3600 X98.837 Y84.129
G1 F1200 X70.577 Y55.869 E114.68939
G1 X70.507 Y55.799
G0 F3600 X70.012 Y55.869
G1 F1200 X98.271 Y84.129 E116.68325
G1 X98.341 Y84.199
G0 F3600 X97.705 Y84.129
G1 F1200 X69.446 Y55.869 E118.67711
G1 X69.376 Y55.799
G0 F3600 X68.88 Y55.869
G1 F1200 X97.14 Y84.129 E120.67101
G1 X97.21 Y84.199
G0 F3600 X96.574 Y84.129
G1 F1200 X68.315 Y55.869 E122.66487
G1 X68.245 Y55.799
G0 F3600 X67.749 Y55.869
G1 F1200 X96.008 Y84.129 E124.65873
G1 X96.078 Y84.199
G0 F3600 X95.443 Y84.129
G1 F1200 X67.183 Y55.869 E126.65263
G1 X67.113 Y55.799
G0 F3600 X66.617 Y55.869
G1 F1200 X94.877 Y84.129 E128.64652
G1 X94.947 Y84.199
G0 F3600 X94.311 Y84.129
G1 F1200 X66.052 Y55.869 E130.64038
G1 X65.982 Y55.799
G0 F3600 X65.486 Y55.869
G1 F1200 X93.746 Y84.129 E132.63428
G1 X93.816 Y84.199
G0 F3600 X93.18 Y84.129
G1 F1200 X64.92 Y55.869 E134.62817
G1 X64.85 Y55.799
G0 F3600 X64.418 Y55.933
G1 F1200 X92.614 Y84.129 E136.61755
G1 X92.684 Y84.199
G0 F3600 X92.049 Y84.129
G1 F1200 X64.418 Y56.499 E138.56703
G1 X64.348 Y56.429
G0 F3600 X64.418 Y57.064
G1 F1200 X91.483 Y84.129 E140.47662
G1 X91.553 Y84.199
G0 F3600 X90.917 Y84.129
G1 F1200 X64.418 Y57.63 E142.34626
G1 X64.348 Y57.56
G0 F3600 X64.418 Y58.196
G1 F1200 X90.351 Y84.129 E144.17598
G1 X90.421 Y84.199
G0 F3600 X89.786 Y84.129
G1 F1200 X64.418 Y58.761 E145.96583
G1 X64.348 Y58.691
G0 F3600 X64.418 Y59.327
G1 F1200 X89.22 Y84.129 E147.71574
G1 X89.29 Y84.199
G0 F3600 X88.654 Y84.129
G1 F1200 X64.418 Y59.893 E149.42572
G1 X64.348 Y59.823
G0 F3600 X64.418 Y60.459
G1 F1200 X88.089 Y84.129 E151.0958
G1 X88.159 Y84.199
G0 F3600 X87.523 Y84.129
G1 F1200 X64.263 Y60.869 E152.73692
G1 X64.193 Y60.799
G0 F3600 X63.698 Y60.869
G1 F1200 X86.957 Y84.129 E154.37801
G1 X87.027 Y84.199
G0 F3600 X86.392 Y84.129
G1 F1200 X63.319 Y61.056 E156.00593
G1 X63.249 Y60.986
G0 F3600 X63.319 Y61.622
G1 F1200 X85.826 Y84.129 E157.59392
G1 X85.896 Y84.199
G0 F3600 X85.26 Y84.129
G1 F1200 X63.319 Y62.187 E159.14201
G1 X63.249 Y62.117
G0 F3600 X63.319 Y62.753
G1 F1200 X84.695 Y84.129 E160.6502
G1 X84.765 Y84.199
G0 F3600 X84.129 Y84.129
G1 F1200 X64.419 Y64.419 E162.04085
G1 X64.349 Y64.349
G0 F3600 X64.128 Y64.128
G1 F1200 X63.319 Y63.319 E162.09793
G1 X63.249 Y63.249
G0 F3600 X63.319 Y63.884
G1 F1200 X63.563 Y64.128 E162.11515
G0 F3600 X64.419 Y64.985
G1 F1200 X83.563 Y84.129 E163.46586
G1 X83.633 Y84.199
G0 F3600 X82.998 Y84.129
G1 F1200 X64.419 Y65.55 E164.77671
G1 X64.349 Y65.48
G0 F3600 X64.419 Y66.116
G1 F1200 X82.432 Y84.129 E166.04762
G1 X82.502 Y84.199
G0 F3600 X81.866 Y84.129
G1 F1200 X64.419 Y66.682 E167.2786
G1 X64.349 Y66.612
G0 F3600 X64.419 Y67.247
G1 F1200 X81.301 Y84.129 E168.46972
G1 X81.371 Y84.199
G0 F3600 X80.735 Y84.129
G1 F1200 X64.419 Y67.813 E169.6209
G1 X64.349 Y67.743
G0 F3600 X64.419 Y68.379
G1 F1200 X80.169 Y84.129 E170.73215
G1 X80.239 Y84.199
G0 F3600 X79.603 Y84.129
G1 F1200 X64.419 Y68.945 E171.80346
G1 X64.349 Y68.875
G0 F3600 X64.419 Y69.51
G1 F1200 X79.038 Y84.129 E172.83491
G1 X79.108 Y84.199
G0 F3600 X78.472 Y84.129
G1 F1200 X64.419 Y70.076 E173.82643
G1 X64.349 Y70.006
G0 F3600 X64.419 Y70.642
G1 F1200 X77.906 Y84.129 E174.77801
G1 X77.976 Y84.199
G0 F3600 X77.341 Y84.129
G1 F1200 X64.419 Y71.207 E175.68972
G1 X64.349 Y71.137
G0 F3600 X64.419 Y71.773
G1 F1200 X76.775 Y84.129 E176.56151
G1 X76.845 Y84.199
G0 F3600 X76.209 Y84.129
G1 F1200 X64.419 Y72.339 E177.39335
G1 X64.349 Y72.269
G0 F3600 X64.419 Y72.904
G1 F1200 X75.644 Y84.129 E178.18534
G1 X75.714 Y84.199
G0 F3600 X75.078 Y84.129
G1 F1200 X64.419 Y73.47 E178.93739
G1 X64.349 Y73.4
G0 F3600 X64.419 Y74.036
G1 F1200 X74.512 Y84.129 E179.6495
G1 X74.582 Y84.199
G0 F3600 X73.947 Y84.129
G1 F1200 X64.419 Y74.601 E180.32176
G1 X64.349 Y74.531
G0 F3600 X64.419 Y75.167
G1 F1200 X73.381 Y84.129 E180.95407
G1 X73.451 Y84.199
G0 F3600 X72.815 Y84.129
G1 F1200 X64.419 Y75.733 E181.54646
G1 X64.349 Y75.663
G0 F3600 X63.99 Y75.869
G1 F1200 X72.25 Y84.129 E182.12924
G1 X72.32 Y84.199
G0 F3600 X71.684 Y84.129
G1 F1200 X63.424 Y75.869 E182.71203
G1 X63.354 Y75.799
G0 F3600 X63.319 Y76.33
G1 F1200 X71.118 Y84.129 E183.26229
G1 X71.188 Y84.199
G0 F3600 X70.552 Y84.129
G1 F1200 X63.319 Y76.896 E183.77262
G1 X63.249 Y76.826
G0 F3600 X63.319 Y77.462
G1 F1200 X69.987 Y84.129 E184.24305
G1 X70.057 Y84.199
G0 F3600 X69.421 Y84.129
G1 F1200 X63.319 Y78.027 E184.67358
G1 X63.249 Y77.957
G0 F3600 X63.319 Y78.593
G1 F1200 X63.855 Y79.129 E184.7114
G0 F3600 X64.419 Y79.693
G1 F1200 X68.855 Y84.129 E185.02438
G1 X68.925 Y84.199
G0 F3600 X68.29 Y84.129
G1 F1200 X64.419 Y80.258 E185.2975
G1 X64.349 Y80.188
G0 F3600 X64.419 Y80.824
G1 F1200 X67.724 Y84.129 E185.53069
G1 X67.794 Y84.199
G0 F3600 X67.158 Y84.129
G1 F1200 X64.419 Y81.39 E185.72394
G1 X64.349 Y81.32
G0 F3600 X64.419 Y81.955
G1 F1200 X66.593 Y84.129 E185.87732
G1 X66.663 Y84.199
G0 F3600 X66.027 Y84.129
G1 F1200 X64.419 Y82.521 E185.99078
G1 X64.349 Y82.451
G0 F3600 X64.419 Y83.087
G1 F1200 X65.461 Y84.129 E186.0643
G1 X65.531 Y84.199
G0 F3600 X64.896 Y84.129
G1 F1200 X64.419 Y83.652 E186.09795
G0 F3600 X63.92 Y79.63
G0 X63.85 Y79.7
