;FLAVOR:Marlin
;TIME:3653
;Filament used: 3.03177m
;Layer height: 0.2
;Generated with Cura_SteamEngine master
M190 S90
M104 S220
M109 S220
M82 ;absolute extrusion mode

G92 E0
G1 F3000 E-8
;LAYER_COUNT:53
;LAYER:0
M107
G0 F3600 X70.17 Y91.353 Z0.3
;TYPE:SUPPORT
G1 F3000 E0
G1 F1200 X129.938 Y91.353 E2.98184
G1 X130.054 Y91.469 E2.99002
G1 X130.054 Y131.237 E4.97406
G1 X129.938 Y131.353 E4.98224
G1 X70.17 Y131.353 E7.96408
G1 X70.054 Y131.237 E7.97226
G1 X70.054 Y91.469 E9.9563
G1 X70.17 Y91.353 E9.96448
G0 F3600 X74.553 Y95.453
G1 F1200 X74.154 Y95.852 E9.99263
G1 X74.154 Y126.854 E11.53933
G1 X74.553 Y127.253 E11.56748
G1 X125.555 Y127.253 E14.11198
G1 X125.954 Y126.854 E14.14013
G1 X125.954 Y95.852 E15.68683
G1 X125.555 Y95.453 E15.71498
G1 X74.553 Y95.453 E18.25948
G0 F3600 X73.994 Y96
G1 F1200 X70.214 Y96 E18.44806
G0 F3600 X70.214 Y92
G1 F1200 X129.894 Y92 E21.42551
G0 F3600 X128 Y91.513
G1 F1200 X128 Y131.193 E23.40515
G0 F3600 X129.893 Y128
G1 F1200 X70.213 Y128 E26.3826
G0 F3600 X72 Y131.193
G1 F1200 X72 Y91.513 E28.36224
G0 F3600 X76 Y91.513
G1 F1200 X76 Y95.293 E28.55083
G0 F3600 X80 Y95.293
G1 F1200 X80 Y91.513 E28.73941
G0 F3600 X84 Y91.513
G1 F1200 X84 Y95.293 E28.928
G0 F3600 X88 Y95.293
G1 F1200 X88 Y91.513 E29.11658
G0 F3600 X92 Y91.513
G1 F1200 X92 Y95.293 E29.30517
G0 F3600 X96 Y95.293
G1 F1200 X96 Y91.513 E29.49375
G0 F3600 X100 Y91.513
G1 F1200 X100 Y95.293 E29.68234
G0 F3600 X104 Y95.293
G1 F1200 X104 Y91.513 E29.87092
G0 F3600 X108 Y91.513
G1 F1200 X108 Y95.293 E30.05951
G0 F3600 X112 Y95.293
G1 F1200 X112 Y91.513 E30.24809
G0 F3600 X116 Y91.513
G1 F1200 X116 Y95.293 E30.43668
G0 F3600 X120 Y95.293
G1 F1200 X120 Y91.513 E30.62526
G0 F3600 X124 Y91.513
G1 F1200 X124 Y95.293 E30.81385
G0 F3600 X126.114 Y96
G1 F1200 X129.894 Y96 E31.00243
G0 F3600 X129.894 Y100
G1 F1200 X126.114 Y100 E31.19102
G0 F3600 X126.114 Y104
G1 F1200 X129.894 Y104 E31.3796
G0 F3600 X129.894 Y108
G1 F1200 X126.114 Y108 E31.56819
G0 F3600 X126.114 Y112
G1 F1200 X129.894 Y112 E31.75677
G0 F3600 X129.894 Y116
G1 F1200 X126.114 Y116 E31.94536
G0 F3600 X126.113 Y120
G1 F1200 X129.893 Y120 E32.13394
G0 F3600 X129.893 Y124
G1 F1200 X126.113 Y124 E32.32253
G1 F3000 E24.32253
G0 F3600 X125.715 Y126.51
G0 X125.262 Y126.963
G0 X124 Y127.413
G1 F3000 E32.32253
G1 F1200 X124 Y131.193 E32.51111
G0 F3600 X120 Y131.193
G1 F1200 X120 Y127.413 E32.6997
G0 F3600 X116 Y127.413
G1 F1200 X116 Y131.193 E32.88828
G0 F3600 X112 Y131.193
G1 F1200 X112 Y127.413 E33.07687
G0 F3600 X108 Y127.413
G1 F1200 X108 Y131.193 E33.26545
G0 F3600 X104 Y131.193
G1 F1200 X104 Y127.413 E33.45404
G0 F3600 X100 Y127.413
G1 F1200 X100 Y131.193 E33.64262
G0 F3600 X96 Y131.193
G1 F1200 X96 Y127.413 E33.83121
G0 F3600 X92 Y127.413
G1 F1200 X92 Y131.193 E34.01979
G0 F3600 X88 Y131.193
G1 F1200 X88 Y127.413 E34.20838
G0 F3600 X84 Y127.413
G1 F1200 X84 Y131.193 E34.39696
G0 F3600 X80 Y131.193
G1 F1200 X80 Y127.413 E34.58555
G0 F3600 X76 Y127.413
G1 F1200 X76 Y131.193 E34.77413
G1 F3000 E26.77413
G0 F3600 X74.393 Y126.51
G0 X73.993 Y124
G1 F3000 E34.77413
G1 F1200 X70.213 Y124 E34.96272
G0 F3600 X70.213 Y120
G1 F1200 X73.993 Y120 E35.1513
G0 F3600 X73.994 Y116
G1 F1200 X70.214 Y116 E35.33989
G0 F3600 X70.214 Y112
G1 F1200 X73.994 Y112 E35.52847
G0 F3600 X73.994 Y108
G1 F1200 X70.214 Y108 E35.71706
G0 F3600 X70.214 Y104
G1 F1200 X73.994 Y104 E35.90564
G0 F3600 X73.994 Y100
G1 F1200 X70.214 Y100 E36.09423
G1 F3000 E28.09423
G0 F3600 X74.389 Y100
G0 X75.274 Y100
G0 X83.284 Y109.583
G0 X83.354 Y109.653
;TYPE:WALL-OUTER
G1 F3000 E36.09423
G1 F1200 X83.354 Y113.053 E36.26386
G1 X108.754 Y113.053 E37.53107
G1 X108.754 Y109.653 E37.70069
G1 X83.354 Y109.653 E38.9679
G0 F3600 X83.354 Y109.853
G0 X83.254 Y109.853
G0 X83.326 Y113.081
G0 X124.784 Y126.083
G0 X124.854 Y126.153
G1 F1200 X75.254 Y126.153 E41.44246
G1 X75.254 Y96.553 E42.91921
G1 X124.854 Y96.553 E45.39376
G1 X124.854 Y126.153 E46.87051
G0 F3600 X124.654 Y126.153
G0 X124.464 Y125.763
;TYPE:SKIN
G1 F1200 X75.644 Y125.763 E49.30615
G1 X75.644 Y96.943 E50.74399
G1 X124.464 Y96.943 E53.17963
G1 X124.464 Y125.763 E54.61746
G0 F3600 X109.144 Y113.443
G1 F1200 X109.144 Y109.263 E54.826
G1 X82.964 Y109.263 E56.13213
G1 X82.964 Y113.443 E56.34067
G1 X109.144 Y113.443 E57.6468
G0 F3600 X124.283 Y97.696
G1 F1200 X123.71 Y97.123 E57.68722
G1 X123.64 Y97.053
G0 F3600 X123.144 Y97.123
G1 F1200 X124.283 Y98.262 E57.76759
G1 X124.353 Y98.332
G0 F3600 X124.283 Y98.828
G1 F1200 X122.579 Y97.123 E57.88785
G1 X122.509 Y97.053
G0 F3600 X122.013 Y97.123
G1 F1200 X124.283 Y99.393 E58.04801
G1 X124.353 Y99.463
G0 F3600 X124.283 Y99.959
G1 F1200 X121.447 Y97.123 E58.2481
G1 X121.377 Y97.053
G0 F3600 X120.882 Y97.123
G1 F1200 X124.283 Y100.525 E58.4881
G1 X124.353 Y100.595
G0 F3600 X124.283 Y101.09
G1 F1200 X120.316 Y97.123 E58.76799
G1 X120.246 Y97.053
G0 F3600 X119.75 Y97.123
G1 F1200 X124.283 Y101.656 E59.08782
G1 X124.353 Y101.726
G0 F3600 X124.283 Y102.222
G1 F1200 X119.184 Y97.123 E59.44758
G1 X119.114 Y97.053
G0 F3600 X118.619 Y97.123
G1 F1200 X124.283 Y102.787 E59.84721
G1 X124.353 Y102.857
G0 F3600 X124.283 Y103.353
G1 F1200 X118.053 Y97.123 E60.28677
G1 X117.983 Y97.053
G0 F3600 X117.487 Y97.123
G1 F1200 X124.283 Y103.919 E60.76626
G1 X124.353 Y103.989
G0 F3600 X124.283 Y104.484
G1 F1200 X116.922 Y97.123 E61.28562
G1 X116.852 Y97.053
G0 F3600 X116.356 Y97.123
G1 F1200 X124.283 Y105.05 E61.84491
G1 X124.353 Y105.12
G0 F3600 X124.283 Y105.616
G1 F1200 X115.79 Y97.123 E62.44414
G1 X115.72 Y97.053
G0 F3600 X115.225 Y97.123
G1 F1200 X124.283 Y106.181 E63.08323
G1 X124.353 Y106.251
G0 F3600 X124.283 Y106.747
G1 F1200 X114.659 Y97.123 E63.76226
G1 X114.589 Y97.053
G0 F3600 X114.093 Y97.123
G1 F1200 X124.283 Y107.313 E64.48122
G1 X124.353 Y107.383
G0 F3600 X124.283 Y107.879
G1 F1200 X113.528 Y97.123 E65.24007
G1 X113.458 Y97.053
G0 F3600 X112.962 Y97.123
G1 F1200 X124.283 Y108.444 E66.03883
G1 X124.353 Y108.514
G0 F3600 X124.283 Y109.01
G1 F1200 X112.396 Y97.123 E66.87752
G1 X112.326 Y97.053
G0 F3600 X111.831 Y97.123
G1 F1200 X124.283 Y109.576 E67.75611
G1 X124.353 Y109.646
G0 F3600 X124.283 Y110.141
G1 F1200 X111.265 Y97.123 E68.67461
G1 X111.195 Y97.053
G0 F3600 X110.699 Y97.123
G1 F1200 X124.283 Y110.707 E69.63303
G1 X124.353 Y110.777
G0 F3600 X124.283 Y111.273
G1 F1200 X110.134 Y97.123 E70.63135
G1 X110.064 Y97.053
G0 F3600 X109.568 Y97.123
G1 F1200 X124.283 Y111.838 E71.66958
G1 X124.353 Y111.908
G0 F3600 X124.283 Y112.404
G1 F1200 X109.002 Y97.123 E72.74773
G1 X108.932 Y97.053
G0 F3600 X108.436 Y97.123
G1 F1200 X124.283 Y112.97 E73.86582
G1 X124.353 Y113.04
G0 F3600 X124.283 Y113.535
G1 F1200 X107.871 Y97.123 E75.02378
G1 X107.801 Y97.053
G0 F3600 X107.305 Y97.123
G1 F1200 X124.283 Y114.101 E76.22167
G1 X124.353 Y114.171
G0 F3600 X124.283 Y114.667
G1 F1200 X106.739 Y97.123 E77.45949
G1 X106.669 Y97.053
G0 F3600 X106.174 Y97.123
G1 F1200 X124.283 Y115.232 E78.73718
G1 X124.353 Y115.302
G0 F3600 X124.283 Y115.798
G1 F1200 X105.608 Y97.123 E80.0548
G1 X105.538 Y97.053
G0 F3600 X105.042 Y97.123
G1 F1200 X124.283 Y116.364 E81.41236
G1 X124.353 Y116.434
G0 F3600 X124.283 Y116.93
G1 F1200 X104.477 Y97.123 E82.80982
G1 X104.407 Y97.053
G0 F3600 X103.911 Y97.123
G1 F1200 X124.283 Y117.495 E84.24717
G1 X124.353 Y117.565
G0 F3600 X124.283 Y118.061
G1 F1200 X103.345 Y97.123 E85.72446
G1 X103.275 Y97.053
G0 F3600 X102.78 Y97.123
G1 F1200 X124.283 Y118.627 E87.24165
G1 X124.353 Y118.697
G0 F3600 X124.283 Y119.192
G1 F1200 X102.214 Y97.123 E88.79873
G1 X102.144 Y97.053
G0 F3600 X101.648 Y97.123
G1 F1200 X124.283 Y119.758 E90.39576
G1 X124.353 Y119.828
G0 F3600 X124.283 Y120.324
G1 F1200 X101.083 Y97.123 E92.03268
G1 X101.013 Y97.053
G0 F3600 X100.517 Y97.123
G1 F1200 X124.283 Y120.889 E93.7095
G1 X124.353 Y120.959
G0 F3600 X124.283 Y121.455
G1 F1200 X99.95 Y97.122 E95.42632
G1 X99.88 Y97.052
G0 F3600 X99.385 Y97.122
G1 F1200 X124.283 Y122.021 E97.18304
G1 X124.353 Y122.091
G0 F3600 X124.283 Y122.586
G1 F1200 X98.819 Y97.122 E98.97967
G1 X98.749 Y97.052
G0 F3600 X98.253 Y97.122
G1 F1200 X124.283 Y123.152 E100.81622
G1 X124.353 Y123.222
G0 F3600 X124.283 Y123.718
G1 F1200 X97.688 Y97.122 E102.69268
G1 X97.618 Y97.052
G0 F3600 X97.122 Y97.122
G1 F1200 X109.082 Y109.082 E103.53652
G1 X109.152 Y109.152
G0 F3600 X109.323 Y109.323
G1 F1200 X124.283 Y124.283 E104.59203
G1 X124.353 Y124.353
G0 F3600 X124.283 Y124.849
G1 F1200 X109.323 Y109.889 E105.64754
G1 X109.253 Y109.819
G0 F3600 X109.323 Y110.455
G1 F1200 X124.283 Y125.415 E106.70305
G1 X124.353 Y125.485
G0 F3600 X123.885 Y125.582
G1 F1200 X109.323 Y111.02 E107.73048
G1 X109.253 Y110.95
G0 F3600 X109.323 Y111.586
G1 F1200 X123.319 Y125.582 E108.71797
G1 X123.389 Y125.652
G0 F3600 X122.753 Y125.582
G1 F1200 X109.323 Y112.152 E109.66553
G1 X109.253 Y112.082
G0 F3600 X109.323 Y112.717
G1 F1200 X122.188 Y125.582 E110.57322
G1 X122.258 Y125.652
G0 F3600 X121.622 Y125.582
G1 F1200 X109.323 Y113.283 E111.44099
G1 X109.253 Y113.213
G0 F3600 X109.096 Y113.622
G1 F1200 X121.056 Y125.582 E112.28483
G1 X121.126 Y125.652
G0 F3600 X120.49 Y125.582
G1 F1200 X108.53 Y113.622 E113.12867
G1 X108.46 Y113.552
G0 F3600 X107.965 Y113.622
G1 F1200 X119.925 Y125.582 E113.97251
G1 X119.995 Y125.652
G0 F3600 X119.359 Y125.582
G1 F1200 X107.399 Y113.622 E114.81636
G1 X107.329 Y113.552
G0 F3600 X106.833 Y113.622
G1 F1200 X118.793 Y125.582 E115.6602
G1 X118.863 Y125.652
G0 F3600 X118.228 Y125.582
G1 F1200 X106.268 Y113.622 E116.50404
G1 X106.198 Y113.552
G0 F3600 X105.702 Y113.622
G1 F1200 X117.662 Y125.582 E117.34788
G1 X117.732 Y125.652
G0 F3600 X117.096 Y125.582
G1 F1200 X105.136 Y113.622 E118.19173
G1 X105.066 Y113.552
G0 F3600 X104.571 Y113.622
G1 F1200 X116.531 Y125.582 E119.03557
G1 X116.601 Y125.652
G0 F3600 X115.965 Y125.582
G1 F1200 X104.005 Y113.622 E119.87941
G1 X103.935 Y113.552
G0 F3600 X103.439 Y113.622
G1 F1200 X115.399 Y125.582 E120.72325
G1 X115.469 Y125.652
G0 F3600 X114.834 Y125.582
G1 F1200 X102.874 Y113.622 E121.5671
G1 X102.804 Y113.552
G0 F3600 X102.308 Y113.622
G1 F1200 X114.268 Y125.582 E122.41094
G1 X114.338 Y125.652
G0 F3600 X113.702 Y125.582
G1 F1200 X101.742 Y113.622 E123.25478
G1 X101.672 Y113.552
G0 F3600 X101.177 Y113.622
G1 F1200 X113.137 Y125.582 E124.09862
G1 X113.207 Y125.652
G0 F3600 X112.571 Y125.582
G1 F1200 X100.611 Y113.622 E124.94247
G1 X100.541 Y113.552
G0 F3600 X100.045 Y113.622
G1 F1200 X112.005 Y125.582 E125.78631
G1 X112.075 Y125.652
G0 F3600 X111.44 Y125.582
G1 F1200 X99.48 Y113.622 E126.63015
G1 X99.41 Y113.552
G0 F3600 X98.914 Y113.622
G1 F1200 X110.874 Y125.582 E127.47399
G1 X110.944 Y125.652
G0 F3600 X110.308 Y125.582
G1 F1200 X98.348 Y113.622 E128.31784
G1 X98.278 Y113.552
G0 F3600 X97.782 Y113.622
G1 F1200 X109.742 Y125.582 E129.16168
G1 X109.812 Y125.652
G0 F3600 X109.177 Y125.582
G1 F1200 X97.217 Y113.622 E130.00552
G1 X97.147 Y113.552
G0 F3600 X96.651 Y113.622
G1 F1200 X108.611 Y125.582 E130.84937
G1 X108.681 Y125.652
G0 F3600 X108.045 Y125.582
G1 F1200 X96.085 Y113.622 E131.69321
G1 X96.015 Y113.552
G0 F3600 X95.52 Y113.622
G1 F1200 X107.48 Y125.582 E132.53705
G1 X107.55 Y125.652
G0 F3600 X106.914 Y125.582
G1 F1200 X94.954 Y113.622 E133.38089
G1 X94.884 Y113.552
G0 F3600 X94.388 Y113.622
G1 F1200 X106.348 Y125.582 E134.22474
G1 X106.418 Y125.652
G0 F3600 X105.783 Y125.582
G1 F1200 X93.823 Y113.622 E135.06858
G1 X93.753 Y113.552
G0 F3600 X93.257 Y113.622
G1 F1200 X105.217 Y125.582 E135.91242
G1 X105.287 Y125.652
G0 F3600 X104.651 Y125.582
G1 F1200 X92.691 Y113.622 E136.75626
G1 X92.621 Y113.552
G0 F3600 X92.126 Y113.622
G1 F1200 X104.086 Y125.582 E137.60011
G1 X104.156 Y125.652
G0 F3600 X103.52 Y125.582
G1 F1200 X91.56 Y113.622 E138.44395
G1 X91.49 Y113.552
G0 F3600 X90.994 Y113.622
G1 F1200 X102.954 Y125.582 E139.28779
G1 X103.024 Y125.652
G0 F3600 X102.389 Y125.582
G1 F1200 X90.429 Y113.622 E140.13163
G1 X90.359 Y113.552
G0 F3600 X89.863 Y113.622
G1 F1200 X101.823 Y125.582 E140.97548
G1 X101.893 Y125.652
G0 F3600 X101.257 Y125.582
G1 F1200 X89.297 Y113.622 E141.81932
G1 X89.227 Y113.552
G0 F3600 X88.732 Y113.622
G1 F1200 X100.692 Y125.582 E142.66316
G1 X100.762 Y125.652
G0 F3600 X100.126 Y125.582
G1 F1200 X88.166 Y113.622 E143.507
G1 X88.096 Y113.552
G0 F3600 X87.6 Y113.622
G1 F1200 X99.56 Y125.582 E144.35085
G1 X99.63 Y125.652
G0 F3600 X98.994 Y125.582
G1 F1200 X87.034 Y113.622 E145.19469
G1 X86.964 Y113.552
G0 F3600 X86.469 Y113.622
G1 F1200 X98.429 Y125.582 E146.03853
G1 X98.499 Y125.652
G0 F3600 X97.863 Y125.582
G1 F1200 X85.903 Y113.622 E146.88237
G1 X85.833 Y113.552
G0 F3600 X85.337 Y113.622
G1 F1200 X97.297 Y125.582 E147.72622
G1 X97.367 Y125.652
G0 F3600 X96.732 Y125.582
G1 F1200 X84.772 Y113.622 E148.57006
G1 X84.702 Y113.552
G0 F3600 X84.206 Y113.622
G1 F1200 X96.166 Y125.582 E149.4139
G1 X96.236 Y125.652
G0 F3600 X95.6 Y125.582
G1 F1200 X83.64 Y113.622 E150.25774
G1 X83.57 Y113.552
G0 F3600 X83.075 Y113.622
G1 F1200 X95.035 Y125.582 E151.10159
G1 X95.105 Y125.652
G0 F3600 X94.469 Y125.582
G1 F1200 X75.823 Y106.936 E152.41716
G1 X75.753 Y106.866
G0 F3600 X75.823 Y106.37
G1 F1200 X82.783 Y113.33 E152.90823
G1 X82.853 Y113.4
G0 F3600 X82.783 Y112.765
G1 F1200 X75.823 Y105.805 E153.39929
G1 X75.753 Y105.735
G0 F3600 X75.823 Y105.239
G1 F1200 X82.783 Y112.199 E153.89036
G1 X82.853 Y112.269
G0 F3600 X82.783 Y111.633
G1 F1200 X75.823 Y104.673 E154.38143
G1 X75.753 Y104.603
G0 F3600 X75.823 Y104.108
G1 F1200 X82.783 Y111.068 E154.87249
G1 X82.853 Y111.138
G0 F3600 X82.783 Y110.502
G1 F1200 X75.823 Y103.542 E155.36356
G1 X75.753 Y103.472
G0 F3600 X75.823 Y102.976
G1 F1200 X82.783 Y109.936 E155.85462
G1 X82.853 Y110.006
G0 F3600 X82.783 Y109.371
G1 F1200 X75.823 Y102.41 E156.34572
G1 X75.753 Y102.34
G0 F3600 X75.823 Y101.845
G1 F1200 X83.061 Y109.082 E156.85637
G1 X83.131 Y109.152
G0 F3600 X83.626 Y109.082
G1 F1200 X75.823 Y101.279 E157.40691
G1 X75.753 Y101.209
G0 F3600 X75.823 Y100.713
G1 F1200 X84.192 Y109.082 E157.99739
G1 X84.262 Y109.152
G0 F3600 X84.758 Y109.082
G1 F1200 X75.823 Y100.148 E158.62777
G1 X75.753 Y100.078
G0 F3600 X75.823 Y99.582
G1 F1200 X85.323 Y109.082 E159.29804
G1 X85.393 Y109.152
G0 F3600 X85.889 Y109.082
G1 F1200 X75.823 Y99.016 E160.00825
G1 X75.753 Y98.946
G0 F3600 X75.823 Y98.451
G1 F1200 X86.455 Y109.082 E160.75836
G1 X86.525 Y109.152
G0 F3600 X87.02 Y109.082
G1 F1200 X75.823 Y97.885 E161.54837
G1 X75.753 Y97.815
G0 F3600 X75.823 Y97.319
G1 F1200 X87.586 Y109.082 E162.37832
G1 X87.656 Y109.152
G0 F3600 X88.152 Y109.082
G1 F1200 X76.192 Y97.122 E163.22216
G1 X76.122 Y97.052
G0 F3600 X76.757 Y97.122
G1 F1200 X88.717 Y109.082 E164.066
G1 X88.787 Y109.152
G0 F3600 X89.283 Y109.082
G1 F1200 X77.323 Y97.122 E164.90984
G1 X77.253 Y97.052
G0 F3600 X77.889 Y97.122
G1 F1200 X89.849 Y109.082 E165.75369
G1 X89.919 Y109.152
G0 F3600 X90.414 Y109.082
G1 F1200 X78.454 Y97.122 E166.59753
G1 X78.384 Y97.052
G0 F3600 X79.02 Y97.122
G1 F1200 X90.98 Y109.082 E167.44137
G1 X91.05 Y109.152
G0 F3600 X91.546 Y109.082
G1 F1200 X79.586 Y97.122 E168.28521
G1 X79.516 Y97.052
G0 F3600 X80.151 Y97.122
G1 F1200 X92.111 Y109.082 E169.12906
G1 X92.181 Y109.152
G0 F3600 X92.677 Y109.082
G1 F1200 X80.717 Y97.122 E169.9729
G1 X80.647 Y97.052
G0 F3600 X81.283 Y97.122
G1 F1200 X93.243 Y109.082 E170.81674
G1 X93.313 Y109.152
G0 F3600 X93.809 Y109.082
G1 F1200 X81.849 Y97.122 E171.66058
G1 X81.779 Y97.052
G0 F3600 X82.414 Y97.122
G1 F1200 X94.374 Y109.082 E172.50443
G1 X94.444 Y109.152
G0 F3600 X94.94 Y109.082
G1 F1200 X82.98 Y97.122 E173.34827
G1 X82.91 Y97.052
G0 F3600 X83.546 Y97.122
G1 F1200 X95.506 Y109.082 E174.19211
G1 X95.576 Y109.152
G0 F3600 X96.071 Y109.082
G1 F1200 X84.111 Y97.122 E175.03596
G1 X84.041 Y97.052
G0 F3600 X84.677 Y97.122
G1 F1200 X96.637 Y109.082 E175.8798
G1 X96.707 Y109.152
G0 F3600 X97.203 Y109.082
G1 F1200 X85.243 Y97.122 E176.72364
G1 X85.173 Y97.052
G0 F3600 X85.808 Y97.122
G1 F1200 X97.768 Y109.082 E177.56748
G1 X97.838 Y109.152
G0 F3600 X98.334 Y109.082
G1 F1200 X86.374 Y97.122 E178.41133
G1 X86.304 Y97.052
G0 F3600 X86.94 Y97.122
G1 F1200 X98.9 Y109.082 E179.25517
G1 X98.97 Y109.152
G0 F3600 X99.465 Y109.082
