;FLAVOR:Marlin
;TIME:3569
;Filament used: 1.98136m
;Layer height: 0.2
;Generated with Cura_SteamEngine master
M190 S90
M104 S220
M109 S220
M82 ;absolute extrusion mode

G92 E0
G1 F3000 E-8
;LAYER_COUNT:56
;LAYER:0
M107
G0 F3600 X72.859 Y84.444 Z0.3
;TYPE:SKIRT
G1 F3000 E0
G1 F900 X73.309 Y84.152 E0.02676
G1 X73.798 Y83.931 E0.05354
G1 X74.313 Y83.784 E0.08025
G1 X75.036 Y83.711 E0.11651
G1 X124.96 Y83.71 E2.60723
G1 X125.495 Y83.75 E2.63399
G1 X126.018 Y83.869 E2.66075
G1 X126.517 Y84.064 E2.68748
G1 X126.982 Y84.331 E2.71423
G1 X127.402 Y84.665 E2.741
G1 X127.48 Y84.737 E2.7463
G1 X127.616 Y84.869 E2.75576
G1 X127.769 Y85.026 E2.76669
G1 X128.114 Y85.437 E2.79346
G1 X128.394 Y85.895 E2.82025
G1 X128.602 Y86.389 E2.84699
G1 X128.735 Y86.908 E2.87372
G1 X128.791 Y87.539 E2.90532
G1 X128.79 Y112.461 E4.14868
G1 X128.75 Y112.996 E4.17545
G1 X128.631 Y113.519 E4.20221
G1 X128.436 Y114.018 E4.22894
G1 X128.168 Y114.483 E4.25571
G1 X127.747 Y114.995 E4.28878
G1 X127.521 Y115.223 E4.3048
G1 X127.116 Y115.575 E4.33157
G1 X126.663 Y115.863 E4.35835
G1 X126.173 Y116.08 E4.38509
G1 X125.656 Y116.222 E4.41184
G1 X124.964 Y116.289 E4.44652
G1 X75.043 Y116.29 E6.93709
G1 X74.508 Y116.25 E6.96386
G1 X73.985 Y116.131 E6.99062
G1 X73.486 Y115.936 E7.01735
G1 X73.021 Y115.669 E7.0441
G1 X72.531 Y115.269 E7.07565
G1 X72.299 Y115.043 E7.09181
G1 X71.944 Y114.641 E7.11857
G1 X71.652 Y114.191 E7.14533
G1 X71.431 Y113.702 E7.1721
G1 X71.284 Y113.187 E7.19882
G1 X71.211 Y112.464 E7.23508
G1 X71.21 Y87.543 E8.47839
G1 X71.25 Y87.008 E8.50516
G1 X71.369 Y86.485 E8.53192
G1 X71.564 Y85.986 E8.55865
G1 X71.831 Y85.521 E8.5854
G1 X72.231 Y85.031 E8.61695
G1 X72.457 Y84.799 E8.63311
G1 X72.859 Y84.444 E8.65987
G0 F3600 X73.124 Y84.745
G1 F900 X73.552 Y84.476 E8.68509
G1 X74.017 Y84.278 E8.7103
G1 X74.508 Y84.155 E8.73556
G1 X75.036 Y84.111 E8.76199
G1 X124.96 Y84.11 E11.25271
G1 X125.464 Y84.15 E11.27793
G1 X125.955 Y84.269 E11.30314
G1 X126.422 Y84.463 E11.32837
G1 X126.852 Y84.729 E11.35359
G1 X127.13 Y84.959 E11.37159
G1 X127.208 Y85.031 E11.37689
G1 X127.33 Y85.149 E11.38536
G1 X127.483 Y85.306 E11.39629
G1 X127.806 Y85.694 E11.42148
G1 X128.064 Y86.129 E11.44671
G1 X128.25 Y86.599 E11.47193
G1 X128.36 Y87.093 E11.49718
G1 X128.391 Y87.539 E11.51949
G1 X128.39 Y112.461 E12.76285
G1 X128.35 Y112.965 E12.78807
G1 X128.231 Y113.457 E12.81333
G1 X128.036 Y113.923 E12.83853
G1 X127.771 Y114.353 E12.86373
G1 X127.463 Y114.714 E12.8874
G1 X127.237 Y114.942 E12.90342
G1 X126.854 Y115.272 E12.92864
G1 X126.423 Y115.537 E12.95388
G1 X125.956 Y115.731 E12.97911
G1 X125.465 Y115.85 E13.00432
G1 X124.964 Y115.889 E13.02939
G1 X75.043 Y115.89 E15.51996
G1 X74.539 Y115.85 E15.54518
G1 X74.048 Y115.731 E15.57039
G1 X73.581 Y115.537 E15.59562
G1 X73.151 Y115.271 E15.62084
G1 X72.81 Y114.982 E15.64314
G1 X72.578 Y114.756 E15.6593
G1 X72.245 Y114.376 E15.68451
G1 X71.976 Y113.948 E15.70973
G1 X71.778 Y113.483 E15.73494
G1 X71.655 Y112.992 E15.7602
G1 X71.611 Y112.464 E15.78663
G1 X71.61 Y87.543 E17.02994
G1 X71.65 Y87.039 E17.05517
G1 X71.769 Y86.548 E17.08037
G1 X71.963 Y86.081 E17.1056
G1 X72.229 Y85.651 E17.13083
G1 X72.518 Y85.31 E17.15313
G1 X72.744 Y85.078 E17.16929
G1 X73.124 Y84.745 E17.19449
G0 F3600 X75.116 Y87.5
;TYPE:SUPPORT
G1 F900 X124.884 Y87.5 E19.67743
G1 X125 Y87.616 E19.68561
G1 X125 Y112.384 E20.92129
G1 X124.884 Y112.5 E20.92948
G1 X75.116 Y112.5 E23.41241
G1 X75 Y112.384 E23.4206
G1 X75 Y87.616 E24.65628
G1 X75.116 Y87.5 E24.66446
G0 F3600 X79.899 Y92
G1 F900 X79.5 Y92.399 E24.69261
G1 X79.497 Y97.1 E24.92715
G1 X77.499 Y97.1 E25.02683
G1 X77.1 Y97.499 E25.05498
G1 X77.1 Y102.501 E25.30453
G1 X77.499 Y102.9 E25.33268
G1 X79.497 Y102.9 E25.43236
G1 X79.5 Y107.601 E25.6669
G1 X79.899 Y108 E25.69505
G1 X87.1 Y108.004 E26.05431
G1 X87.1 Y110.001 E26.15394
G1 X87.499 Y110.4 E26.18209
G1 X92.501 Y110.4 E26.43164
G1 X92.9 Y110.001 E26.45979
G1 X92.9 Y108.004 E26.55942
G1 X107.1 Y108.004 E27.26787
G1 X107.1 Y110.001 E27.3675
G1 X107.499 Y110.4 E27.39565
G1 X112.501 Y110.4 E27.6452
G1 X112.9 Y110.001 E27.67335
G1 X112.9 Y108.003 E27.77303
G1 X120.101 Y108 E28.13229
G1 X120.5 Y107.601 E28.16044
G1 X120.503 Y102.9 E28.39498
G1 X122.501 Y102.9 E28.49466
G1 X122.9 Y102.501 E28.52281
G1 X122.9 Y97.499 E28.77236
G1 X122.501 Y97.1 E28.80051
G1 X120.503 Y97.1 E28.90019
G1 X120.5 Y92.399 E29.13472
G1 X120.101 Y92 E29.16288
G1 X112.9 Y91.999 E29.52214
G1 X112.9 Y89.999 E29.62192
G1 X112.501 Y89.6 E29.65007
G1 X107.499 Y89.6 E29.89962
G1 X107.1 Y89.999 E29.92777
G1 X107.1 Y91.996 E30.0274
G1 X92.9 Y92 E30.73584
G1 X92.9 Y89.999 E30.83567
G1 X92.501 Y89.6 E30.86382
G1 X87.499 Y89.6 E31.11337
G1 X87.1 Y89.999 E31.14153
G1 X87.1 Y91.996 E31.24116
G1 X79.899 Y92 E31.60042
G0 F3600 X80 Y91.84
G1 F900 X80 Y87.66 E31.80896
G0 F3600 X75.16 Y88
G1 F900 X124.84 Y88 E34.2875
G0 F3600 X120 Y87.66
G1 F900 X120 Y91.839 E34.49599
G1 F3000 E26.49599
G0 F3600 X120.21 Y92.57
G0 X120.662 Y96
G1 F3000 E34.49599
G1 F900 X124.84 Y96 E34.70443
G0 F3600 X124.84 Y104
G1 F900 X120.663 Y104 E34.91283
G1 F3000 E26.91283
G0 F3600 X120.302 Y106.931
G0 X120 Y108.16
G1 F3000 E34.91283
G1 F900 X120 Y112.34 E35.12137
G0 F3600 X124.84 Y112
G1 F900 X75.16 Y112 E37.59991
G0 F3600 X80 Y112.34
G1 F900 X80 Y108.161 E37.8084
G1 F3000 E29.8084
G0 F3600 X79.79 Y107.43
G0 X79.338 Y104
G1 F3000 E37.8084
G1 F900 X75.16 Y104 E38.01684
G0 F3600 X75.16 Y96
G1 F900 X79.337 Y96 E38.22524
G1 F3000 E30.22524
G0 F3600 X79.739 Y92.743
G0 X80.192 Y92.29
G0 X88 Y89.44
G1 F3000 E38.22524
G1 F900 X88 Y87.66 E38.31404
G0 F3600 X96 Y87.66
G1 F900 X96 Y91.84 E38.52258
G0 F3600 X104 Y91.837
G1 F900 X104 Y87.66 E38.73097
G0 F3600 X112 Y87.66
G1 F900 X112 Y89.44 E38.81978
G1 F3000 E30.81978
G0 F3600 X119.757 Y92.239
G0 X120.261 Y92.743
G0 X121.26 Y97.843
G0 X121.261 Y102.157
G0 X120.261 Y107.257
G0 X119.757 Y107.761
G0 X112.157 Y108.76
G0 X107.843 Y108.76
G0 X104 Y108.164
G1 F3000 E38.81978
G1 F900 X104 Y112.34 E39.02812
G0 F3600 X96 Y112.34
G1 F900 X96 Y108.164 E39.23646
G0 F3600 X88 Y110.56
G1 F900 X88 Y112.34 E39.32527
G0 F3600 X112 Y112.34
G1 F900 X112 Y110.56 E39.41407
G1 F3000 E31.41407
G0 F3600 X112.202 Y108.666
G0 X112.206 Y108.622
G0 X112.897 Y102.164
G0 X112.901 Y102.12
G0 X112.931 Y101.85
G1 F3000 E39.41407
G1 F900 X111.864 Y100 E39.52062
G1 X112.931 Y98.15 E39.62717
G1 X115.069 Y98.15 E39.73383
G1 X116.136 Y100 E39.84038
G1 X115.069 Y101.85 E39.94693
G1 X112.931 Y101.85 E40.05359
G1 F3000 E32.05359
G0 F3600 X111.586 Y100
G0 X110.594 Y100
G0 X112.247 Y96.964
G0 X112.297 Y97.05
;TYPE:WALL-OUTER
G1 F3000 E40.05359
G1 F900 X110.594 Y100 E40.22353
G1 X112.297 Y102.95 E40.39347
G1 X115.703 Y102.95 E40.5634
G1 X117.406 Y100 E40.73334
G1 X115.703 Y97.05 E40.90328
G1 X112.297 Y97.05 E41.0732
G0 F3600 X112.197 Y97.223
G0 X112.112 Y97.172
G0 X91.73 Y93.17
G0 X91.8 Y93.1
G1 F900 X92 Y93.1 E41.08318
G1 X108.2 Y93.099 E41.8914
G1 X108.2 Y92.101 E41.94119
G1 X111.8 Y92.101 E42.1208
G1 X111.8 Y93.1 E42.17064
G1 X119.4 Y93.1 E42.5498
G1 X119.401 Y98.2 E42.80424
G1 X120.399 Y98.2 E42.85403
G1 X120.4 Y101.6 E43.02366
G1 X120.4 Y101.8 E43.03364
G1 X120.2 Y101.8 E43.0401
G1 X119.401 Y101.8 E43.07996
G1 X119.4 Y106.9 E43.3344
G1 X111.8 Y106.903 E43.71357
G1 X111.8 Y107.899 E43.76326
G1 X108.2 Y107.899 E43.94286
G1 X108.2 Y107.1 E43.98272
G1 X108.2 Y106.9 E43.9927
G1 X108 Y106.9 E43.99916
G1 X91.8 Y106.903 E44.80738
G1 X91.8 Y107.899 E44.85708
G1 X88.2 Y107.899 E45.03668
G1 X88.2 Y106.9 E45.08652
G1 X80.6 Y106.9 E45.46569
G1 X80.599 Y101.8 E45.72013
G1 X79.601 Y101.8 E45.76992
G1 X79.6 Y98.4 E45.93954
G1 X79.6 Y98.2 E45.94952
G1 X79.8 Y98.2 E45.95598
G1 X80.599 Y98.2 E45.99584
G1 X80.6 Y93.1 E46.25028
G1 X88.2 Y93.099 E46.62945
G1 X88.2 Y92.101 E46.67924
G1 X91.8 Y92.101 E46.85884
G1 X91.8 Y92.9 E46.89871
G1 X91.8 Y93.1 E46.90517
G0 F3600 X92 Y93.1
G0 X92 Y93.2
G0 X83.23 Y98.23
G0 X83.3 Y98.3
G1 F900 X83.3 Y101.7 E47.07479
G1 X108.7 Y101.7 E48.34201
G1 X108.7 Y98.3 E48.51163
G1 X83.3 Y98.3 E49.77884
G0 F3600 X83.3 Y98.5
G0 X82.91 Y97.91
;TYPE:SKIN
G1 F900 X82.91 Y102.09 E49.98738
G1 X109.09 Y102.09 E51.29351
G1 X109.09 Y97.91 E51.50205
G1 X82.91 Y97.91 E52.80818
G0 F3600 X80.989 Y98.59
G1 F900 X80.99 Y93.49 E53.06262
G1 X88.59 Y93.489 E53.44178
G1 X88.59 Y92.491 E53.49157
G1 X91.41 Y92.491 E53.63226
G1 X91.41 Y93.49 E53.6821
G1 X108.59 Y93.489 E54.53922
G1 X108.59 Y92.491 E54.58901
G1 X111.41 Y92.491 E54.7297
G1 X111.41 Y93.49 E54.77954
G1 X119.01 Y93.49 E55.1587
G1 X119.011 Y98.59 E55.41314
G1 X120.009 Y98.59 E55.46293
G1 X120.01 Y101.41 E55.60362
G1 X119.011 Y101.41 E55.65346
G1 X119.01 Y106.51 E55.9079
G1 X111.41 Y106.513 E56.28707
G1 X111.41 Y107.509 E56.33676
G1 X108.59 Y107.509 E56.47745
G1 X108.59 Y106.51 E56.52729
G1 X91.41 Y106.513 E57.38441
G1 X91.41 Y107.509 E57.4341
G1 X88.59 Y107.509 E57.57479
G1 X88.59 Y106.51 E57.62463
G1 X80.99 Y106.51 E58.00379
G1 X80.989 Y101.41 E58.25823
G1 X79.991 Y101.41 E58.30802
G1 X79.99 Y98.59 E58.44871
G1 X80.989 Y98.59 E58.49855
G0 F3600 X83.272 Y98.272
G0 X108.728 Y98.272
G0 X110.144 Y100
G1 F900 X112.072 Y103.34 E58.69096
G1 X115.928 Y103.34 E58.88333
G1 X117.856 Y100 E59.07574
G1 X115.928 Y96.66 E59.26814
G1 X112.072 Y96.66 E59.46052
G1 X110.144 Y100 E59.65292
G0 F3600 X112.277 Y97.016
G0 X118.83 Y93.939
G1 F900 X118.56 Y93.67 E59.67193
G0 F3600 X117.994 Y93.67
G1 F900 X118.83 Y94.505 E59.73088
G1 X118.9 Y94.575
G0 F3600 X118.83 Y95.071
G1 F900 X117.429 Y93.67 E59.82973
G1 X117.359 Y93.6
G0 F3600 X116.863 Y93.67
G1 F900 X118.83 Y95.636 E59.96848
G1 X118.9 Y95.706
G0 F3600 X118.83 Y96.202
G1 F900 X116.297 Y93.67 E60.14716
G1 X116.227 Y93.6
G0 F3600 X115.732 Y93.67
G1 F900 X118.83 Y96.768 E60.36574
G1 X118.9 Y96.838
G0 F3600 X118.83 Y97.334
G1 F900 X115.166 Y93.67 E60.62425
G1 X115.096 Y93.6
G0 F3600 X114.6 Y93.67
G1 F900 X118.83 Y97.9 E60.9227
G1 X118.9 Y97.97
G0 F3600 X118.83 Y98.466
G1 F900 X114.035 Y93.67 E61.26105
G1 X113.965 Y93.6
G0 F3600 X113.469 Y93.67
G1 F900 X119.829 Y100.03 E61.70978
G1 X119.899 Y100.1
G0 F3600 X119.829 Y100.596
G1 F900 X116.465 Y97.232 E61.94713
G1 X116.395 Y97.162
G0 F3600 X115.713 Y96.479
G1 F900 X112.903 Y93.67 E62.14536
G1 X112.833 Y93.6
G0 F3600 X112.338 Y93.67
G1 F900 X115.147 Y96.479 E62.34355
G1 X115.217 Y96.549
G0 F3600 X114.581 Y96.479
G1 F900 X111.772 Y93.67 E62.54174
G1 X111.702 Y93.6
G0 F3600 X111.229 Y93.127
G1 F900 X110.773 Y92.671 E62.57391
G0 F3600 X110.207 Y92.671
G1 F900 X114.016 Y96.479 E62.84262
G1 X114.086 Y96.549
G0 F3600 X113.45 Y96.479
G1 F900 X109.641 Y92.671 E63.11133
G1 X109.571 Y92.601
G0 F3600 X109.076 Y92.671
G1 F900 X112.884 Y96.479 E63.38001
G1 X112.954 Y96.549
G0 F3600 X112.318 Y96.479
G1 F900 X108.769 Y92.93 E63.63041
G1 X108.699 Y92.86
G0 F3600 X108.769 Y93.495
G1 F900 X111.889 Y96.615 E63.85054
G1 X111.959 Y96.685
G0 F3600 X111.681 Y96.974
G1 F900 X108.376 Y93.669 E64.08373
G1 X108.306 Y93.599
G0 F3600 X107.811 Y93.669
G1 F900 X111.475 Y97.333 E64.34224
G1 X111.545 Y97.403
G0 F3600 X111.268 Y97.691
G1 F900 X107.245 Y93.669 E64.62605
G1 X107.175 Y93.599
G0 F3600 X106.679 Y93.669
G1 F900 X111.061 Y98.05 E64.93519
G1 X111.131 Y98.12
G0 F3600 X110.853 Y98.408
G1 F900 X106.114 Y93.669 E65.26955
G1 X106.044 Y93.599
G0 F3600 X105.548 Y93.669
G1 F900 X110.647 Y98.767 E65.62928
G1 X110.717 Y98.837
G0 F3600 X110.44 Y99.126
G1 F900 X109.269 Y97.955 E65.7119
G1 X109.199 Y97.885
G0 F3600 X109.042 Y97.729
G1 F900 X104.982 Y93.669 E65.99835
G1 X104.912 Y93.599
G0 F3600 X104.417 Y93.669
G1 F900 X108.477 Y97.729 E66.28481
G1 X108.547 Y97.799
G0 F3600 X107.911 Y97.729
G1 F900 X103.851 Y93.669 E66.57126
G1 X103.781 Y93.599
G0 F3600 X103.285 Y93.669
G1 F900 X107.345 Y97.729 E66.85772
G1 X107.415 Y97.799
G0 F3600 X106.78 Y97.729
G1 F900 X102.719 Y93.669 E67.14421
G1 X102.649 Y93.599
G0 F3600 X102.154 Y93.669
G1 F900 X106.214 Y97.729 E67.43066
G1 X106.284 Y97.799
G0 F3600 X105.648 Y97.729
G1 F900 X101.588 Y93.669 E67.71712
G1 X101.518 Y93.599
G0 F3600 X101.022 Y93.669
G1 F900 X105.083 Y97.729 E68.00361
G1 X105.153 Y97.799
G0 F3600 X104.517 Y97.729
G1 F900 X100.457 Y93.669 E68.29006
G1 X100.387 Y93.599
G0 F3600 X99.892 Y93.669
G1 F900 X103.951 Y97.729 E68.57648
G1 X104.021 Y97.799
G0 F3600 X103.386 Y97.729
G1 F900 X99.326 Y93.669 E68.86294
G1 X99.256 Y93.599
G0 F3600 X98.76 Y93.669
G1 F900 X102.82 Y97.729 E69.14939
G1 X102.89 Y97.799
G0 F3600 X102.254 Y97.729
G1 F900 X98.195 Y93.669 E69.43581
G1 X98.125 Y93.599
G0 F3600 X97.629 Y93.669
G1 F900 X101.689 Y97.729 E69.72227
G1 X101.759 Y97.799
G0 F3600 X101.123 Y97.729
G1 F900 X97.063 Y93.669 E70.00872
G1 X96.993 Y93.599
G0 F3600 X96.498 Y93.669
G1 F900 X100.557 Y97.729 E70.29514
G1 X100.627 Y97.799
G0 F3600 X99.991 Y97.729
G1 F900 X95.932 Y93.669 E70.58156
G1 X95.862 Y93.599
G0 F3600 X95.366 Y93.669
G1 F900 X99.426 Y97.729 E70.86802
G1 X99.496 Y97.799
G0 F3600 X98.86 Y97.729
G1 F900 X94.801 Y93.669 E71.15444
G1 X94.731 Y93.599
G0 F3600 X94.235 Y93.669
G1 F900 X98.294 Y97.729 E71.44086
G1 X98.364 Y97.799
G0 F3600 X97.729 Y97.729
G1 F900 X93.669 Y93.669 E71.72731
G1 X93.599 Y93.599
G0 F3600 X93.104 Y93.669
G1 F900 X97.163 Y97.729 E72.01373
G1 X97.233 Y97.799
G0 F3600 X96.597 Y97.729
G1 F900 X92.538 Y93.669 E72.30015
G1 X92.468 Y93.599
G0 F3600 X91.972 Y93.669
G1 F900 X96.032 Y97.729 E72.58661
G1 X96.102 Y97.799
G0 F3600 X95.466 Y97.729
G1 F900 X91.406 Y93.669 E72.87306
G1 X91.336 Y93.599
G0 F3600 X91.23 Y93.492
G1 F900 X90.407 Y92.67 E72.93109
G1 X90.337 Y92.6
G0 F3600 X89.842 Y92.67
G1 F900 X94.9 Y97.729 E73.288
G1 X94.97 Y97.799
G0 F3600 X94.335 Y97.729
G1 F900 X89.276 Y92.67 E73.64494
G1 X89.206 Y92.6
G0 F3600 X88.769 Y92.729
G1 F900 X93.769 Y97.729 E73.99771
G1 X93.839 Y97.799
G0 F3600 X93.203 Y97.729
G1 F900 X88.769 Y93.294 E74.31059
G1 X88.699 Y93.224
G0 F3600 X88.577 Y93.669
G1 F900 X92.638 Y97.729 E74.59708
G1 X92.708 Y97.799
G0 F3600 X92.072 Y97.729
G1 F900 X88.012 Y93.669 E74.88354
G1 X87.942 Y93.599
G0 F3600 X87.446 Y93.669
G1 F900 X91.506 Y97.729 E75.16999
G1 X91.576 Y97.799
G0 F3600 X90.941 Y97.729
G1 F900 X86.88 Y93.669 E75.45648
G1 X86.81 Y93.599
G0 F3600 X86.315 Y93.669
G1 F900 X90.375 Y97.729 E75.74294
G1 X90.445 Y97.799
G0 F3600 X89.809 Y97.729
G1 F900 X85.749 Y93.669 E76.02939
G1 X85.679 Y93.599
G0 F3600 X85.183 Y93.669
G1 F900 X89.243 Y97.729 E76.31585
G1 X89.313 Y97.799
G0 F3600 X88.678 Y97.729
G1 F900 X84.618 Y93.669 E76.6023
G1 X84.548 Y93.599
G0 F3600 X84.052 Y93.669
G1 F900 X88.112 Y97.729 E76.88876
G1 X88.182 Y97.799
G0 F3600 X87.546 Y97.729
G1 F900 X83.486 Y93.669 E77.17521
G1 X83.416 Y93.599
G0 F3600 X82.92 Y93.669
G1 F900 X86.981 Y97.729 E77.4617
G1 X87.051 Y97.799
G0 F3600 X86.415 Y97.729
G1 F900 X82.355 Y93.669 E77.74816
G1 X82.285 Y93.599
G0 F3600 X81.789 Y93.669
G1 F900 X85.849 Y97.729 E78.03461
G1 X85.919 Y97.799
G0 F3600 X85.284 Y97.729
G1 F900 X81.223 Y93.669 E78.3211
G1 X81.153 Y93.599
G0 F3600 X81.169 Y94.18
G1 F900 X84.718 Y97.729 E78.5715
G1 X84.788 Y97.799
G0 F3600 X84.152 Y97.729
G1 F900 X81.169 Y94.745 E78.782
G1 X81.099 Y94.675
G0 F3600 X81.169 Y95.311
G1 F900 X83.587 Y97.729 E78.95261
G1 X83.657 Y97.799
G0 F3600 X83.021 Y97.729
G1 F900 X81.169 Y95.877 E79.08328
G1 X81.099 Y95.807
G0 F3600 X81.169 Y96.443
G1 F900 X82.73 Y98.003 E79.19338
G1 X82.8 Y98.073
G0 F3600 X82.73 Y98.569
G1 F900 X81.169 Y97.008 E79.30351
G1 X81.099 Y96.938
G0 F3600 X81.169 Y97.574
G1 F900 X82.73 Y99.134 E79.41362
G1 X82.8 Y99.204
G0 F3600 X82.73 Y99.7
G1 F900 X81.169 Y98.14 E79.52372
G1 X81.099 Y98.07
G0 F3600 X81.169 Y98.705
G1 F900 X82.73 Y100.266 E79.63385
G1 X82.8 Y100.336
G0 F3600 X82.73 Y100.832
G1 F900 X80.667 Y98.769 E79.77941
G1 X80.597 Y98.699
G0 F3600 X80.169 Y98.837
G1 F900 X82.73 Y101.397 E79.96007
G1 X82.8 Y101.467
G0 F3600 X82.73 Y101.963
G1 F900 X80.169 Y99.402 E80.14076
G1 X80.099 Y99.332
G0 F3600 X80.169 Y99.968
G1 F900 X86.53 Y106.329 E80.58956
G1 X86.6 Y106.399
G0 F3600 X87.095 Y106.329
G1 F900 X83.036 Y102.269 E80.87598
G1 X82.966 Y102.199
G0 F3600 X83.601 Y102.269
G1 F900 X87.661 Y106.329 E81.16244
G1 X87.731 Y106.399
G0 F3600 X88.227 Y106.329
G1 F900 X84.167 Y102.269 E81.44889
G1 X84.097 Y102.199
G0 F3600 X84.733 Y102.269
