;FLAVOR:Marlin
;TIME:983
;Filament used: 0.601342m
;Layer height: 0.2
;Generated with Cura_SteamEngine master
M190 S90
M104 S220
M109 S220
M82 ;absolute extrusion mode

G92 E0
G1 F3000 E-8
;LAYER_COUNT:25
;LAYER:0
M107
G0 F3600 X79.022 Y89.819 Z0.3
;TYPE:SKIRT
G1 F3000 E0
G1 F900 X79.472 Y89.527 E0.02676
G1 X79.961 Y89.305 E0.05356
G1 X80.476 Y89.159 E0.08026
G1 X81.201 Y89.085 E0.11662
G1 X120.373 Y89.085 E2.07092
G1 X120.908 Y89.125 E2.09768
G1 X121.431 Y89.244 E2.12444
G1 X121.93 Y89.439 E2.15117
G1 X122.395 Y89.707 E2.17795
G1 X122.919 Y90.139 E2.21183
G1 X123.149 Y90.369 E2.22806
G1 X123.498 Y90.776 E2.25481
G1 X123.784 Y91.23 E2.28158
G1 X123.999 Y91.721 E2.30832
G1 X124.139 Y92.239 E2.33509
G1 X124.203 Y92.915 E2.36896
G1 X124.203 Y107.082 E3.07576
G1 X124.163 Y107.617 E3.10252
G1 X124.044 Y108.14 E3.12928
G1 X123.849 Y108.639 E3.15601
G1 X123.581 Y109.104 E3.18279
G1 X123.188 Y109.587 E3.21386
G1 X122.97 Y109.812 E3.22949
G1 X122.57 Y110.168 E3.2562
G1 X122.12 Y110.461 E3.28299
G1 X121.633 Y110.684 E3.30971
G1 X121.117 Y110.832 E3.33649
G1 X120.385 Y110.907 E3.3732
G1 X81.183 Y110.906 E5.329
G1 X80.648 Y110.866 E5.35577
G1 X80.125 Y110.747 E5.38253
G1 X79.434 Y110.452 E5.42001
G1 X77.878 Y109.587 E5.50883
G1 X77.43 Y109.293 E5.53556
G1 X77.087 Y108.992 E5.55833
G1 X76.857 Y108.763 E5.57452
G1 X76.506 Y108.357 E5.6013
G1 X76.22 Y107.904 E5.62802
G1 X76.003 Y107.413 E5.65481
G1 X75.863 Y106.896 E5.68153
G1 X75.797 Y106.212 E5.71581
G1 X75.797 Y94.539 E6.29818
G1 X75.837 Y94.004 E6.32495
G1 X75.956 Y93.481 E6.35171
G1 X76.151 Y92.982 E6.37843
G1 X76.419 Y92.517 E6.40521
G1 X76.817 Y92.028 E6.43667
G1 X78.621 Y90.174 E6.56572
G1 X79.022 Y89.819 E6.59244
G0 F3600 X79.288 Y90.12
G1 F900 X79.715 Y89.851 E6.61762
G1 X80.18 Y89.652 E6.64286
G1 X80.671 Y89.529 E6.66811
G1 X81.201 Y89.485 E6.69464
G1 X120.373 Y89.485 E8.64894
G1 X120.877 Y89.525 E8.67416
G1 X121.368 Y89.644 E8.69937
G1 X121.835 Y89.838 E8.7246
G1 X122.265 Y90.104 E8.74982
G1 X122.636 Y90.422 E8.7742
G1 X122.866 Y90.652 E8.79043
G1 X123.194 Y91.037 E8.81566
G1 X123.457 Y91.468 E8.84085
G1 X123.65 Y91.936 E8.86611
G1 X123.766 Y92.428 E8.89133
G1 X123.803 Y92.915 E8.91569
G1 X123.803 Y107.082 E9.62249
G1 X123.763 Y107.586 E9.64771
G1 X123.644 Y108.077 E9.67292
G1 X123.45 Y108.544 E9.69815
G1 X123.184 Y108.974 E9.72337
G1 X122.901 Y109.309 E9.74525
G1 X122.683 Y109.534 E9.76088
G1 X122.304 Y109.868 E9.78608
G1 X121.877 Y110.138 E9.81129
G1 X121.412 Y110.338 E9.83654
G1 X120.922 Y110.462 E9.86176
G1 X120.385 Y110.507 E9.88864
G1 X81.183 Y110.506 E11.84444
G1 X80.679 Y110.466 E11.86966
G1 X80.188 Y110.347 E11.89487
G1 X79.628 Y110.103 E11.92534
G1 X78.072 Y109.238 E12.01416
G1 X77.651 Y108.958 E12.03939
G1 X77.369 Y108.709 E12.05816
G1 X77.139 Y108.48 E12.07435
G1 X76.81 Y108.096 E12.09958
G1 X76.546 Y107.665 E12.12479
G1 X76.353 Y107.198 E12.15
G1 X76.235 Y106.706 E12.17524
G1 X76.197 Y106.212 E12.19996
G1 X76.197 Y94.539 E12.78233
G1 X76.237 Y94.035 E12.80756
G1 X76.356 Y93.544 E12.83276
G1 X76.55 Y93.077 E12.85799
G1 X76.816 Y92.647 E12.88322
G1 X77.104 Y92.307 E12.90545
G1 X78.908 Y90.453 E13.0345
G1 X79.288 Y90.12 E13.05971
G0 F3600 X81.279 Y92.875
;TYPE:SUPPORT
G1 F900 X120.297 Y92.875 E15.00633
G1 X120.413 Y92.991 E15.01451
G1 X120.413 Y107.009 E15.71387
G1 X120.297 Y107.125 E15.72206
G1 X81.279 Y107.125 E17.66867
G1 X80.405 Y106.25 E17.73037
G1 X79.703 Y106.25 E17.7654
G1 X79.587 Y106.134 E17.77358
G1 X79.587 Y102.116 E17.97404
G1 X81.047 Y100.657 E18.07702
G1 X81.047 Y100.093 E18.10515
G1 X79.587 Y98.634 E18.20813
G1 X79.587 Y94.616 E18.40859
G1 X79.703 Y94.5 E18.41677
G1 X80.764 Y94.5 E18.46971
G1 X81.163 Y94.101 E18.49786
G1 X81.163 Y92.991 E18.55324
G1 X81.279 Y92.875 E18.56142
G0 F3600 X110.217 Y100.596
G1 F900 X110.965 Y102.193 E18.6494
G1 X110.965 Y102.339 E18.65668
G1 X111.565 Y103.042 E18.7028
G1 X111.941 Y103.392 E18.72842
G1 X112.322 Y103.67 E18.75195
G1 X112.737 Y103.9 E18.77562
G1 X113.197 Y104.082 E18.80031
G1 X113.69 Y104.211 E18.82573
G1 X114.155 Y104.268 E18.8491
G1 X114.66 Y104.269 E18.8743
G1 X115.13 Y104.21 E18.89793
G1 X115.609 Y104.089 E18.92258
G1 X116.068 Y103.91 E18.94716
G1 X116.925 Y103.438 E18.99597
G1 X117.561 Y102.68 E19.04533
G1 X117.833 Y102.257 E19.07042
G1 X118.037 Y101.817 E19.09462
G1 X118.192 Y101.348 E19.11926
G1 X118.282 Y100.875 E19.14328
G1 X118.314 Y100.357 E19.16918
G1 X118.284 Y99.886 E19.19272
G1 X118.2 Y99.43 E19.21586
G1 X117.956 Y98.69 E19.25473
G1 X117.576 Y98.09 E19.29016
G1 X117.257 Y97.703 E19.31518
G1 X117.111 Y97.568 E19.3251
G1 X116.903 Y97.372 E19.33936
G1 X116.496 Y97.074 E19.36453
G1 X116.079 Y96.847 E19.38822
G1 X115.627 Y96.663 E19.41256
G1 X115.148 Y96.543 E19.4372
G1 X114.672 Y96.481 E19.46115
G1 X114.173 Y96.481 E19.48604
G1 X113.693 Y96.54 E19.51017
G1 X113.601 Y96.564 E19.51491
G1 X113.321 Y96.564 E19.52888
G1 X112.423 Y97.009 E19.57888
G1 X111.927 Y97.367 E19.6094
G1 X111.577 Y97.695 E19.63333
G1 X111.254 Y98.082 E19.65848
G1 X111.003 Y98.477 E19.68183
G1 X110.792 Y98.92 E19.70631
G1 X110.217 Y100.596 E19.79471
G0 F3600 X112 Y103.634
G1 F900 X112 Y106.965 E19.96089
G0 F3600 X112.587 Y104
G1 F900 X79.747 Y104 E21.59929
G0 F3600 X80 Y101.928
G1 F900 X80 Y106.09 E21.80693
G0 F3600 X80 Y98.821
G1 F900 X80 Y94.66 E22.01452
G0 F3600 X79.747 Y96
G1 F900 X120.253 Y96 E24.03538
G0 F3600 X120 Y93.035
G1 F900 X120 Y106.965 E24.73035
G0 F3600 X120.253 Y104
G1 F900 X116.238 Y104 E24.93066
G1 F3000 E16.93066
G0 F3600 X114.171 Y104.032
G0 X113.271 Y103.858
G0 X112.445 Y103.467
G0 X111.737 Y102.88
G0 X111.219 Y102.168
G0 X110.86 Y101.276
G0 X110.748 Y100.368
G0 X110.864 Y99.457
G0 X111.056 Y98.974
G0 X112 Y97.117
G1 F3000 E24.93066
G1 F900 X112 Y93.035 E25.13431
G0 F3600 X104 Y93.035
G1 F900 X104 Y106.965 E25.82928
G0 F3600 X96 Y106.965
G1 F900 X96 Y93.035 E26.52425
G0 F3600 X88 Y93.035
G1 F900 X88 Y106.965 E27.21922
G1 F3000 E19.21922
G0 F3600 X110.773 Y99.965
G0 X111.655 Y100.021
G0 X112.747 Y99.459
G0 X112.834 Y99.507
;TYPE:WALL-OUTER
G1 F3000 E27.21922
G1 F900 X112.739 Y99.713 E27.23054
G1 X112.669 Y99.927 E27.24177
G1 X112.626 Y100.149 E27.25305
G1 X112.613 Y100.375 E27.26435
G1 X112.626 Y100.601 E27.27564
G1 X112.669 Y100.823 E27.28692
G1 X112.739 Y101.037 E27.29815
G1 X112.834 Y101.243 E27.30947
G1 X112.956 Y101.433 E27.32074
G1 X113.1 Y101.607 E27.33201
G1 X113.265 Y101.762 E27.3433
G1 X113.447 Y101.895 E27.35455
G1 X113.646 Y102.004 E27.36587
G1 X113.856 Y102.088 E27.37715
G1 X114.076 Y102.144 E27.38848
G1 X114.299 Y102.172 E27.39969
G1 X114.526 Y102.172 E27.41101
G1 X114.749 Y102.144 E27.42223
G1 X114.969 Y102.088 E27.43355
G1 X115.179 Y102.004 E27.44484
G1 X115.378 Y101.895 E27.45616
G1 X115.56 Y101.762 E27.4674
G1 X115.725 Y101.607 E27.4787
G1 X115.869 Y101.433 E27.48996
G1 X115.991 Y101.243 E27.50123
G1 X116.086 Y101.037 E27.51255
G1 X116.156 Y100.823 E27.52378
G1 X116.199 Y100.601 E27.53506
G1 X116.213 Y100.375 E27.54636
G1 X116.199 Y100.149 E27.55766
G1 X116.156 Y99.927 E27.56894
G1 X116.086 Y99.713 E27.58017
G1 X115.991 Y99.507 E27.59149
G1 X115.869 Y99.317 E27.60275
G1 X115.725 Y99.143 E27.61402
G1 X115.56 Y98.988 E27.62532
G1 X115.378 Y98.855 E27.63656
G1 X115.179 Y98.746 E27.64788
G1 X114.969 Y98.662 E27.65917
G1 X114.749 Y98.606 E27.67049
G1 X114.526 Y98.578 E27.6817
G1 X114.299 Y98.578 E27.69303
G1 X114.076 Y98.606 E27.70424
G1 X113.856 Y98.662 E27.71557
G1 X113.646 Y98.746 E27.72685
G1 X113.447 Y98.855 E27.73817
G1 X113.265 Y98.988 E27.74942
G1 X113.1 Y99.143 E27.76071
G1 X112.956 Y99.317 E27.77198
G1 X112.834 Y99.507 E27.78325
G0 F3600 X112.75 Y99.689
G0 X112.659 Y99.648
G0 X113.128 Y99.09
G0 X114.914 Y97.722
G0 X114.932 Y97.624
G1 F900 X115.279 Y97.713 E27.80112
G1 X115.609 Y97.844 E27.81883
G1 X115.911 Y98.01 E27.83602
G1 X116.195 Y98.216 E27.85353
G1 X116.452 Y98.458 E27.87114
G1 X116.679 Y98.731 E27.88885
G1 X116.866 Y99.027 E27.90632
G1 X117.016 Y99.346 E27.92391
G1 X117.125 Y99.68 E27.94144
G1 X117.189 Y100.018 E27.9586
G1 X117.212 Y100.375 E27.97645
G1 X117.189 Y100.732 E27.99429
G1 X117.125 Y101.07 E28.01146
G1 X117.016 Y101.404 E28.02898
G1 X116.866 Y101.723 E28.04657
G1 X116.679 Y102.019 E28.06404
G1 X116.452 Y102.292 E28.08175
G1 X116.195 Y102.534 E28.09936
G1 X115.911 Y102.74 E28.11687
G1 X115.609 Y102.906 E28.13406
G1 X115.279 Y103.037 E28.15177
G1 X114.932 Y103.126 E28.16965
G1 X114.592 Y103.169 E28.18674
G1 X114.233 Y103.169 E28.20465
G1 X113.893 Y103.126 E28.22175
G1 X113.546 Y103.037 E28.23962
G1 X113.216 Y102.906 E28.25734
G1 X112.914 Y102.74 E28.27453
G1 X112.63 Y102.534 E28.29203
G1 X112.373 Y102.292 E28.30965
G1 X112.146 Y102.019 E28.32736
G1 X111.979 Y101.754 E28.34299
G1 X111.809 Y101.404 E28.3624
G1 X111.7 Y101.07 E28.37993
G1 X111.636 Y100.731 E28.39714
G1 X111.614 Y100.375 E28.41493
G1 X111.636 Y100.019 E28.43273
G1 X111.7 Y99.68 E28.44994
G1 X111.809 Y99.346 E28.46747
G1 X111.959 Y99.027 E28.48505
G1 X112.146 Y98.731 E28.50252
G1 X112.373 Y98.458 E28.52024
G1 X112.63 Y98.216 E28.53785
G1 X112.914 Y98.01 E28.55535
G1 X113.216 Y97.844 E28.57254
G1 X113.546 Y97.713 E28.59026
G1 X113.893 Y97.624 E28.60813
G1 X114.233 Y97.581 E28.62523
G1 X114.592 Y97.581 E28.64314
G1 X114.932 Y97.624 E28.66024
G0 F3600 X115.125 Y97.673
G0 X115.156 Y98.084
;TYPE:SKIN
G1 F900 X115.451 Y98.201 E28.67607
G1 X115.7 Y98.338 E28.69025
G1 X115.945 Y98.516 E28.70536
G1 X116.167 Y98.725 E28.72057
G1 X116.362 Y98.959 E28.73576
G1 X116.524 Y99.215 E28.75088
G1 X116.655 Y99.497 E28.76639
G1 X116.744 Y99.766 E28.78053
G1 X116.801 Y100.066 E28.79576
G1 X116.82 Y100.375 E28.81121
G1 X116.801 Y100.684 E28.82665
G1 X116.744 Y100.984 E28.84189
G1 X116.655 Y101.253 E28.85602
G1 X116.524 Y101.535 E28.87154
G1 X116.362 Y101.791 E28.88665
G1 X116.167 Y102.025 E28.90185
G1 X115.945 Y102.234 E28.91706
G1 X115.7 Y102.412 E28.93217
G1 X115.451 Y102.549 E28.94635
G1 X115.156 Y102.666 E28.96218
G1 X114.849 Y102.744 E28.97798
G1 X114.575 Y102.779 E28.99176
G1 X114.25 Y102.779 E29.00798
G1 X113.976 Y102.744 E29.02176
G1 X113.669 Y102.666 E29.03756
G1 X113.374 Y102.549 E29.05339
G1 X113.125 Y102.412 E29.06757
G1 X112.88 Y102.234 E29.08268
G1 X112.658 Y102.025 E29.09789
G1 X112.463 Y101.791 E29.11309
G1 X112.321 Y101.564 E29.12645
G1 X112.169 Y101.253 E29.14372
G1 X112.081 Y100.984 E29.15784
G1 X112.024 Y100.682 E29.17317
G1 X112.006 Y100.375 E29.18851
G1 X112.024 Y100.068 E29.20386
G1 X112.081 Y99.766 E29.21919
G1 X112.17 Y99.497 E29.23332
G1 X112.301 Y99.215 E29.24884
G1 X112.463 Y98.959 E29.26395
G1 X112.658 Y98.725 E29.27915
G1 X112.88 Y98.516 E29.29436
G1 X113.125 Y98.338 E29.30947
G1 X113.374 Y98.201 E29.32365
G1 X113.669 Y98.084 E29.33948
G1 X113.976 Y98.006 E29.35528
G1 X114.25 Y97.971 E29.36906
G1 X114.575 Y97.971 E29.38528
G1 X114.849 Y98.006 E29.39906
G1 X115.156 Y98.084 E29.41486
G0 F3600 X115.09 Y98.29
G1 F900 X114.821 Y98.222 E29.4287
G1 X114.551 Y98.188 E29.44228
G1 X114.274 Y98.188 E29.4561
G1 X114.004 Y98.222 E29.46968
G1 X113.735 Y98.29 E29.48352
G1 X113.48 Y98.393 E29.49724
G1 X113.238 Y98.525 E29.51099
G1 X113.016 Y98.687 E29.5247
G1 X112.815 Y98.876 E29.53847
G1 X112.64 Y99.087 E29.55215
G1 X112.491 Y99.32 E29.56594
G1 X112.376 Y99.57 E29.57967
G1 X112.291 Y99.829 E29.59327
G1 X112.238 Y100.1 E29.60705
G1 X112.223 Y100.375 E29.62079
G1 X112.238 Y100.65 E29.63453
G1 X112.291 Y100.921 E29.64831
G1 X112.376 Y101.18 E29.66191
G1 X112.491 Y101.43 E29.67563
G1 X112.64 Y101.663 E29.68943
G1 X112.815 Y101.874 E29.70311
G1 X113.016 Y102.063 E29.71687
G1 X113.238 Y102.225 E29.73058
G1 X113.48 Y102.357 E29.74434
G1 X113.735 Y102.46 E29.75806
G1 X114.004 Y102.528 E29.7719
G1 X114.274 Y102.562 E29.78548
G1 X114.551 Y102.562 E29.7993
G1 X114.821 Y102.528 E29.81287
G1 X115.09 Y102.46 E29.82672
G1 X115.345 Y102.357 E29.84044
G1 X115.587 Y102.225 E29.85419
G1 X115.809 Y102.063 E29.8679
G1 X116.01 Y101.874 E29.88167
G1 X116.185 Y101.663 E29.89534
G1 X116.334 Y101.43 E29.90914
G1 X116.449 Y101.18 E29.92287
G1 X116.534 Y100.921 E29.93647
G1 X116.587 Y100.65 E29.95024
G1 X116.603 Y100.375 E29.96399
G1 X116.587 Y100.1 E29.97773
G1 X116.534 Y99.829 E29.99151
G1 X116.449 Y99.57 E30.00511
G1 X116.334 Y99.32 E30.01884
G1 X116.185 Y99.087 E30.03263
G1 X116.01 Y98.876 E30.04631
G1 X115.809 Y98.687 E30.06007
G1 X115.587 Y98.525 E30.07379
G1 X115.345 Y98.393 E30.08754
G1 X115.09 Y98.29 E30.10126
G0 F3600 X115.092 Y98.282
G1 F3000 E22.10126
G0 F3600 X112.387 Y98.471
G0 X111.71 Y97.906
G0 X81.279 Y92.875
;TIME_ELAPSED:52.098162
;LAYER:1
M140 S90
G0 F5400 X81.279 Y92.875 Z0.5
;TYPE:SUPPORT
G1 F3000 E30.10126
G1 F1350 X120.297 Y92.875 E31.399
G1 X120.413 Y92.991 E31.40446
G1 X120.413 Y107.009 E31.8707
G1 X120.297 Y107.125 E31.87616
G1 X81.279 Y107.125 E33.1739
G1 X80.405 Y106.25 E33.21503
G1 X79.703 Y106.25 E33.23838
G1 X79.587 Y106.134 E33.24384
G1 X79.587 Y102.116 E33.37748
G1 X81.047 Y100.657 E33.44613
G1 X81.047 Y100.093 E33.46489
G1 X79.587 Y98.634 E33.53354
G1 X79.587 Y94.616 E33.66718
G1 X79.703 Y94.5 E33.67263
G1 X80.764 Y94.5 E33.70792
G1 X81.163 Y94.101 E33.72669
G1 X81.163 Y92.991 E33.76361
G1 X81.279 Y92.875 E33.76906
G0 F5400 X111.578 Y97.695
G1 F1350 X111.257 Y98.078 E33.78569
G1 X110.998 Y98.489 E33.80184
G1 X110.793 Y98.916 E33.8176
G1 X110.217 Y100.597 E33.8767
G1 X110.965 Y102.195 E33.93538
G1 X110.965 Y102.208 E33.93582
G1 X111.249 Y102.659 E33.95354
G1 X111.565 Y103.042 E33.97006
G1 X111.922 Y103.378 E33.98636
G1 X112.324 Y103.673 E34.00295
G1 X112.735 Y103.898 E34.01853
G1 X113.2 Y104.083 E34.03518
G1 X113.683 Y104.209 E34.05178
G1 X113.909 Y104.237 E34.05935
G1 X114.155 Y104.268 E34.0676
G1 X114.662 Y104.269 E34.08446
G1 X115.131 Y104.21 E34.10018
G1 X115.609 Y104.09 E34.11658
G1 X116.068 Y103.909 E34.13299
G1 X116.268 Y103.799 E34.14058
G1 X116.353 Y103.799 E34.14341
G1 X116.794 Y103.594 E34.15958
G1 X117.557 Y102.689 E34.19895
G1 X117.814 Y102.282 E34.21496
G1 X118.037 Y101.817 E34.23211
G1 X118.184 Y101.388 E34.2472
G1 X118.282 Y100.88 E34.2644
G1 X118.313 Y100.389 E34.28077
G1 X118.284 Y99.889 E34.29743
G1 X118.182 Y99.377 E34.31479
G1 X117.959 Y98.695 E34.33865
G1 X117.577 Y98.091 E34.36242
G1 X117.345 Y97.811 E34.37452
G1 X117.351 Y97.798 E34.37499
G1 X116.905 Y97.374 E34.39546
G1 X116.508 Y97.083 E34.41183
G1 X116.085 Y96.85 E34.4279
G1 X115.63 Y96.663 E34.44426
G1 X115.146 Y96.543 E34.46084
G1 X114.669 Y96.481 E34.47684
G1 X114.172 Y96.481 E34.49337
G1 X113.683 Y96.543 E34.50977
G1 X113.601 Y96.564 E34.51258
G1 X113.322 Y96.564 E34.52186
G1 X112.423 Y97.01 E34.55524
G1 X111.925 Y97.368 E34.57564
G1 X111.578 Y97.695 E34.5915
G0 F5400 X112 Y97.118
G1 F1350 X112 Y93.035 E34.7273
G0 F5400 X104 Y93.035
G1 F1350 X104 Y106.965 E35.19061
G0 F5400 X96 Y106.965
G1 F1350 X96 Y93.035 E35.65393
G0 F5400 X88 Y93.035
G1 F1350 X88 Y106.965 E36.11724
G0 F5400 X80 Y106.09
G1 F1350 X80 Y101.928 E36.25567
G0 F5400 X79.747 Y104
G1 F1350 X112.589 Y104 E37.348
G0 F5400 X112 Y103.634
G1 F1350 X112 Y106.965 E37.45879
G0 F5400 X116.235 Y104
G1 F1350 X120.253 Y104 E37.59243
G0 F5400 X120 Y106.965
G1 F1350 X120 Y93.035 E38.05574
G0 F5400 X120.253 Y96
G1 F1350 X79.747 Y96 E39.40297
G0 F5400 X80 Y94.66
G1 F1350 X80 Y98.821 E39.54137
G1 F3000 E31.54137
G0 F5400 X110.773 Y99.965
G0 X111.655 Y100.021
G0 X112.747 Y99.459
G0 X112.834 Y99.507
;TYPE:WALL-OUTER
G1 F3000 E39.54137
G1 F900 X112.739 Y99.713 E39.54892
G1 X112.669 Y99.927 E39.5564
G1 X112.626 Y100.149 E39.56393
G1 X112.613 Y100.375 E39.57145
G1 X112.626 Y100.601 E39.57898
G1 X112.669 Y100.823 E39.5865
G1 X112.739 Y101.037 E39.59399
G1 X112.834 Y101.243 E39.60154
G1 X112.956 Y101.433 E39.60905
G1 X113.1 Y101.607 E39.61656
G1 X113.265 Y101.762 E39.62409
G1 X113.447 Y101.895 E39.63159
G1 X113.646 Y102.004 E39.63913
G1 X113.856 Y102.088 E39.64666
G1 X114.076 Y102.144 E39.65421
G1 X114.299 Y102.172 E39.66168
G1 X114.526 Y102.172 E39.66923
G1 X114.749 Y102.144 E39.67671
G1 X114.969 Y102.088 E39.68426
G1 X115.179 Y102.004 E39.69178
G1 X115.378 Y101.895 E39.69933
G1 X115.56 Y101.762 E39.70683
G1 X115.725 Y101.607 E39.71435
G1 X115.869 Y101.433 E39.72187
G1 X115.991 Y101.243 E39.72938
G1 X116.086 Y101.037 E39.73692
G1 X116.156 Y100.823 E39.74441
