;FLAVOR:Marlin
;TIME:1599
;Filament used: 0.658412m
;Layer height: 0.15












;POSTPROCESSED
;ChangeAtZ instances: 1
;Generated with Cura_SteamEngine master
M140 S70
M105
M190 S70
M104 S215
M105
M109 S215
M82 ;absolute extrusion mode

G92 E0
G1 F900 E-2
;LAYER_COUNT:106












;LAYER:0
M107
G0 F2400 X124.328 Y91.69 Z0.3
;TYPE:SKIRT
G1 F900 E0
G1 F600 X124.915 Y90.933 E0.04779
G1 X125.292 Y90.512 E0.07599
G1 X125.607 Y90.237 E0.09685
G1 X126.586 Y89.469 E0.15893
G1 X127.297 Y89.023 E0.2008
G1 X127.855 Y88.75 E0.23179
G1 X128.434 Y88.521 E0.26285
G1 X129.199 Y88.285 E0.30279
G1 X129.824 Y88.146 E0.33474
G1 X130.432 Y88.061 E0.36537
G1 X130.982 Y88.022 E0.39287
G1 X142.795 Y88.01 E0.98223
G1 X143.359 Y88.049 E1.01043
G1 X143.912 Y88.168 E1.03865
G1 X144.442 Y88.363 E1.06683
G1 X144.94 Y88.631 E1.09504
G1 X145.395 Y88.967 E1.12326
G1 X145.798 Y89.363 E1.15145
G1 X146.141 Y89.812 E1.17964
G1 X146.418 Y90.305 E1.20785
G1 X146.622 Y90.833 E1.23609
G1 X146.75 Y91.383 E1.26426
G1 X146.799 Y92.01 E1.29564
G1 X146.799 Y107.991 E2.09294
G1 X146.759 Y108.555 E2.12114
G1 X146.64 Y109.108 E2.14937
G1 X146.444 Y109.638 E2.17756
G1 X146.176 Y110.135 E2.20573
G1 X145.84 Y110.59 E2.23395
G1 X145.443 Y110.993 E2.26217
G1 X144.993 Y111.335 E2.29037
G1 X144.5 Y111.611 E2.31856
G1 X143.972 Y111.815 E2.3468
G1 X143.422 Y111.942 E2.37496
G1 X142.799 Y111.991 E2.40614
G1 X126.817 Y111.991 E3.20348
G1 X126.253 Y111.951 E3.23169
G1 X125.7 Y111.832 E3.25991
G1 X125.17 Y111.636 E3.2881
G1 X124.673 Y111.368 E3.31627
G1 X124.218 Y111.032 E3.34449
G1 X123.815 Y110.635 E3.37271
G1 X123.473 Y110.185 E3.40091
G1 X123.197 Y109.692 E3.4291
G1 X122.993 Y109.164 E3.45734
G1 X122.866 Y108.614 E3.4855
G1 X122.817 Y107.989 E3.51678
G1 X122.822 Y96.341 E4.0979
G1 X122.884 Y95.644 E4.13281
G1 X123.107 Y94.388 E4.19645
G1 X123.245 Y93.839 E4.2247
G1 X123.424 Y93.387 E4.24895
G1 X123.868 Y92.441 E4.30109
G1 X124.144 Y91.948 E4.32927
G1 X124.328 Y91.69 E4.34508
G0 F2400 X124.644 Y91.935
G1 F600 X125.231 Y91.178 E4.39287
G1 X125.59 Y90.78 E4.41961
G1 X125.854 Y90.552 E4.43702
G1 X126.833 Y89.784 E4.4991
G1 X127.473 Y89.382 E4.5368
G1 X128.031 Y89.109 E4.56779
G1 X128.552 Y88.903 E4.59574
G1 X129.317 Y88.667 E4.63569
G1 X129.88 Y88.542 E4.66446
G1 X130.488 Y88.457 E4.69509
G1 X130.982 Y88.422 E4.71979
G1 X142.795 Y88.41 E5.30915
G1 X143.33 Y88.449 E5.33591
G1 X143.853 Y88.568 E5.36267
G1 X144.353 Y88.763 E5.38944
G1 X144.818 Y89.029 E5.41617
G1 X145.238 Y89.362 E5.44291
G1 X145.605 Y89.754 E5.4697
G1 X145.909 Y90.196 E5.49646
G1 X146.144 Y90.678 E5.52322
G1 X146.304 Y91.19 E5.54998
G1 X146.387 Y91.72 E5.57674
G1 X146.399 Y92.01 E5.59122
G1 X146.399 Y107.991 E6.38852
G1 X146.359 Y108.526 E6.41529
G1 X146.24 Y109.049 E6.44204
G1 X146.045 Y109.548 E6.46877
G1 X145.777 Y110.013 E6.49555
G1 X145.444 Y110.433 E6.52229
G1 X145.052 Y110.799 E6.54905
G1 X144.61 Y111.102 E6.57578
G1 X144.127 Y111.337 E6.60258
G1 X143.616 Y111.497 E6.62929
G1 X143.086 Y111.58 E6.65606
G1 X142.799 Y111.591 E6.67039
G1 X126.817 Y111.591 E7.46773
G1 X126.282 Y111.551 E7.4945
G1 X125.759 Y111.432 E7.52126
G1 X125.26 Y111.237 E7.54799
G1 X124.795 Y110.969 E7.57476
G1 X124.375 Y110.636 E7.6015
G1 X124.009 Y110.244 E7.62826
G1 X123.706 Y109.802 E7.65499
G1 X123.471 Y109.319 E7.68179
G1 X123.311 Y108.808 E7.70851
G1 X123.228 Y108.278 E7.73527
G1 X123.217 Y107.989 E7.7497
G1 X123.222 Y96.341 E8.33082
G1 X123.277 Y95.714 E8.36222
G1 X123.5 Y94.458 E8.42586
G1 X123.633 Y93.938 E8.45264
G1 X123.786 Y93.557 E8.47313
G1 X124.23 Y92.611 E8.52526
G1 X124.644 Y91.935 E8.56481
G0 F2400 X124.96 Y92.18
G1 F600 X125.547 Y91.423 E8.6126
G1 X125.888 Y91.049 E8.63785
G1 X126.101 Y90.866 E8.65186
G1 X127.08 Y90.098 E8.71394
G1 X127.649 Y89.742 E8.74742
G1 X128.207 Y89.469 E8.77842
G1 X128.67 Y89.285 E8.80327
G1 X129.435 Y89.049 E8.84321
G1 X129.935 Y88.938 E8.86877
G1 X130.543 Y88.853 E8.89939
G1 X130.983 Y88.822 E8.9214
G1 X142.796 Y88.81 E9.51075
G1 X143.3 Y88.849 E9.53597
G1 X143.791 Y88.968 E9.56118
G1 X144.258 Y89.162 E9.58641
G1 X144.688 Y89.427 E9.61161
G1 X145.072 Y89.757 E9.63687
G1 X145.398 Y90.143 E9.66207
G1 X145.66 Y90.576 E9.68732
G1 X145.85 Y91.044 E9.71252
G1 X145.964 Y91.537 E9.73777
G1 X145.999 Y92.01 E9.76143
G1 X145.999 Y107.991 E10.55873
G1 X145.959 Y108.495 E10.58395
G1 X145.84 Y108.986 E10.60916
G1 X145.646 Y109.453 E10.63438
G1 X145.38 Y109.883 E10.65961
G1 X145.05 Y110.266 E10.68483
G1 X144.663 Y110.592 E10.71008
G1 X144.23 Y110.853 E10.7353
G1 X143.762 Y111.043 E10.7605
G1 X143.269 Y111.156 E10.78573
G1 X142.799 Y111.191 E10.80925
G1 X126.817 Y111.191 E11.60659
G1 X126.313 Y111.151 E11.63182
G1 X125.822 Y111.032 E11.65702
G1 X125.355 Y110.838 E11.68225
G1 X124.925 Y110.572 E11.70748
G1 X124.542 Y110.242 E11.7327
G1 X124.216 Y109.855 E11.75794
G1 X123.955 Y109.422 E11.78317
G1 X123.765 Y108.954 E11.80837
G1 X123.652 Y108.461 E11.8336
G1 X123.617 Y107.99 E11.85716
G1 X123.622 Y96.342 E12.43828
G1 X123.671 Y95.784 E12.46623
G1 X123.894 Y94.528 E12.52987
G1 X124.022 Y94.038 E12.55514
G1 X124.148 Y93.727 E12.57188
G1 X124.592 Y92.781 E12.62402
G1 X124.96 Y92.18 E12.65917
G1 F900 E10.65917
;MESH:inner_corner.scad
G0 F2400 X126.87 Y93.863
G0 X127.947 Y94.562
G0 X129.102 Y97.759
G0 X129.618 Y98.394
G0 X130.158 Y98.743
G0 X131.052 Y99.088
G0 X131.061 Y98.989
;TYPE:WALL-INNER
G1 F900 E12.65917
G1 F600 X131.322 Y98.999 E12.6722
G1 X131.583 Y98.985 E12.68524
G1 X131.842 Y98.942 E12.69834
G1 X132.092 Y98.873 E12.71128
G1 X132.336 Y98.779 E12.72433
G1 X132.569 Y98.659 E12.7374
G1 X132.787 Y98.516 E12.75041
G1 X132.981 Y98.358 E12.76289
G1 X133.166 Y98.173 E12.77595
G1 X133.331 Y97.971 E12.78896
G1 X133.474 Y97.75 E12.80209
G1 X133.593 Y97.516 E12.81519
G1 X133.686 Y97.273 E12.82817
G1 X133.755 Y97.021 E12.8412
G1 X133.795 Y96.761 E12.85433
G1 X133.808 Y96.5 E12.86737
G1 X133.795 Y96.239 E12.8804
G1 X133.755 Y95.979 E12.89353
G1 X133.686 Y95.727 E12.90656
G1 X133.593 Y95.484 E12.91954
G1 X133.474 Y95.25 E12.93264
G1 X133.331 Y95.029 E12.94577
G1 X133.166 Y94.827 E12.95879
G1 X132.981 Y94.642 E12.97184
G1 X132.778 Y94.477 E12.98489
G1 X132.559 Y94.335 E12.99791
G1 X132.327 Y94.216 E13.01092
G1 X132.08 Y94.121 E13.02412
G1 X131.828 Y94.054 E13.03713
G1 X131.57 Y94.013 E13.05016
G1 X131.308 Y93.999 E13.06325
G1 X131.047 Y94.013 E13.07629
G1 X130.788 Y94.054 E13.08938
G1 X130.536 Y94.121 E13.10239
G1 X130.289 Y94.216 E13.11559
G1 X130.057 Y94.335 E13.1286
G1 X129.838 Y94.477 E13.14162
G1 X129.635 Y94.642 E13.15467
G1 X129.45 Y94.827 E13.16772
G1 X129.285 Y95.03 E13.18077
G1 X129.143 Y95.249 E13.1938
G1 X129.024 Y95.481 E13.2068
G1 X128.929 Y95.728 E13.22001
G1 X128.862 Y95.982 E13.23311
G1 X128.822 Y96.238 E13.24604
G1 X128.807 Y96.5 E13.25913
G1 X128.821 Y96.749 E13.27157
G1 X128.858 Y97.004 E13.28443
G1 X128.924 Y97.257 E13.29747
G1 X129.017 Y97.505 E13.31069
G1 X129.136 Y97.74 E13.32383
G1 X129.278 Y97.959 E13.33685
G1 X129.442 Y98.163 E13.34991
G1 X129.644 Y98.365 E13.36416
G1 X129.848 Y98.529 E13.37722
G1 X130.067 Y98.671 E13.39024
G1 X130.302 Y98.79 E13.40338
G1 X130.55 Y98.883 E13.4166
G1 X130.801 Y98.948 E13.42953
G1 X131.061 Y98.989 E13.44267
G0 F2400 X131.052 Y99.088
G0 X142.138 Y107.33
G0 X142.208 Y107.4
G1 F600 X127.408 Y107.4 E14.18104
G1 X127.408 Y96.511 E14.7243
G1 X127.43 Y96.096 E14.74503
G1 X127.495 Y95.683 E14.76589
G1 X127.598 Y95.3 E14.78567
G1 X127.748 Y94.91 E14.80652
G1 X127.93 Y94.552 E14.82656
G1 X128.153 Y94.21 E14.84693
G1 X128.414 Y93.887 E14.86764
G1 X128.696 Y93.605 E14.88754
G1 X129.011 Y93.35 E14.90776
G1 X129.367 Y93.119 E14.92893
G1 X129.721 Y92.938 E14.94877
G1 X130.106 Y92.79 E14.96935
G1 X130.493 Y92.687 E14.98933
G1 X130.904 Y92.622 E15.01009
G1 X131.321 Y92.6 E15.03092
G1 X142.208 Y92.6 E15.57407
G1 X142.208 Y107.4 E16.31245
G0 F2400 X142.608 Y107.8
;TYPE:WALL-OUTER
G1 F600 X127.008 Y107.8 E17.09074
G1 X127.008 Y96.511 E17.65395
G1 X127.032 Y96.052 E17.67688
G1 X127.103 Y95.601 E17.69965
G1 X127.217 Y95.176 E17.72161
G1 X127.382 Y94.747 E17.74454
G1 X127.583 Y94.353 E17.76661
G1 X127.829 Y93.975 E17.78911
G1 X128.12 Y93.615 E17.8122
G1 X128.428 Y93.307 E17.83393
G1 X128.777 Y93.024 E17.85635
G1 X129.161 Y92.775 E17.87918
G1 X129.555 Y92.574 E17.90125
G1 X129.985 Y92.409 E17.92423
G1 X130.41 Y92.295 E17.94618
G1 X130.86 Y92.224 E17.96891
G1 X131.319 Y92.2 E17.99184
G1 X142.608 Y92.2 E18.55505
G1 X142.608 Y107.8 E19.33334
G0 F2400 X142.408 Y107.8
G0 X142.138 Y107.33
G0 X131.081 Y99.089
G0 X131.1 Y98.59
G1 F600 X131.319 Y98.599 E19.34427
G1 X131.539 Y98.587 E19.35526
G1 X131.756 Y98.551 E19.36624
G1 X131.967 Y98.493 E19.37715
G1 X132.172 Y98.414 E19.38812
G1 X132.367 Y98.313 E19.39907
G1 X132.551 Y98.193 E19.41003
G1 X132.713 Y98.061 E19.42046
G1 X132.869 Y97.905 E19.43146
G1 X133.007 Y97.735 E19.44239
G1 X133.127 Y97.55 E19.45339
G1 X133.227 Y97.354 E19.46437
G1 X133.305 Y97.149 E19.47531
G1 X133.363 Y96.937 E19.48627
G1 X133.397 Y96.72 E19.49723
G1 X133.408 Y96.5 E19.50822
G1 X133.397 Y96.28 E19.51921
G1 X133.363 Y96.063 E19.53017
G1 X133.305 Y95.851 E19.54114
G1 X133.227 Y95.646 E19.55208
G1 X133.127 Y95.45 E19.56306
G1 X133.007 Y95.265 E19.57406
G1 X132.869 Y95.095 E19.58498
G1 X132.713 Y94.939 E19.59599
G1 X132.543 Y94.801 E19.60691
G1 X132.358 Y94.682 E19.61789
G1 X132.163 Y94.581 E19.62884
G1 X131.957 Y94.502 E19.63985
G1 X131.745 Y94.446 E19.65079
G1 X131.528 Y94.411 E19.66176
G1 X131.308 Y94.4 E19.67274
G1 X131.089 Y94.411 E19.68368
G1 X130.871 Y94.446 E19.6947
G1 X130.659 Y94.502 E19.70564
G1 X130.453 Y94.581 E19.71665
G1 X130.258 Y94.682 E19.7276
G1 X130.073 Y94.801 E19.73858
G1 X129.903 Y94.939 E19.7495
G1 X129.747 Y95.095 E19.76051
G1 X129.609 Y95.265 E19.77143
G1 X129.49 Y95.45 E19.78241
G1 X129.389 Y95.645 E19.79336
G1 X129.31 Y95.851 E19.80437
G1 X129.254 Y96.064 E19.81536
G1 X129.22 Y96.28 E19.82627
G1 X129.208 Y96.5 E19.83726
G1 X129.219 Y96.709 E19.8477
G1 X129.251 Y96.924 E19.85854
G1 X129.306 Y97.136 E19.86947
G1 X129.384 Y97.344 E19.88055
G1 X129.483 Y97.54 E19.89151
G1 X129.603 Y97.725 E19.90251
G1 X129.74 Y97.896 E19.91344
G1 X129.911 Y98.067 E19.92551
G1 X130.082 Y98.204 E19.93644
G1 X130.267 Y98.324 E19.94744
G1 X130.463 Y98.423 E19.95839
G1 X130.671 Y98.501 E19.96948
G1 X130.882 Y98.556 E19.98036
G1 X131.1 Y98.59 E19.99136
G0 F2400 X131.3 Y98.598
G0 X131.325 Y99.389
;TYPE:SKIN
G1 F600 X131.626 Y99.373 E20.0064
G1 X131.926 Y99.324 E20.02157
G1 X132.215 Y99.244 E20.03653
G1 X132.496 Y99.136 E20.05155
G1 X132.766 Y98.996 E20.06672
G1 X133.017 Y98.832 E20.08168
G1 X133.242 Y98.648 E20.09618
G1 X133.456 Y98.435 E20.11124
G1 X133.647 Y98.201 E20.12631
G1 X133.813 Y97.945 E20.14153
G1 X133.95 Y97.674 E20.15668
G1 X134.057 Y97.394 E20.17164
G1 X134.137 Y97.103 E20.1867
G1 X134.183 Y96.8 E20.20199
G1 X134.198 Y96.5 E20.21697
G1 X134.183 Y96.2 E20.23196
G1 X134.137 Y95.897 E20.24725
G1 X134.057 Y95.606 E20.2623
G1 X133.95 Y95.326 E20.27726
G1 X133.813 Y95.055 E20.29241
G1 X133.647 Y94.799 E20.30763
G1 X133.456 Y94.565 E20.3227
G1 X133.242 Y94.352 E20.33776
G1 X133.008 Y94.161 E20.35283
G1 X132.754 Y93.997 E20.36792
G1 X132.487 Y93.859 E20.38291
G1 X132.201 Y93.749 E20.3982
G1 X131.908 Y93.672 E20.41331
G1 X131.611 Y93.625 E20.42831
G1 X131.308 Y93.609 E20.44345
G1 X131.006 Y93.625 E20.45854
G1 X130.708 Y93.672 E20.47359
G1 X130.415 Y93.749 E20.48871
G1 X130.129 Y93.859 E20.50399
G1 X129.862 Y93.997 E20.51899
G1 X129.608 Y94.161 E20.53407
G1 X129.374 Y94.352 E20.54914
G1 X129.16 Y94.566 E20.56424
G1 X128.969 Y94.8 E20.57931
G1 X128.805 Y95.054 E20.59439
G1 X128.667 Y95.321 E20.60939
G1 X128.557 Y95.608 E20.62472
G1 X128.48 Y95.902 E20.63989
G1 X128.434 Y96.197 E20.65478
G1 X128.417 Y96.5 E20.66992
G1 X128.433 Y96.788 E20.68431
G1 X128.475 Y97.082 E20.69913
G1 X128.552 Y97.375 E20.71424
G1 X128.66 Y97.662 E20.72954
G1 X128.797 Y97.935 E20.74478
G1 X128.962 Y98.188 E20.75985
G1 X129.151 Y98.424 E20.77493
G1 X129.383 Y98.656 E20.7913
G1 X129.619 Y98.845 E20.80639
G1 X129.872 Y99.01 E20.82146
G1 X130.145 Y99.147 E20.8367
G1 X130.433 Y99.255 E20.85204
G1 X130.721 Y99.33 E20.86689
G1 X131.024 Y99.377 E20.88219
G1 X131.325 Y99.389 E20.89721
G0 F2400 X129.825 Y98.561
G0 X127.798 Y96.532
G1 F600 X127.818 Y96.139 E20.91685
G1 X127.88 Y95.75 E20.9365
G1 X127.967 Y95.427 E20.95319
G1 X128.106 Y95.064 E20.97258
G1 X128.265 Y94.753 E20.99001
G1 X128.468 Y94.441 E21.00858
G1 X128.714 Y94.137 E21.02809
G1 X128.951 Y93.9 E21.04481
G1 X129.24 Y93.666 E21.06336
G1 X129.563 Y93.456 E21.08258
G1 X129.877 Y93.296 E21.10016
G1 X130.227 Y93.161 E21.11888
G1 X130.567 Y93.071 E21.13643
G1 X130.947 Y93.01 E21.15563
G1 X131.342 Y92.99 E21.17536
G1 X141.818 Y92.99 E21.69801
G1 X141.818 Y107.01 E22.39747
G1 X127.798 Y107.01 E23.09693
G1 X127.798 Y96.532 E23.61968
G0 F2400 X128.326 Y106.83
G1 F600 X127.977 Y106.481 E23.6443
G0 F2400 X127.977 Y105.915
G1 F600 X128.892 Y106.83 E23.70886
G0 F2400 X129.457 Y106.83
G1 F600 X127.977 Y105.349 E23.81332
G0 F2400 X127.977 Y104.784
G1 F600 X130.023 Y106.83 E23.95768
G0 F2400 X130.589 Y106.83
G1 F600 X127.977 Y104.218 E24.14197
G0 F2400 X127.977 Y103.652
G1 F600 X131.154 Y106.83 E24.36616
G0 F2400 X131.72 Y106.83
G1 F600 X127.977 Y103.086 E24.63028
G0 F2400 X127.977 Y102.521
G1 F600 X132.286 Y106.83 E24.9343
G0 F2400 X132.851 Y106.83
G1 F600 X127.977 Y101.955 E25.27823
G0 F2400 X127.977 Y101.389
G1 F600 X133.417 Y106.83 E25.66208
G0 F2400 X133.983 Y106.83
G1 F600 X127.977 Y100.824 E26.08584
G0 F2400 X127.977 Y100.258
G1 F600 X134.548 Y106.83 E26.54949
G0 F2400 X135.114 Y106.83
G1 F600 X127.977 Y99.692 E27.05308
G0 F2400 X127.977 Y99.127
G1 F600 X135.68 Y106.83 E27.59657
G0 F2400 X136.246 Y106.83
G1 F600 X127.977 Y98.561 E28.17999
G0 F2400 X127.977 Y97.995
G1 F600 X136.811 Y106.83 E28.80331
G0 F2400 X137.377 Y106.83
G1 F600 X129.582 Y99.035 E29.35329
G1 X129.512 Y98.965
G0 F2400 X128.769 Y98.222
G0 X128.373 Y97.826
G1 F600 X128.149 Y97.036 E29.39127
G1 X128.28 Y95.47 E29.46395
G1 X129.181 Y94.109 E29.53944
G1 X130.251 Y93.481 E29.59682
G1 X131.802 Y93.335 E29.66887
G1 X132.565 Y93.532 E29.70532
G0 F2400 X132.767 Y93.169
G1 F600 X141.637 Y102.039 E30.33114
G0 F2400 X141.637 Y102.605
G1 F600 X133.914 Y94.881 E30.87608
G1 X133.844 Y94.811
G0 F2400 X134.307 Y95.84
G1 F600 X141.637 Y103.171 E31.39328
G0 F2400 X141.637 Y103.736
G1 F600 X134.375 Y96.474 E31.90566
G0 F2400 X134.333 Y96.998
G1 F600 X141.637 Y104.302 E32.42099
G0 F2400 X141.637 Y104.868
G1 F600 X134.224 Y97.454 E32.94406
G0 F2400 X134.058 Y97.855
G1 F600 X141.637 Y105.433 E33.47876
G0 F2400 X141.637 Y105.999
G1 F600 X133.851 Y98.213 E34.0281
G0 F2400 X133.606 Y98.533
G1 F600 X141.637 Y106.565 E34.59477
G0 F2400 X141.337 Y106.83
G1 F600 X133.322 Y98.815 E35.16027
G0 F2400 X132.999 Y99.058
G1 F600 X140.771 Y106.83 E35.70863
G0 F2400 X140.205 Y106.83
G1 F600 X132.639 Y99.264 E36.24245
G0 F2400 X132.236 Y99.426
G1 F600 X139.64 Y106.83 E36.76484
G0 F2400 X139.074 Y106.83
G1 F600 X131.775 Y99.531 E37.27983
G0 F2400 X131.244 Y99.566
G1 F600 X138.508 Y106.83 E37.79234
G0 F2400 X137.943 Y106.83
G1 F600 X130.596 Y99.484 E38.31068
G1 X130.526 Y99.414
G0 F2400 X132.352 Y98.815
G0 X133.007 Y98.387
G0 X133.508 Y97.769
G0 X133.794 Y97.029
G0 X133.826 Y96.387
G0 X133.333 Y93.169
G1 F600 X141.637 Y101.474 E38.8966
G0 F2400 X141.637 Y100.908
G1 F600 X133.899 Y93.169 E39.4426
G0 F2400 X134.464 Y93.169
G1 F600 X141.637 Y100.342 E39.94869
G0 F2400 X141.637 Y99.777
G1 F600 X135.03 Y93.169 E40.41489
G0 F2400 X135.596 Y93.169
G1 F600 X141.637 Y99.211 E40.84115
G0 F2400 X141.637 Y98.645
G1 F600 X136.161 Y93.169 E41.22751
G0 F2400 X136.727 Y93.169
G1 F600 X141.637 Y98.079 E41.57393
G0 F2400 X141.637 Y97.514
G1 F600 X137.293 Y93.169 E41.88046
G0 F2400 X137.858 Y93.169
G1 F600 X141.637 Y96.948 E42.14709
G0 F2400 X141.637 Y96.382
G1 F600 X138.424 Y93.169 E42.37379
G0 F2400 X138.99 Y93.169
G1 F600 X141.637 Y95.817 E42.56058
G0 F2400 X141.637 Y95.251
G1 F600 X139.556 Y93.169 E42.70744
G0 F2400 X140.121 Y93.169
G1 F600 X141.637 Y94.685 E42.8144
G0 F2400 X141.637 Y94.12
G1 F600 X140.687 Y93.169 E42.88147
G0 F2400 X141.253 Y93.169
G1 F600 X141.637 Y93.554 E42.9086
;MESH:NONMESH
