;FLAVOR:Marlin
;TIME:6992
;Filament used: 3.82964m
;Layer height: 0.2












;POSTPROCESSED
;ChangeAtZ instances: 1
;Generated with Cura_SteamEngine master
M140 S70
M105
M190 S70
M104 S240
M105
M109 S240
M82 ;absolute extrusion mode

G92 E0
G1 F1800 E-1
;LAYER_COUNT:464












;LAYER:0
M107
G0 F2400 X74.365 Y90.007 Z0.3
;TYPE:SKIRT
G1 F1800 E0
G1 F600 X74.815 Y89.665 E0.0282
G1 X75.308 Y89.389 E0.05639
G1 X75.836 Y89.185 E0.08463
G1 X76.386 Y89.058 E0.11279
G1 X77.009 Y89.009 E0.14397
G1 X122.991 Y89.01 E2.43802
G1 X123.555 Y89.05 E2.46623
G1 X124.108 Y89.169 E2.49445
G1 X124.638 Y89.365 E2.52264
G1 X125.135 Y89.633 E2.55081
G1 X125.59 Y89.969 E2.57903
G1 X125.993 Y90.366 E2.60725
G1 X126.335 Y90.816 E2.63545
G1 X126.611 Y91.309 E2.66364
G1 X126.815 Y91.837 E2.69188
G1 X126.942 Y92.387 E2.72004
G1 X126.991 Y93.01 E2.75122
G1 X126.991 Y106.991 E3.44873
G1 X126.951 Y107.555 E3.47694
G1 X126.832 Y108.108 E3.50516
G1 X126.636 Y108.638 E3.53335
G1 X126.368 Y109.135 E3.56152
G1 X126.032 Y109.59 E3.58974
G1 X125.635 Y109.993 E3.61796
G1 X125.185 Y110.335 E3.64616
G1 X124.692 Y110.611 E3.67435
G1 X124.164 Y110.815 E3.70259
G1 X123.614 Y110.942 E3.73075
G1 X122.991 Y110.991 E3.76193
G1 X77.009 Y110.991 E6.05598
G1 X76.445 Y110.951 E6.08419
G1 X75.892 Y110.832 E6.11241
G1 X75.362 Y110.636 E6.1406
G1 X74.865 Y110.368 E6.16877
G1 X74.41 Y110.032 E6.19699
G1 X74.007 Y109.635 E6.22522
G1 X73.665 Y109.185 E6.25341
G1 X73.389 Y108.692 E6.2816
G1 X73.185 Y108.164 E6.30984
G1 X73.058 Y107.614 E6.338
G1 X73.009 Y106.991 E6.36918
G1 X73.009 Y93.009 E7.06675
G1 X73.049 Y92.445 E7.09495
G1 X73.168 Y91.892 E7.12318
G1 X73.364 Y91.362 E7.15137
G1 X73.632 Y90.865 E7.17954
G1 X73.968 Y90.41 E7.20776
G1 X74.365 Y90.007 E7.23598
G0 F2400 X74.756 Y90.201
G1 F600 X75.198 Y89.898 E7.26272
G1 X75.681 Y89.663 E7.28951
G1 X76.192 Y89.503 E7.31623
G1 X76.722 Y89.42 E7.34299
G1 X77.009 Y89.409 E7.35732
G1 X122.991 Y89.41 E9.65137
G1 X123.526 Y89.45 E9.67814
G1 X124.049 Y89.569 E9.7049
G1 X124.548 Y89.764 E9.73163
G1 X125.013 Y90.032 E9.7584
G1 X125.433 Y90.365 E9.78514
G1 X125.799 Y90.757 E9.8119
G1 X126.102 Y91.199 E9.83863
G1 X126.337 Y91.682 E9.86543
G1 X126.497 Y92.193 E9.89215
G1 X126.58 Y92.723 E9.91891
G1 X126.591 Y93.01 E9.93324
G1 X126.591 Y106.991 E10.63075
G1 X126.551 Y107.526 E10.65752
G1 X126.432 Y108.049 E10.68428
G1 X126.237 Y108.548 E10.71101
G1 X125.969 Y109.013 E10.73778
G1 X125.636 Y109.433 E10.76453
G1 X125.244 Y109.799 E10.79128
G1 X124.802 Y110.102 E10.81802
G1 X124.319 Y110.337 E10.84481
G1 X123.808 Y110.497 E10.87153
G1 X123.278 Y110.58 E10.89829
G1 X122.991 Y110.591 E10.91262
G1 X77.009 Y110.591 E13.20667
G1 X76.474 Y110.551 E13.23344
G1 X75.951 Y110.432 E13.2602
G1 X75.452 Y110.237 E13.28693
G1 X74.987 Y109.969 E13.3137
G1 X74.567 Y109.636 E13.34044
G1 X74.201 Y109.244 E13.3672
G1 X73.898 Y108.802 E13.39394
G1 X73.663 Y108.319 E13.42073
G1 X73.503 Y107.808 E13.44745
G1 X73.42 Y107.278 E13.47421
G1 X73.409 Y106.991 E13.48854
G1 X73.409 Y93.009 E14.18611
G1 X73.449 Y92.474 E14.21287
G1 X73.568 Y91.951 E14.23963
G1 X73.763 Y91.452 E14.26636
G1 X74.031 Y90.987 E14.29314
G1 X74.364 Y90.567 E14.31988
G1 X74.756 Y90.201 E14.34663
G0 F2400 X74.758 Y90.734
G1 F600 X75.145 Y90.408 E14.37188
G1 X75.578 Y90.147 E14.3971
G1 X76.046 Y89.957 E14.4223
G1 X76.539 Y89.844 E14.44753
G1 X77.009 Y89.809 E14.47105
G1 X122.991 Y89.81 E16.7651
G1 X123.495 Y89.85 E16.79032
G1 X123.986 Y89.969 E16.81553
G1 X124.453 Y90.164 E16.84078
G1 X124.883 Y90.429 E16.86598
G1 X125.266 Y90.76 E16.89123
G1 X125.592 Y91.146 E16.91644
G1 X125.853 Y91.579 E16.94166
G1 X126.043 Y92.047 E16.96686
G1 X126.156 Y92.54 E16.99209
G1 X126.191 Y93.01 E17.01561
G1 X126.191 Y106.991 E17.71312
G1 X126.151 Y107.495 E17.73835
G1 X126.032 Y107.986 E17.76355
G1 X125.838 Y108.453 E17.78878
G1 X125.572 Y108.883 E17.81401
G1 X125.242 Y109.266 E17.83923
G1 X124.855 Y109.592 E17.86447
G1 X124.422 Y109.853 E17.8897
G1 X123.954 Y110.043 E17.9149
G1 X123.461 Y110.156 E17.94013
G1 X122.991 Y110.191 E17.96364
G1 X77.009 Y110.191 E20.25769
G1 X76.505 Y110.151 E20.28292
G1 X76.014 Y110.032 E20.30812
G1 X75.547 Y109.838 E20.33335
G1 X75.117 Y109.572 E20.35858
G1 X74.734 Y109.242 E20.3838
G1 X74.408 Y108.855 E20.40905
G1 X74.147 Y108.422 E20.43427
G1 X73.957 Y107.954 E20.45947
G1 X73.844 Y107.461 E20.4847
G1 X73.809 Y106.991 E20.50822
G1 X73.809 Y93.009 E21.20578
G1 X73.849 Y92.505 E21.231
G1 X73.968 Y92.014 E21.25621
G1 X74.162 Y91.547 E21.28144
G1 X74.428 Y91.117 E21.30666
G1 X74.758 Y90.734 E21.33189
G1 F1800 E20.33189
;MESH:Better_Temperature_Tower_v5_240-180.stl
G0 F2400 X77.614 Y92.335
G0 X77.614 Y93.614
G0 X122.33 Y106.33
G0 X122.4 Y106.4
;TYPE:WALL-INNER
G1 F1800 E21.33189
G1 F600 X77.6 Y106.4 E23.56697
G1 X77.6 Y93.6 E24.20556
G1 X122.4 Y93.6 E26.44064
G1 X122.4 Y106.4 E27.07924
G0 F2400 X122.8 Y106.8
;TYPE:WALL-OUTER
G1 F600 X77.2 Y106.8 E29.35423
G1 X77.2 Y93.2 E30.03274
G1 X122.8 Y93.2 E32.30773
G1 X122.8 Y106.8 E32.98624
G0 F2400 X122.6 Y106.8
G0 X122.33 Y106.33
G0 X122.01 Y106.01
;TYPE:SKIN
G1 F600 X77.99 Y106.01 E35.1824
G1 X77.99 Y93.99 E35.78208
G1 X122.01 Y93.99 E37.97825
G1 X122.01 Y106.01 E38.57793
G0 F2400 X121.829 Y94.676
G1 F600 X121.323 Y94.17 E38.61363
G0 F2400 X120.757 Y94.17
G1 F600 X121.829 Y95.242 E38.68927
G0 F2400 X121.829 Y95.808
G1 F600 X120.191 Y94.17 E38.80484
G0 F2400 X119.626 Y94.17
G1 F600 X121.829 Y96.373 E38.96027
G0 F2400 X121.829 Y96.939
G1 F600 X119.06 Y94.17 E39.15564
G0 F2400 X118.494 Y94.17
G1 F600 X121.829 Y97.505 E39.39094
G0 F2400 X121.829 Y98.07
G1 F600 X117.929 Y94.17 E39.66611
G0 F2400 X117.363 Y94.17
G1 F600 X121.829 Y98.636 E39.98121
G0 F2400 X121.829 Y99.202
G1 F600 X116.797 Y94.17 E40.33624
G0 F2400 X116.232 Y94.17
G1 F600 X121.829 Y99.767 E40.73114
G0 F2400 X121.829 Y100.333
G1 F600 X115.666 Y94.17 E41.16597
G0 F2400 X115.1 Y94.17
G1 F600 X121.829 Y100.899 E41.64074
G0 F2400 X121.829 Y101.464
G1 F600 X114.535 Y94.17 E42.15537
G0 F2400 X113.969 Y94.17
G1 F600 X121.829 Y102.03 E42.70994
G0 F2400 X121.829 Y102.596
G1 F600 X113.403 Y94.17 E43.30444
G0 F2400 X112.837 Y94.17
G1 F600 X121.829 Y103.161 E43.93884
G0 F2400 X121.829 Y103.727
G1 F600 X112.272 Y94.17 E44.61313
G0 F2400 X111.706 Y94.17
G1 F600 X121.829 Y104.293 E45.32737
G0 F2400 X121.829 Y104.858
G1 F600 X111.14 Y94.17 E46.0815
G0 F2400 X110.575 Y94.17
G1 F600 X121.829 Y105.424 E46.87553
G0 F2400 X121.668 Y105.829
G1 F600 X110.009 Y94.17 E47.69813
G0 F2400 X109.443 Y94.17
G1 F600 X121.102 Y105.829 E48.52074
G0 F2400 X120.536 Y105.829
G1 F600 X108.878 Y94.17 E49.34331
G0 F2400 X108.312 Y94.17
G1 F600 X119.971 Y105.829 E50.16592
G0 F2400 X119.405 Y105.829
G1 F600 X107.746 Y94.17 E50.98852
G0 F2400 X107.181 Y94.17
G1 F600 X118.839 Y105.829 E51.81109
G0 F2400 X118.274 Y105.829
G1 F600 X106.615 Y94.17 E52.6337
G0 F2400 X106.049 Y94.17
G1 F600 X117.708 Y105.829 E53.4563
G0 F2400 X117.142 Y105.829
G1 F600 X105.484 Y94.17 E54.27887
G0 F2400 X104.918 Y94.17
G1 F600 X116.577 Y105.829 E55.10148
G0 F2400 X116.011 Y105.829
G1 F600 X104.352 Y94.17 E55.92408
G0 F2400 X103.787 Y94.17
G1 F600 X115.445 Y105.829 E56.74665
G0 F2400 X114.88 Y105.829
G1 F600 X103.221 Y94.17 E57.56926
G0 F2400 X102.655 Y94.17
G1 F600 X114.314 Y105.829 E58.39186
G0 F2400 X113.748 Y105.829
G1 F600 X102.089 Y94.17 E59.21447
G0 F2400 X101.524 Y94.17
G1 F600 X113.183 Y105.829 E60.03707
G0 F2400 X112.617 Y105.829
G1 F600 X100.958 Y94.17 E60.85968
G0 F2400 X100.392 Y94.17
G1 F600 X112.051 Y105.829 E61.68229
G0 F2400 X111.485 Y105.829
G1 F600 X99.826 Y94.169 E62.50493
G0 F2400 X99.26 Y94.169
G1 F600 X110.92 Y105.829 E63.3276
G0 F2400 X110.354 Y105.829
G1 F600 X98.695 Y94.169 E64.15024
G0 F2400 X98.129 Y94.169
G1 F600 X109.788 Y105.829 E64.97288
G0 F2400 X109.223 Y105.829
G1 F600 X97.563 Y94.169 E65.79556
G0 F2400 X96.998 Y94.169
G1 F600 X108.657 Y105.829 E66.6182
G0 F2400 X108.091 Y105.829
G1 F600 X96.432 Y94.169 E67.44084
G0 F2400 X95.866 Y94.169
G1 F600 X107.526 Y105.829 E68.26352
G0 F2400 X106.96 Y105.829
G1 F600 X95.301 Y94.169 E69.08616
G0 F2400 X94.735 Y94.169
G1 F600 X106.394 Y105.829 E69.9088
G0 F2400 X105.829 Y105.829
G1 F600 X94.169 Y94.169 E70.73147
G0 F2400 X93.603 Y94.169
G1 F600 X105.263 Y105.829 E71.55415
G0 F2400 X104.697 Y105.829
G1 F600 X93.038 Y94.169 E72.37679
G0 F2400 X92.472 Y94.169
G1 F600 X104.132 Y105.829 E73.19947
G0 F2400 X103.566 Y105.829
G1 F600 X91.906 Y94.169 E74.02214
G0 F2400 X91.341 Y94.169
G1 F600 X103 Y105.829 E74.84478
G0 F2400 X102.435 Y105.829
G1 F600 X90.775 Y94.169 E75.66746
G0 F2400 X90.209 Y94.169
G1 F600 X101.869 Y105.829 E76.49014
G0 F2400 X101.303 Y105.829
G1 F600 X89.644 Y94.169 E77.31278
G0 F2400 X89.078 Y94.169
G1 F600 X100.737 Y105.829 E78.13542
G0 F2400 X100.172 Y105.829
G1 F600 X88.512 Y94.169 E78.95809
G0 F2400 X87.947 Y94.169
G1 F600 X99.606 Y105.829 E79.78073
G0 F2400 X99.04 Y105.829
G1 F600 X87.381 Y94.169 E80.60337
G0 F2400 X86.815 Y94.169
G1 F600 X98.475 Y105.829 E81.42605
G0 F2400 X97.909 Y105.829
G1 F600 X86.25 Y94.169 E82.24869
G0 F2400 X85.684 Y94.169
G1 F600 X97.343 Y105.829 E83.07133
G0 F2400 X96.778 Y105.829
G1 F600 X85.118 Y94.169 E83.89401
G0 F2400 X84.553 Y94.169
G1 F600 X96.212 Y105.829 E84.71665
G0 F2400 X95.646 Y105.829
G1 F600 X83.987 Y94.169 E85.53929
G0 F2400 X83.421 Y94.169
G1 F600 X95.081 Y105.829 E86.36197
G0 F2400 X94.515 Y105.829
G1 F600 X82.855 Y94.169 E87.18464
G0 F2400 X82.29 Y94.169
G1 F600 X93.949 Y105.829 E88.00728
G0 F2400 X93.384 Y105.829
G1 F600 X81.724 Y94.169 E88.82996
G0 F2400 X81.158 Y94.169
G1 F600 X92.818 Y105.829 E89.65263
G0 F2400 X92.252 Y105.829
G1 F600 X80.593 Y94.169 E90.47527
G0 F2400 X80.027 Y94.169
G1 F600 X91.687 Y105.829 E91.29795
G0 F2400 X91.121 Y105.829
G1 F600 X79.461 Y94.169 E92.12063
G0 F2400 X78.896 Y94.169
G1 F600 X90.555 Y105.829 E92.94327
G0 F2400 X89.989 Y105.829
G1 F600 X78.33 Y94.169 E93.76591
G0 F2400 X78.169 Y94.574
G1 F600 X89.424 Y105.829 E94.56001
G0 F2400 X88.858 Y105.829
G1 F600 X78.169 Y95.14 E95.31418
G0 F2400 X78.169 Y95.706
G1 F600 X88.292 Y105.829 E96.02841
G0 F2400 X87.727 Y105.829
G1 F600 X78.169 Y96.271 E96.70278
G0 F2400 X78.169 Y96.837
G1 F600 X87.161 Y105.829 E97.33721
G0 F2400 X86.595 Y105.829
G1 F600 X78.169 Y97.403 E97.93171
G0 F2400 X78.169 Y97.968
G1 F600 X86.03 Y105.829 E98.48635
G0 F2400 X85.464 Y105.829
G1 F600 X78.169 Y98.534 E99.00105
G0 F2400 X78.169 Y99.1
G1 F600 X84.898 Y105.829 E99.47582
G0 F2400 X84.333 Y105.829
G1 F600 X78.169 Y99.665 E99.91072
G0 F2400 X78.169 Y100.231
G1 F600 X83.767 Y105.829 E100.30569
G0 F2400 X83.201 Y105.829
G1 F600 X78.169 Y100.797 E100.66072
G0 F2400 X78.169 Y101.363
G1 F600 X82.636 Y105.829 E100.97586
G0 F2400 X82.07 Y105.829
G1 F600 X78.169 Y101.928 E101.2511
G0 F2400 X78.169 Y102.494
G1 F600 X81.504 Y105.829 E101.4864
G0 F2400 X80.938 Y105.829
G1 F600 X78.169 Y103.06 E101.68177
G0 F2400 X78.169 Y103.625
G1 F600 X80.373 Y105.829 E101.83727
G0 F2400 X79.807 Y105.829
G1 F600 X78.169 Y104.191 E101.95284
G0 F2400 X78.169 Y104.757
G1 F600 X79.241 Y105.829 E102.02847
G0 F2400 X78.676 Y105.829
G1 F600 X78.169 Y105.322 E102.06425
;MESH:NONMESH
G0 F2400 X122.33 Y106.33
G0 X122.4 Y106.4
;TIME_ELAPSED:217.746344












;LAYER:1
M140 S70
M106 S127.5
;MESH:Better_Temperature_Tower_v5_240-180.stl
G0 F4800 X122.4 Y106.4 Z0.5
;TYPE:WALL-INNER
G1 F1200 X77.6 Y106.4 E103.5543
G1 X77.6 Y93.6 E103.98003
G1 X122.4 Y93.6 E105.47008
G1 X122.4 Y106.4 E105.89581
G0 F4800 X122.8 Y106.8
;TYPE:WALL-OUTER
G1 F750 X77.2 Y106.8 E107.41248
G1 X77.2 Y93.2 E107.86481
G1 X122.8 Y93.2 E109.38148
G1 X122.8 Y106.8 E109.83381
G0 F4800 X122.6 Y106.8
G0 X122.33 Y106.33
G0 X122.01 Y106.01
;TYPE:SKIN
G1 F750 X77.99 Y106.01 E111.29792
G1 X77.99 Y93.99 E111.69771
G1 X122.01 Y93.99 E113.16182
G1 X122.01 Y106.01 E113.56161
G0 F4800 X121.828 Y105.576
G1 F750 X121.575 Y105.829 E113.57351
G0 F4800 X121.01 Y105.829
G1 F750 X121.828 Y105.011 E113.61199
G0 F4800 X121.828 Y104.445
G1 F750 X120.444 Y105.829 E113.67709
G0 F4800 X119.878 Y105.829
G1 F750 X121.828 Y103.879 E113.76881
G0 F4800 X121.828 Y103.313
G1 F750 X119.312 Y105.829 E113.88715
G0 F4800 X118.747 Y105.829
G1 F750 X121.828 Y102.748 E114.03207
G0 F4800 X121.828 Y102.182
G1 F750 X118.181 Y105.829 E114.20362
G0 F4800 X117.615 Y105.829
G1 F750 X121.828 Y101.616 E114.40178
G0 F4800 X121.828 Y101.051
G1 F750 X117.05 Y105.829 E114.62653
G0 F4800 X116.484 Y105.829
G1 F750 X121.828 Y100.485 E114.87789
G0 F4800 X121.828 Y99.919
G1 F750 X115.918 Y105.829 E115.15588
G0 F4800 X115.353 Y105.829
G1 F750 X121.828 Y99.354 E115.46044
G0 F4800 X121.828 Y98.788
G1 F750 X114.787 Y105.829 E115.79163
G0 F4800 X114.221 Y105.829
G1 F750 X121.828 Y98.222 E116.14944
G0 F4800 X121.828 Y97.657
G1 F750 X113.656 Y105.829 E116.53383
G0 F4800 X113.09 Y105.829
G1 F750 X121.828 Y97.091 E116.94484
G0 F4800 X121.828 Y96.525
G1 F750 X112.524 Y105.829 E117.38247
G0 F4800 X111.959 Y105.829
G1 F750 X121.828 Y95.96 E117.84667
G0 F4800 X121.828 Y95.394
G1 F750 X111.393 Y105.829 E118.3375
G0 F4800 X110.827 Y105.829
G1 F750 X121.828 Y94.828 E118.85496
G0 F4800 X121.828 Y94.262
G1 F750 X110.261 Y105.829 E119.39903
G0 F4800 X109.696 Y105.829
G1 F750 X121.356 Y94.169 E119.94748
G0 F4800 X120.79 Y94.169
G1 F750 X109.13 Y105.829 E120.49594
G0 F4800 X108.564 Y105.829
G1 F750 X120.225 Y94.169 E121.04441
G0 F4800 X119.659 Y94.169
G1 F750 X107.999 Y105.829 E121.59286
G0 F4800 X107.433 Y105.829
G1 F750 X119.093 Y94.169 E122.14131
G0 F4800 X118.528 Y94.169
G1 F750 X106.867 Y105.829 E122.68979
G0 F4800 X106.302 Y105.829
G1 F750 X117.962 Y94.169 E123.23824
G0 F4800 X117.396 Y94.169
G1 F750 X105.736 Y105.829 E123.78669
G0 F4800 X105.17 Y105.829
G1 F750 X116.831 Y94.169 E124.33516
G0 F4800 X116.265 Y94.169
G1 F750 X104.605 Y105.829 E124.88361
G0 F4800 X104.039 Y105.829
G1 F750 X115.699 Y94.169 E125.43206
G0 F4800 X115.133 Y94.169
G1 F750 X103.473 Y105.829 E125.98051
G0 F4800 X102.908 Y105.829
G1 F750 X114.568 Y94.169 E126.52896
G0 F4800 X114.002 Y94.169
G1 F750 X102.342 Y105.829 E127.07741
G0 F4800 X101.776 Y105.829
G1 F750 X113.436 Y94.169 E127.62586
G0 F4800 X112.871 Y94.169
G1 F750 X101.211 Y105.829 E128.17432
G0 F4800 X100.645 Y105.829
G1 F750 X112.305 Y94.169 E128.72277
G0 F4800 X111.739 Y94.169
G1 F750 X100.079 Y105.829 E129.27122
G0 F4800 X99.513 Y105.829
G1 F750 X111.174 Y94.169 E129.81969
G0 F4800 X110.608 Y94.169
G1 F750 X98.948 Y105.829 E130.36814
G0 F4800 X98.382 Y105.829
G1 F750 X110.042 Y94.169 E130.91659
G0 F4800 X109.477 Y94.169
G1 F750 X97.816 Y105.829 E131.46507
G0 F4800 X97.251 Y105.829
G1 F750 X108.911 Y94.169 E132.01352
G0 F4800 X108.345 Y94.169
G1 F750 X96.685 Y105.829 E132.56197
G0 F4800 X96.119 Y105.829
G1 F750 X107.78 Y94.169 E133.11044
G0 F4800 X107.214 Y94.169
G1 F750 X95.554 Y105.829 E133.65889
G0 F4800 X94.988 Y105.829
G1 F750 X106.648 Y94.169 E134.20734
G0 F4800 X106.082 Y94.169
G1 F750 X94.422 Y105.829 E134.75579
G0 F4800 X93.857 Y105.829
G1 F750 X105.517 Y94.169 E135.30424
G0 F4800 X104.951 Y94.169
G1 F750 X93.291 Y105.829 E135.85269
G0 F4800 X92.725 Y105.829
G1 F750 X104.385 Y94.169 E136.40115
G0 F4800 X103.82 Y94.169
G1 F750 X92.16 Y105.829 E136.9496
G0 F4800 X91.594 Y105.829
G1 F750 X103.254 Y94.169 E137.49805
G0 F4800 X102.688 Y94.169
G1 F750 X91.028 Y105.829 E138.0465
G0 F4800 X90.462 Y105.829
G1 F750 X102.123 Y94.169 E138.59497
G0 F4800 X101.557 Y94.169
G1 F750 X89.897 Y105.829 E139.14342
G0 F4800 X89.331 Y105.829
G1 F750 X100.991 Y94.169 E139.69187
G0 F4800 X100.426 Y94.169
G1 F750 X88.765 Y105.829 E140.24035
G0 F4800 X88.2 Y105.829
G1 F750 X99.861 Y94.168 E140.78884
G0 F4800 X99.295 Y94.168
G1 F750 X87.634 Y105.829 E141.33734
G0 F4800 X87.068 Y105.829
G1 F750 X98.729 Y94.168 E141.88584
G0 F4800 X98.164 Y94.168
G1 F750 X86.503 Y105.829 E142.43434
G0 F4800 X85.937 Y105.829
G1 F750 X97.598 Y94.168 E142.98284
G0 F4800 X97.032 Y94.168
G1 F750 X85.371 Y105.829 E143.53133
G0 F4800 X84.806 Y105.829
G1 F750 X96.467 Y94.168 E144.07983
G0 F4800 X95.901 Y94.168
G1 F750 X84.24 Y105.829 E144.62833
G0 F4800 X83.674 Y105.829
G1 F750 X95.335 Y94.168 E145.17683
G0 F4800 X94.769 Y94.168
G1 F750 X83.109 Y105.829 E145.7253
G0 F4800 X82.543 Y105.829
