;FLAVOR:Marlin
;TIME:1261
;Filament used: 0.71754m
;Layer height: 0.2
;Generated with Cura_SteamEngine master
M190 S90
M104 S220
M109 S220
M82 ;absolute extrusion mode

G92 E0
G1 F3000 E-8
;LAYER_COUNT:41
;LAYER:0
M107
G0 F3600 X83.171 Y88.52 Z0.3
;TYPE:SKIRT
G1 F3000 E0
G1 F900 X83.593 Y88.144 E0.0282
G1 X84.064 Y87.831 E0.05641
G1 X84.574 Y87.588 E0.0846
G1 X85.114 Y87.419 E0.11283
G1 X85.672 Y87.328 E0.14103
G1 X86.036 Y87.311 E0.15921
G1 X113.96 Y87.31 E1.55235
G1 X114.524 Y87.35 E1.58056
G1 X115.076 Y87.469 E1.60873
G1 X115.607 Y87.665 E1.63697
G1 X116.104 Y87.933 E1.66514
G1 X116.673 Y88.371 E1.70096
G1 X116.751 Y88.443 E1.70626
G1 X116.903 Y88.59 E1.71681
G1 X117.056 Y88.747 E1.72774
G1 X117.421 Y89.179 E1.75596
G1 X117.721 Y89.658 E1.78416
G1 X117.951 Y90.174 E1.81234
G1 X118.106 Y90.718 E1.84056
G1 X118.191 Y91.539 E1.88174
G1 X118.19 Y108.461 E2.72598
G1 X118.15 Y109.025 E2.75419
G1 X118.031 Y109.578 E2.78241
G1 X117.835 Y110.108 E2.8106
G1 X117.567 Y110.606 E2.83882
G1 X117.23 Y111.06 E2.86703
G1 X117.031 Y111.277 E2.88172
G1 X116.805 Y111.505 E2.89773
G1 X116.379 Y111.877 E2.92595
G1 X115.906 Y112.186 E2.95414
G1 X115.393 Y112.425 E2.98237
G1 X114.853 Y112.589 E3.01053
G1 X114.294 Y112.675 E3.03874
G1 X113.964 Y112.689 E3.05522
G1 X86.043 Y112.69 E4.44821
G1 X85.479 Y112.65 E4.47641
G1 X84.927 Y112.531 E4.50459
G1 X84.396 Y112.335 E4.53283
G1 X83.899 Y112.067 E4.561
G1 X83.252 Y111.555 E4.60216
G1 X83.02 Y111.329 E4.61832
G1 X82.644 Y110.907 E4.64652
G1 X82.331 Y110.436 E4.67473
G1 X82.088 Y109.926 E4.70291
G1 X81.919 Y109.386 E4.73114
G1 X81.828 Y108.828 E4.75935
G1 X81.811 Y108.464 E4.77753
G1 X81.81 Y91.543 E5.62172
G1 X81.85 Y90.979 E5.64993
G1 X81.969 Y90.427 E5.6781
G1 X82.165 Y89.896 E5.70634
G1 X82.433 Y89.399 E5.73451
G1 X82.945 Y88.752 E5.77568
G1 X83.171 Y88.52 E5.79183
G0 F3600 X83.457 Y88.799
G1 F900 X83.859 Y88.444 E5.81859
G1 X84.309 Y88.152 E5.84535
G1 X84.798 Y87.931 E5.87213
G1 X85.313 Y87.784 E5.89885
G1 X86.036 Y87.711 E5.9351
G1 X113.96 Y87.71 E7.32823
G1 X114.495 Y87.75 E7.355
G1 X115.018 Y87.869 E7.38176
G1 X115.517 Y88.064 E7.40849
G1 X115.982 Y88.331 E7.43524
G1 X116.402 Y88.665 E7.46201
G1 X116.48 Y88.737 E7.46731
G1 X116.616 Y88.869 E7.47676
G1 X116.769 Y89.026 E7.4877
G1 X117.114 Y89.437 E7.51447
G1 X117.394 Y89.895 E7.54125
G1 X117.602 Y90.389 E7.56799
G1 X117.735 Y90.908 E7.59472
G1 X117.791 Y91.539 E7.62633
G1 X117.79 Y108.461 E8.47057
G1 X117.75 Y108.996 E8.49734
G1 X117.631 Y109.519 E8.52409
G1 X117.436 Y110.018 E8.55082
G1 X117.168 Y110.483 E8.5776
G1 X116.747 Y110.995 E8.61067
G1 X116.521 Y111.223 E8.62669
G1 X116.116 Y111.575 E8.65346
G1 X115.663 Y111.863 E8.68024
G1 X115.173 Y112.08 E8.70697
G1 X114.656 Y112.222 E8.73372
G1 X113.964 Y112.289 E8.76841
G1 X86.043 Y112.29 E10.16139
G1 X85.508 Y112.25 E10.18816
G1 X84.985 Y112.131 E10.21492
G1 X84.486 Y111.936 E10.24165
G1 X84.021 Y111.669 E10.2684
G1 X83.531 Y111.269 E10.29995
G1 X83.299 Y111.043 E10.31611
G1 X82.944 Y110.641 E10.34287
G1 X82.652 Y110.191 E10.36963
G1 X82.431 Y109.702 E10.3964
G1 X82.284 Y109.187 E10.42312
G1 X82.211 Y108.464 E10.45938
G1 X82.21 Y91.543 E11.30357
G1 X82.25 Y91.008 E11.33034
G1 X82.369 Y90.485 E11.3571
G1 X82.564 Y89.986 E11.38382
G1 X82.831 Y89.521 E11.41058
G1 X83.231 Y89.031 E11.44213
G1 X83.457 Y88.799 E11.45829
G0 F3600 X83.744 Y89.078
G1 F900 X84.124 Y88.745 E11.4835
G1 X84.552 Y88.476 E11.50872
G1 X85.017 Y88.278 E11.53393
G1 X85.508 Y88.155 E11.55919
G1 X86.036 Y88.111 E11.58562
G1 X113.96 Y88.11 E12.97875
G1 X114.464 Y88.15 E13.00398
G1 X114.955 Y88.269 E13.02918
G1 X115.422 Y88.463 E13.05441
G1 X115.852 Y88.729 E13.07964
G1 X116.13 Y88.959 E13.09764
G1 X116.208 Y89.031 E13.10293
G1 X116.33 Y89.149 E13.1114
G1 X116.483 Y89.306 E13.12234
G1 X116.806 Y89.694 E13.14753
G1 X117.064 Y90.129 E13.17276
G1 X117.25 Y90.599 E13.19798
G1 X117.36 Y91.093 E13.22323
G1 X117.391 Y91.539 E13.24553
G1 X117.39 Y108.461 E14.08977
G1 X117.35 Y108.965 E14.115
G1 X117.231 Y109.457 E14.14025
G1 X117.036 Y109.923 E14.16545
G1 X116.771 Y110.353 E14.19065
G1 X116.463 Y110.714 E14.21433
G1 X116.237 Y110.942 E14.23034
G1 X115.854 Y111.272 E14.25557
G1 X115.423 Y111.537 E14.28081
G1 X114.956 Y111.731 E14.30604
G1 X114.465 Y111.85 E14.33124
G1 X113.964 Y111.889 E14.35631
G1 X86.043 Y111.89 E15.7493
G1 X85.539 Y111.85 E15.77452
G1 X85.048 Y111.731 E15.79973
G1 X84.581 Y111.537 E15.82495
G1 X84.151 Y111.271 E15.85018
G1 X83.81 Y110.982 E15.87248
G1 X83.578 Y110.756 E15.88864
G1 X83.245 Y110.376 E15.91385
G1 X82.976 Y109.948 E15.93907
G1 X82.778 Y109.483 E15.96428
G1 X82.655 Y108.992 E15.98953
G1 X82.611 Y108.464 E16.01597
G1 X82.61 Y91.543 E16.86016
G1 X82.65 Y91.039 E16.88538
G1 X82.769 Y90.548 E16.91059
G1 X82.963 Y90.081 E16.93582
G1 X83.229 Y89.651 E16.96104
G1 X83.518 Y89.31 E16.98334
G1 X83.744 Y89.078 E16.9995
G0 F3600 X86.116 Y91.5
;TYPE:SUPPORT
G1 F900 X113.884 Y91.5 E18.38485
G1 X114 Y91.616 E18.39304
G1 X114 Y108.384 E19.2296
G1 X113.884 Y108.5 E19.23778
G1 X86.116 Y108.5 E20.62313
G1 X86 Y108.384 E20.63132
G1 X86 Y91.616 E21.46788
G1 X86.116 Y91.5 E21.47606
G0 F3600 X89.299 Y94.4
G1 F900 X88.9 Y94.799 E21.50421
G1 X88.9 Y97.956 E21.66172
G1 X89.245 Y98.3 E21.68602
G1 X88.9 Y98.644 E21.71033
G1 X88.9 Y105.201 E22.03746
G1 X89.299 Y105.6 E22.06561
G1 X91.1 Y105.6 E22.15546
G1 X91.1 Y106.701 E22.21039
G1 X91.499 Y107.1 E22.23854
G1 X96.501 Y107.1 E22.48809
G1 X96.9 Y106.701 E22.51625
G1 X96.9 Y105.6 E22.57117
G1 X103.1 Y105.6 E22.88049
G1 X103.1 Y106.701 E22.93542
G1 X103.499 Y107.1 E22.96357
G1 X108.501 Y107.1 E23.21313
G1 X108.9 Y106.701 E23.24128
G1 X108.9 Y105.6 E23.29621
G1 X110.701 Y105.6 E23.38606
G1 X111.1 Y105.201 E23.41421
G1 X111.1 Y98.644 E23.74134
G1 X110.755 Y98.3 E23.76565
G1 X111.1 Y97.956 E23.78995
G1 X111.1 Y94.799 E23.94746
G1 X110.701 Y94.4 E23.97561
G1 X106.5 Y94.4 E24.1852
G1 X106.5 Y93.299 E24.24013
G1 X106.101 Y92.9 E24.26828
G1 X101.099 Y92.9 E24.51783
G1 X100.7 Y93.299 E24.54598
G1 X100.7 Y94.4 E24.60091
G1 X99.3 Y94.4 E24.67076
G1 X99.3 Y93.299 E24.72568
G1 X98.901 Y92.9 E24.75384
G1 X93.899 Y92.9 E25.00339
G1 X93.5 Y93.299 E25.03154
G1 X93.5 Y94.4 E25.08647
G1 X89.299 Y94.4 E25.29606
G0 F3600 X88.74 Y96
G1 F900 X86.16 Y96 E25.42477
G0 F3600 X88 Y91.66
G1 F900 X88 Y108.34 E26.25694
G0 F3600 X88.74 Y104
G1 F900 X86.16 Y104 E26.38566
G1 F3000 E18.38566
G0 F3600 X89.294 Y105.224
G0 X96 Y107.26
G1 F3000 E26.38566
G1 F900 X96 Y108.34 E26.43954
G0 F3600 X104 Y108.34
G1 F900 X104 Y107.26 E26.49342
G1 F3000 E18.49342
G0 F3600 X110.357 Y105.361
G0 X110.81 Y104.908
G0 X111.26 Y104
G1 F3000 E26.49342
G1 F900 X113.84 Y104 E26.62214
G0 F3600 X112 Y108.34
G1 F900 X112 Y91.66 E27.45431
G0 F3600 X111.26 Y96
G1 F900 X113.84 Y96 E27.58302
G1 F3000 E19.58302
G0 F3600 X110.706 Y94.776
G0 X104 Y92.74
G1 F3000 E27.58302
G1 F900 X104 Y91.66 E27.6369
G0 F3600 X96 Y91.66
G1 F900 X96 Y92.74 E27.69079
G1 F3000 E19.69079
G0 F3600 X96.075 Y94.569
G0 X96.075 Y94.613
G0 X96.224 Y98.284
G0 X96.225 Y98.328
G0 X95.786 Y99.114
G0 X95.73 Y101.77
G0 X95.8 Y101.7
;TYPE:WALL-OUTER
G1 F3000 E27.69079
G1 F900 X104.2 Y101.7 E28.10986
G1 X104.2 Y99.1 E28.23958
G1 X110 Y99.1 E28.52894
G1 X110 Y104.5 E28.79835
G1 X107.8 Y104.5 E28.90811
G1 X107.8 Y104.6 E28.9131
G1 X104.2 Y104.601 E29.0927
G1 X104.2 Y104.5 E29.09774
G1 X95.8 Y104.5 E29.51682
G1 X95.8 Y104.6 E29.52181
G1 X92.2 Y104.601 E29.70141
G1 X92.2 Y104.5 E29.70645
G1 X90 Y104.5 E29.81621
G1 X90 Y99.1 E30.08562
G1 X95.8 Y99.1 E30.37498
G1 X95.8 Y101.7 E30.50469
G0 F3600 X96 Y101.7
G1 F3000 E22.50469
G0 F3600 X96 Y101.8
G0 X104.214 Y101.714
G0 X103.347 Y100.847
G0 X103.339 Y98.743
G0 X103.772 Y98.34
G0 X104.214 Y97.48
G0 X105.33 Y95.57
G0 X105.4 Y95.5
G1 F3000 E30.50469
G1 F900 X110 Y95.5 E30.73419
G1 X110 Y97.5 E30.83397
G1 X90 Y97.5 E31.83177
G1 X90 Y95.5 E31.93155
G1 X94.6 Y95.5 E32.16105
G1 X94.6 Y95.4 E32.16604
G1 X98.2 Y95.399 E32.34564
G1 X98.2 Y95.5 E32.35068
G1 X101.8 Y95.5 E32.53029
G1 X101.8 Y95.4 E32.53527
G1 X105.4 Y95.399 E32.71488
G1 X105.4 Y95.5 E32.71992
G0 F3600 X105.6 Y95.5
G0 X105.01 Y95.789
;TYPE:SKIN
G1 F900 X105.01 Y95.89 E32.72496
G1 X109.61 Y95.89 E32.95445
G1 X109.61 Y97.11 E33.01532
G1 X90.39 Y97.11 E33.97421
G1 X90.39 Y95.89 E34.03507
G1 X94.99 Y95.89 E34.26457
G1 X94.99 Y95.79 E34.26956
G1 X97.81 Y95.789 E34.41025
G1 X97.81 Y95.89 E34.41529
G1 X102.19 Y95.89 E34.63381
G1 X102.19 Y95.79 E34.63879
G1 X105.01 Y95.789 E34.77949
G0 F3600 X109.429 Y96.418
G1 F900 X109.081 Y96.07 E34.80404
G0 F3600 X108.515 Y96.07
G1 F900 X109.374 Y96.929 E34.86465
G1 X109.444 Y96.999
G0 F3600 X108.808 Y96.929
G1 F900 X107.949 Y96.07 E34.92525
G1 X107.879 Y96
G0 F3600 X107.384 Y96.07
G1 F900 X108.243 Y96.929 E34.98586
G1 X108.313 Y96.999
G0 F3600 X107.677 Y96.929
G1 F900 X106.818 Y96.07 E35.04647
G1 X106.748 Y96
G0 F3600 X106.252 Y96.07
G1 F900 X107.111 Y96.929 E35.10707
G1 X107.181 Y96.999
G0 F3600 X106.546 Y96.929
G1 F900 X105.687 Y96.07 E35.16768
G1 X105.617 Y96
G0 F3600 X105.121 Y96.07
G1 F900 X105.98 Y96.929 E35.22829
G1 X106.05 Y96.999
G0 F3600 X105.414 Y96.929
G1 F900 X104.455 Y95.969 E35.29599
G1 X104.385 Y95.899
G0 F3600 X103.889 Y95.969
G1 F900 X104.849 Y96.929 E35.36372
G1 X104.919 Y96.999
G0 F3600 X104.283 Y96.929
G1 F900 X103.323 Y95.969 E35.43145
G1 X103.253 Y95.899
G0 F3600 X102.758 Y95.969
G1 F900 X103.717 Y96.929 E35.49915
G1 X103.787 Y96.999
G0 F3600 X103.152 Y96.929
G1 F900 X102.292 Y96.07 E35.55979
G1 X102.222 Y96
G0 F3600 X101.727 Y96.07
G1 F900 X102.586 Y96.929 E35.6204
G1 X102.656 Y96.999
G0 F3600 X102.02 Y96.929
G1 F900 X101.161 Y96.07 E35.68101
G1 X101.091 Y96
G0 F3600 X100.595 Y96.07
G1 F900 X101.454 Y96.929 E35.74161
G1 X101.524 Y96.999
G0 F3600 X100.889 Y96.929
G1 F900 X100.03 Y96.07 E35.80222
G1 X99.96 Y96
G0 F3600 X99.464 Y96.07
G1 F900 X100.323 Y96.929 E35.86283
G1 X100.393 Y96.999
G0 F3600 X99.757 Y96.929
G1 F900 X98.898 Y96.07 E35.92344
G1 X98.828 Y96
G0 F3600 X98.333 Y96.07
G1 F900 X99.192 Y96.929 E35.98404
G1 X99.262 Y96.999
G0 F3600 X98.626 Y96.929
G1 F900 X97.767 Y96.07 E36.04465
G1 X97.697 Y96
G0 F3600 X97.1 Y95.969
G1 F900 X98.06 Y96.929 E36.11238
G1 X98.13 Y96.999
G0 F3600 X97.495 Y96.929
G1 F900 X96.534 Y95.969 E36.18015
G1 X96.464 Y95.899
G0 F3600 X95.969 Y95.969
G1 F900 X96.929 Y96.929 E36.24788
G1 X96.999 Y96.999
G0 F3600 X96.363 Y96.929
G1 F900 X95.403 Y95.969 E36.31562
G1 X95.333 Y95.899
G0 F3600 X94.938 Y96.069
G1 F900 X95.798 Y96.929 E36.3763
G1 X95.868 Y96.999
G0 F3600 X95.232 Y96.929
G1 F900 X94.372 Y96.069 E36.43697
G1 X94.302 Y95.999
G0 F3600 X93.806 Y96.069
G1 F900 X94.666 Y96.929 E36.49765
G1 X94.736 Y96.999
G0 F3600 X94.101 Y96.929
G1 F900 X93.241 Y96.069 E36.55833
G1 X93.171 Y95.999
G0 F3600 X92.675 Y96.069
G1 F900 X93.535 Y96.929 E36.61901
G1 X93.605 Y96.999
G0 F3600 X92.969 Y96.929
G1 F900 X92.109 Y96.069 E36.67968
G1 X92.039 Y95.999
G0 F3600 X91.544 Y96.069
G1 F900 X92.404 Y96.929 E36.74036
G1 X92.474 Y96.999
G0 F3600 X91.838 Y96.929
G1 F900 X90.978 Y96.069 E36.80104
G1 X90.908 Y95.999
G0 F3600 X90.569 Y96.226
G1 F900 X91.272 Y96.929 E36.85064
G1 X91.342 Y96.999
G0 F3600 X90.706 Y96.929
G1 F900 X90.569 Y96.792 E36.86031
G1 F3000 E28.86031
G0 F3600 X90.39 Y97.48
G0 X90.39 Y99.12
G0 X90.39 Y99.49
G1 F3000 E36.86031
G1 F900 X95.41 Y99.49 E37.11075
G1 X95.41 Y102.09 E37.24047
G1 X104.59 Y102.09 E37.69846
G1 X104.59 Y99.49 E37.82818
G1 X109.61 Y99.49 E38.07862
G1 X109.61 Y104.11 E38.30912
G1 X107.41 Y104.11 E38.41888
G1 X107.41 Y104.21 E38.42386
G1 X104.59 Y104.211 E38.56455
G1 X104.59 Y104.11 E38.56959
G1 X95.41 Y104.11 E39.02759
G1 X95.41 Y104.21 E39.03257
G1 X92.59 Y104.211 E39.17326
G1 X92.59 Y104.11 E39.1783
G1 X90.39 Y104.11 E39.28806
G1 X90.39 Y99.49 E39.51855
G0 F3600 X90.918 Y103.929
G1 F900 X90.569 Y103.58 E39.54318
G0 F3600 X90.569 Y103.014
G1 F900 X91.484 Y103.929 E39.60774
G1 X91.554 Y103.999
G0 F3600 X92.049 Y103.929
G1 F900 X90.569 Y102.449 E39.71216
G1 X90.499 Y102.379
G0 F3600 X90.569 Y101.883
G1 F900 X92.615 Y103.929 E39.85652
G1 X92.685 Y103.999
G0 F3600 X93.281 Y104.029
G1 F900 X90.569 Y101.317 E40.04786
G1 X90.499 Y101.247
G0 F3600 X90.569 Y100.752
G1 F900 X93.847 Y104.029 E40.27911
G1 X93.917 Y104.099
G0 F3600 X94.412 Y104.029
G1 F900 X90.569 Y100.186 E40.55025
G1 X90.499 Y100.116
G0 F3600 X90.618 Y99.669
G1 F900 X94.978 Y104.029 E40.85787
G1 X95.048 Y104.099
G0 F3600 X95.443 Y103.929
G1 F900 X91.184 Y99.669 E41.1584
G1 X91.114 Y99.599
G0 F3600 X91.749 Y99.669
G1 F900 X96.009 Y103.929 E41.45897
G1 X96.079 Y103.999
G0 F3600 X96.575 Y103.929
G1 F900 X92.315 Y99.669 E41.75954
G1 X92.245 Y99.599
G0 F3600 X92.881 Y99.669
G1 F900 X95.23 Y102.018 E41.92527
G1 X95.3 Y102.088
G0 F3600 X95.482 Y102.27
G1 F900 X97.14 Y103.929 E42.04229
G1 X97.21 Y103.999
G0 F3600 X97.706 Y103.929
G1 F900 X96.047 Y102.27 E42.15934
G1 X95.977 Y102.2
G0 F3600 X96.613 Y102.27
G1 F900 X98.272 Y103.929 E42.27639
G1 X98.342 Y103.999
G0 F3600 X98.837 Y103.929
G1 F900 X97.179 Y102.27 E42.39341
G1 X97.109 Y102.2
G0 F3600 X97.744 Y102.27
G1 F900 X99.403 Y103.929 E42.51046
G1 X99.473 Y103.999
G0 F3600 X99.969 Y103.929
G1 F900 X98.31 Y102.27 E42.62751
G1 X98.24 Y102.2
G0 F3600 X98.876 Y102.27
G1 F900 X100.535 Y103.929 E42.74456
G1 X100.605 Y103.999
G0 F3600 X101.101 Y103.929
G1 F900 X99.441 Y102.27 E42.86165
G1 X99.371 Y102.2
G0 F3600 X100.007 Y102.27
G1 F900 X101.667 Y103.929 E42.97873
G1 X101.737 Y103.999
G0 F3600 X102.232 Y103.929
G1 F900 X100.573 Y102.27 E43.09578
G1 X100.503 Y102.2
G0 F3600 X101.138 Y102.27
G1 F900 X102.798 Y103.929 E43.21287
G1 X102.868 Y103.999
G0 F3600 X103.364 Y103.929
G1 F900 X101.704 Y102.27 E43.32996
G1 X101.634 Y102.2
G0 F3600 X102.27 Y102.27
G1 F900 X103.929 Y103.929 E43.44701
G1 X103.999 Y103.999
G0 F3600 X104.495 Y103.929
G1 F900 X102.835 Y102.27 E43.5641
G1 X102.765 Y102.2
G0 F3600 X103.401 Y102.27
G1 F900 X105.161 Y104.03 E43.68827
G1 X105.231 Y104.1
G0 F3600 X105.727 Y104.03
G1 F900 X103.967 Y102.27 E43.81245
G1 X103.897 Y102.2
G0 F3600 X104.533 Y102.27
G1 F900 X106.292 Y104.03 E43.93659
G1 X106.362 Y104.1
G0 F3600 X106.858 Y104.03
G1 F900 X104.769 Y101.94 E44.08402
G1 X104.699 Y101.87
G0 F3600 X104.769 Y101.375
G1 F900 X107.323 Y103.929 E44.26422
G1 X107.393 Y103.999
G0 F3600 X107.889 Y103.929
G1 F900 X104.769 Y100.809 E44.48435
G1 X104.699 Y100.739
G0 F3600 X104.769 Y100.243
G1 F900 X108.455 Y103.929 E44.74442
G1 X108.525 Y103.999
G0 F3600 X109.021 Y103.929
G1 F900 X104.769 Y99.678 E45.04438
G1 X104.699 Y99.608
G0 F3600 X105.327 Y99.67
G1 F900 X109.429 Y103.772 E45.3338
G1 X109.499 Y103.842
G0 F3600 X109.429 Y103.207
G1 F900 X105.892 Y99.67 E45.58336
G1 X105.822 Y99.6
G0 F3600 X106.458 Y99.67
G1 F900 X109.429 Y102.641 E45.79298
G1 X109.499 Y102.711
G0 F3600 X109.429 Y102.075
G1 F900 X107.024 Y99.67 E45.96266
G1 X106.954 Y99.6
G0 F3600 X107.589 Y99.67
G1 F900 X109.429 Y101.51 E46.09248
G1 X109.499 Y101.58
G0 F3600 X109.429 Y100.944
G1 F900 X108.155 Y99.67 E46.18237
G1 X108.085 Y99.6
G0 F3600 X108.721 Y99.67
G1 F900 X109.429 Y100.378 E46.23232
G1 X109.499 Y100.448
G0 F3600 X109.429 Y99.813
G1 F900 X109.286 Y99.67 E46.24241
G0 F3600 X104.228 Y101.728
G0 X95.772 Y101.728
G0 X95.23 Y99.755
G0 X95.187 Y99.712
G1 F900 X94.904 Y99.995 E46.26847
G1 X95.3 Y100.391
G0 F3600 X95.23 Y100.887
G1 F900 X94.012 Y99.669 E46.35441
G1 X93.942 Y99.599
G0 F3600 X93.446 Y99.669
G1 F900 X95.23 Y101.452 E46.48024
G1 X95.3 Y101.522
G1 F3000 E38.48024
G0 F3600 X90.014 Y99.114
G0 X89.388 Y98.489
G0 X86.116 Y91.5
;TIME_ELAPSED:76.925342
;LAYER:1
M140 S90
G0 F5400 X86.116 Y91.5 Z0.5
;TYPE:SUPPORT
G1 F3000 E46.48024
G1 F1350 X113.884 Y91.5 E47.40381
G1 X114 Y91.616 E47.40927
G1 X114 Y108.384 E47.96697
G1 X113.884 Y108.5 E47.97243
G1 X86.116 Y108.5 E48.896
G1 X86 Y108.384 E48.90145
G1 X86 Y91.616 E49.45916
G1 X86.116 Y91.5 E49.46462
G0 F5400 X89.299 Y94.4
G1 F1350 X88.9 Y94.799 E49.48338
G1 X88.9 Y97.956 E49.58839
G1 X89.245 Y98.3 E49.60459
G1 X88.9 Y98.644 E49.62079
G1 X88.9 Y105.201 E49.83888
G1 X89.299 Y105.6 E49.85765
G1 X91.1 Y105.6 E49.91755
G1 X91.1 Y106.701 E49.95417
G1 X91.499 Y107.1 E49.97294
G1 X96.501 Y107.1 E50.1393
G1 X96.9 Y106.701 E50.15807
G1 X96.9 Y105.6 E50.19469
